; generated by PrusaSlicer 2.5.0+MacOS-arm64 on 2022-12-12 at 13:15:14 UTC


;
;
; 

; external perimeters extrusion width = 0.60mm
; perimeters extrusion width = 0.50mm
; infill extrusion width = 0.50mm
; solid infill extrusion width = 0.50mm
; top infill extrusion width = 0.45mm
; first layer extrusion width = 0.42mm

M73 P0 R44
M73 Q0 S45
M201 X1000 Y1000 Z200 E5000 ; sets maximum accelerations, mm/sec^2
M203 X200 Y200 Z12 E120 ; sets maximum feedrates, mm / sec
M204 P1250 R1250 T1250 ; sets acceleration (P, T) and retract acceleration (R), mm/sec^2
M205 X8.00 Y8.00 Z0.40 E4.50 ; sets the jerk limits, mm/sec
M205 S0 T0 ; sets the minimum extruding and travel feed rate, mm/sec
M107
;TYPE:Custom
M862.3 P "MK3S" ; printer model check
M862.1 P0.4 ; nozzle diameter check
M115 U3.11.0 ; tell printer latest fw version
G90 ; use absolute coordinates
M83 ; extruder relative mode
M104 S215 ; set extruder temp
M140 S60 ; set bed temp
M190 S60 ; wait for bed temp
M109 S215 ; wait for extruder temp
G28 W ; home all without mesh bed level
G80 ; mesh bed leveling

G1 Z0.2 F720
G1 Y-3 F1000 ; go outside print area
G92 E0
G1 X60 E9 F1000 ; intro line
G1 X100 E12.5 F1000 ; intro line

G92 E0
M221 S95

; Don't change E values below. Excessive value can damage the printer.

M907 E538 ; set extruder motor current
G21 ; set units to millimeters
G90 ; use absolute coordinates
M83 ; use relative distances for extrusion
M900 K0.05 ; Filament gcode LA 1.5
M900 K30 ; Filament gcode LA 1.0
M107
;LAYER_CHANGE
;Z:0.2
;HEIGHT:0.2
;BEFORE_LAYER_CHANGE
G92 E0.0
;0.2


G1 E-.8 F2100
G1 Z.4 F720
;AFTER_LAYER_CHANGE
;0.2
G1 X88.764 Y97.693 F10800
G1 Z.2 F720
G1 E.8 F2100
M204 S800
;TYPE:Skirt/Brim
;WIDTH:0.42
G1 F1200
G1 X89.81 Y96.817 E.04278
G1 X90.75 Y96.623 E.03008
G1 X159.25 Y96.623 E2.14777
G1 X160.557 Y97.015 E.04278
G1 X161.434 Y98.06 E.04278
G1 X161.627 Y99 E.03008
G1 X161.627 Y111 E.37625
G1 X161.236 Y112.307 E.04278
G1 X160.19 Y113.183 E.04278
G1 X159.25 Y113.377 E.03008
G1 X90.75 Y113.377 E2.14778
G1 X89.443 Y112.986 E.04278
G1 X88.566 Y111.94 E.04278
G1 X88.373 Y111 E.03008
G1 X88.373 Y99 E.37625
G1 X88.747 Y97.75 E.0409
M204 S1000
; printing object BoardSlot.stl id:0 copy 0
;WIPE_START
G1 F8640
G1 X89.81 Y96.817 E-.32671
G1 X90.75 Y96.623 E-.22155
G1 X91.667 Y96.623 E-.21174
;WIPE_END
G1 E-.04 F2100
G1 Z.6 F720
G1 X91.537 Y99.787 F10800
G1 Z.2 F720
G1 E.8 F2100
M204 S800
;TYPE:Perimeter
;WIDTH:0.419999
G1 F1200
G1 X158.463 Y99.787 E2.09841
G1 X158.463 Y110.213 E.3269
M73 Q0 S44
G1 X91.537 Y110.213 E2.09841
G1 X91.537 Y99.847 E.32501
M204 S1000
G1 X91.16 Y99.41 F10800
M204 S800
;TYPE:External perimeter
G1 F1200
G1 X158.84 Y99.41 E2.12206
G1 X158.84 Y110.59 E.35054
M73 P1 R43
M73 Q1 S44
G1 X91.16 Y110.59 E2.12206
G1 X91.16 Y99.47 E.34866
M204 S1000
G1 X91.559 Y99.432 F10800
;WIPE_START
G1 F8640
G1 X94.451 Y99.467 E-.76
;WIPE_END
G1 E-.04 F2100
G1 Z.6 F720
G1 X157.586 Y99.9 F10800
G1 Z.2 F720
G1 E.8 F2100
M204 S800
;TYPE:Solid infill
;WIDTH:0.420902
G1 F1200
G1 X158.18 Y100.495 E.02642
G1 X158.18 Y101.029 E.0168
G1 X157.221 Y100.07 E.04264
G1 X156.686 Y100.07 E.0168
G1 X158.18 Y101.564 E.0664
G1 X158.18 Y102.098 E.0168
G1 X156.152 Y100.07 E.09016
G1 X155.617 Y100.07 E.0168
G1 X158.18 Y102.633 E.11392
G1 X158.18 Y103.167 E.0168
G1 X155.083 Y100.07 E.13768
G1 X154.548 Y100.07 E.0168
G1 X158.18 Y103.702 E.16144
G1 X158.18 Y104.237 E.0168
G1 X154.014 Y100.07 E.1852
G1 X153.479 Y100.07 E.0168
G1 X158.18 Y104.771 E.20896
G1 X158.18 Y105.306 E.0168
G1 X152.944 Y100.07 E.23272
G1 X152.41 Y100.07 E.0168
G1 X158.18 Y105.84 E.25648
G1 X158.18 Y106.375 E.0168
G1 X151.875 Y100.07 E.28024
G1 X151.341 Y100.07 E.0168
G1 X158.18 Y106.909 E.304
G1 X158.18 Y107.444 E.0168
G1 X150.806 Y100.07 E.32775
G1 X150.272 Y100.07 E.0168
G1 X158.18 Y107.978 E.35151
G1 X158.18 Y108.513 E.0168
G1 X149.737 Y100.07 E.37527
G1 X149.203 Y100.07 E.0168
G1 X158.18 Y109.047 E.39903
G1 X158.18 Y109.582 E.0168
G1 X148.668 Y100.07 E.42279
G1 X148.134 Y100.07 E.0168
G1 X157.994 Y109.93 E.43827
G1 X157.459 Y109.93 E.0168
G1 X147.599 Y100.07 E.43827
G1 X147.064 Y100.07 E.0168
G1 X156.925 Y109.93 E.43827
G1 X156.39 Y109.93 E.0168
G1 X146.53 Y100.07 E.43827
G1 X145.995 Y100.07 E.0168
G1 X155.856 Y109.93 E.43827
G1 X155.321 Y109.93 E.0168
G1 X145.461 Y100.07 E.43827
G1 X144.926 Y100.07 E.0168
G1 X154.787 Y109.93 E.43827
G1 X154.252 Y109.93 E.0168
G1 X144.392 Y100.07 E.43827
G1 X143.857 Y100.07 E.0168
G1 X153.717 Y109.93 E.43827
G1 X153.183 Y109.93 E.0168
G1 X143.323 Y100.07 E.43827
G1 X142.788 Y100.07 E.0168
G1 X152.648 Y109.93 E.43827
G1 X152.114 Y109.93 E.0168
G1 X142.254 Y100.07 E.43827
G1 X141.719 Y100.07 E.0168
G1 X151.579 Y109.93 E.43827
G1 X151.045 Y109.93 E.0168
G1 X141.184 Y100.07 E.43827
G1 X140.65 Y100.07 E.0168
G1 X150.51 Y109.93 E.43827
G1 X149.976 Y109.93 E.0168
G1 X140.115 Y100.07 E.43827
G1 X139.581 Y100.07 E.0168
G1 X149.441 Y109.93 E.43827
G1 X148.907 Y109.93 E.0168
G1 X139.046 Y100.07 E.43827
G1 X138.512 Y100.07 E.0168
G1 X148.372 Y109.93 E.43827
G1 X147.837 Y109.93 E.0168
M73 P2 R43
M73 Q2 S44
G1 X137.977 Y100.07 E.43827
G1 X137.443 Y100.07 E.0168
G1 X147.303 Y109.93 E.43827
G1 X146.768 Y109.93 E.0168
G1 X136.908 Y100.07 E.43827
G1 X136.373 Y100.07 E.0168
G1 X146.234 Y109.93 E.43827
G1 X145.699 Y109.93 E.0168
G1 X135.839 Y100.07 E.43827
G1 X135.304 Y100.07 E.0168
G1 X145.165 Y109.93 E.43827
G1 X144.63 Y109.93 E.0168
G1 X134.77 Y100.07 E.43827
G1 X134.235 Y100.07 E.0168
G1 X144.096 Y109.93 E.43827
G1 X143.561 Y109.93 E.0168
G1 X133.701 Y100.07 E.43827
G1 X133.166 Y100.07 E.0168
G1 X143.026 Y109.93 E.43827
G1 X142.492 Y109.93 E.0168
G1 X132.632 Y100.07 E.43827
G1 X132.097 Y100.07 E.0168
G1 X141.957 Y109.93 E.43827
G1 X141.423 Y109.93 E.0168
G1 X131.563 Y100.07 E.43827
G1 X131.028 Y100.07 E.0168
G1 X140.888 Y109.93 E.43827
G1 X140.354 Y109.93 E.0168
G1 X130.493 Y100.07 E.43827
G1 X129.959 Y100.07 E.0168
G1 X139.819 Y109.93 E.43827
G1 X139.285 Y109.93 E.0168
G1 X129.424 Y100.07 E.43827
G1 X128.89 Y100.07 E.0168
G1 X138.75 Y109.93 E.43827
G1 X138.216 Y109.93 E.0168
G1 X128.355 Y100.07 E.43827
G1 X127.821 Y100.07 E.0168
G1 X137.681 Y109.93 E.43827
G1 X137.146 Y109.93 E.0168
G1 X127.286 Y100.07 E.43827
G1 X126.752 Y100.07 E.0168
G1 X136.612 Y109.93 E.43827
G1 X136.077 Y109.93 E.0168
G1 X126.217 Y100.07 E.43827
G1 X125.683 Y100.07 E.0168
G1 X135.543 Y109.93 E.43827
G1 X135.008 Y109.93 E.0168
G1 X125.148 Y100.07 E.43827
G1 X124.613 Y100.07 E.0168
G1 X134.474 Y109.93 E.43827
G1 X133.939 Y109.93 E.0168
G1 X124.079 Y100.07 E.43827
G1 X123.544 Y100.07 E.0168
G1 X133.405 Y109.93 E.43827
G1 X132.87 Y109.93 E.0168
G1 X123.01 Y100.07 E.43827
G1 X122.475 Y100.07 E.0168
G1 X132.336 Y109.93 E.43827
G1 X131.801 Y109.93 E.0168
G1 X121.941 Y100.07 E.43827
G1 X121.406 Y100.07 E.0168
G1 X131.266 Y109.93 E.43827
G1 X130.732 Y109.93 E.0168
G1 X120.872 Y100.07 E.43827
G1 X120.337 Y100.07 E.0168
M73 Q2 S43
G1 X130.197 Y109.93 E.43827
G1 X129.663 Y109.93 E.0168
G1 X119.803 Y100.07 E.43827
G1 X119.268 Y100.07 E.0168
G1 X129.128 Y109.93 E.43827
G1 X128.594 Y109.93 E.0168
M73 P3 R43
G1 X118.733 Y100.07 E.43827
G1 X118.199 Y100.07 E.0168
M73 Q3 S43
G1 X128.059 Y109.93 E.43827
G1 X127.525 Y109.93 E.0168
G1 X117.664 Y100.07 E.43827
G1 X117.13 Y100.07 E.0168
G1 X126.99 Y109.93 E.43827
G1 X126.456 Y109.93 E.0168
G1 X116.595 Y100.07 E.43827
G1 X116.061 Y100.07 E.0168
G1 X125.921 Y109.93 E.43827
G1 X125.386 Y109.93 E.0168
M73 P3 R42
G1 X115.526 Y100.07 E.43827
G1 X114.992 Y100.07 E.0168
G1 X124.852 Y109.93 E.43827
G1 X124.317 Y109.93 E.0168
G1 X114.457 Y100.07 E.43827
G1 X113.922 Y100.07 E.0168
G1 X123.783 Y109.93 E.43827
G1 X123.248 Y109.93 E.0168
G1 X113.388 Y100.07 E.43827
G1 X112.853 Y100.07 E.0168
G1 X122.714 Y109.93 E.43827
G1 X122.179 Y109.93 E.0168
G1 X112.319 Y100.07 E.43827
G1 X111.784 Y100.07 E.0168
G1 X121.645 Y109.93 E.43827
G1 X121.11 Y109.93 E.0168
G1 X111.25 Y100.07 E.43827
G1 X110.715 Y100.07 E.0168
G1 X120.575 Y109.93 E.43827
G1 X120.041 Y109.93 E.0168
G1 X110.181 Y100.07 E.43827
G1 X109.646 Y100.07 E.0168
G1 X119.506 Y109.93 E.43827
G1 X118.972 Y109.93 E.0168
G1 X109.112 Y100.07 E.43827
G1 X108.577 Y100.07 E.0168
G1 X118.437 Y109.93 E.43827
G1 X117.903 Y109.93 E.0168
G1 X108.042 Y100.07 E.43827
G1 X107.508 Y100.07 E.0168
G1 X117.368 Y109.93 E.43827
G1 X116.834 Y109.93 E.0168
G1 X106.973 Y100.07 E.43827
G1 X106.439 Y100.07 E.0168
G1 X116.299 Y109.93 E.43827
G1 X115.765 Y109.93 E.0168
G1 X105.904 Y100.07 E.43827
G1 X105.37 Y100.07 E.0168
G1 X115.23 Y109.93 E.43827
G1 X114.695 Y109.93 E.0168
G1 X104.835 Y100.07 E.43827
G1 X104.301 Y100.07 E.0168
G1 X114.161 Y109.93 E.43827
G1 X113.626 Y109.93 E.0168
G1 X103.766 Y100.07 E.43827
G1 X103.232 Y100.07 E.0168
G1 X113.092 Y109.93 E.43827
G1 X112.557 Y109.93 E.0168
G1 X102.697 Y100.07 E.43827
G1 X102.162 Y100.07 E.0168
G1 X112.023 Y109.93 E.43827
G1 X111.488 Y109.93 E.0168
G1 X101.628 Y100.07 E.43827
G1 X101.093 Y100.07 E.0168
G1 X110.954 Y109.93 E.43827
G1 X110.419 Y109.93 E.0168
G1 X100.559 Y100.07 E.43827
G1 X100.024 Y100.07 E.0168
G1 X109.885 Y109.93 E.43827
G1 X109.35 Y109.93 E.0168
M73 P4 R42
G1 X99.49 Y100.07 E.43827
G1 X98.955 Y100.07 E.0168
G1 X108.815 Y109.93 E.43827
G1 X108.281 Y109.93 E.0168
M73 Q4 S43
G1 X98.421 Y100.07 E.43827
G1 X97.886 Y100.07 E.0168
G1 X107.746 Y109.93 E.43827
G1 X107.212 Y109.93 E.0168
G1 X97.352 Y100.07 E.43827
G1 X96.817 Y100.07 E.0168
G1 X106.677 Y109.93 E.43827
G1 X106.143 Y109.93 E.0168
G1 X96.282 Y100.07 E.43827
G1 X95.748 Y100.07 E.0168
G1 X105.608 Y109.93 E.43827
G1 X105.074 Y109.93 E.0168
G1 X95.213 Y100.07 E.43827
G1 X94.679 Y100.07 E.0168
G1 X104.539 Y109.93 E.43827
G1 X104.005 Y109.93 E.0168
G1 X94.144 Y100.07 E.43827
G1 X93.61 Y100.07 E.0168
G1 X103.47 Y109.93 E.43827
G1 X102.935 Y109.93 E.0168
G1 X93.075 Y100.07 E.43827
G1 X92.541 Y100.07 E.0168
G1 X102.401 Y109.93 E.43827
G1 X101.866 Y109.93 E.0168
G1 X92.006 Y100.07 E.43827
G1 X91.82 Y100.07 E.00585
G1 X91.82 Y100.418 E.01095
G1 X101.332 Y109.93 E.42279
G1 X100.797 Y109.93 E.0168
G1 X91.82 Y100.953 E.39903
G1 X91.82 Y101.487 E.0168
G1 X100.263 Y109.93 E.37527
G1 X99.728 Y109.93 E.0168
G1 X91.82 Y102.022 E.35151
G1 X91.82 Y102.556 E.0168
G1 X99.194 Y109.93 E.32775
G1 X98.659 Y109.93 E.0168
G1 X91.82 Y103.091 E.30399
G1 X91.82 Y103.625 E.0168
G1 X98.124 Y109.93 E.28023
G1 X97.59 Y109.93 E.0168
G1 X91.82 Y104.16 E.25647
G1 X91.82 Y104.695 E.0168
G1 X97.055 Y109.93 E.23271
G1 X96.521 Y109.93 E.0168
G1 X91.82 Y105.229 E.20895
G1 X91.82 Y105.764 E.0168
G1 X95.986 Y109.93 E.18519
G1 X95.452 Y109.93 E.0168
G1 X91.82 Y106.298 E.16143
G1 X91.82 Y106.833 E.0168
G1 X94.917 Y109.93 E.13767
G1 X94.383 Y109.93 E.0168
G1 X91.82 Y107.367 E.11391
G1 X91.82 Y107.902 E.0168
G1 X93.848 Y109.93 E.09015
G1 X93.314 Y109.93 E.0168
G1 X91.82 Y108.436 E.0664
G1 X91.82 Y108.971 E.0168
G1 X92.779 Y109.93 E.04264
G1 X92.244 Y109.93 E.0168
G1 X91.65 Y109.336 E.02642
M204 S1000
; stop printing object BoardSlot.stl id:0 copy 0
M106 S84.15
;LAYER_CHANGE
;Z:0.5
;HEIGHT:0.3
;BEFORE_LAYER_CHANGE
G92 E0.0
;0.5


;WIPE_START
G1 F8640
G1 X92.244 Y109.93 E-.19409
G1 X92.779 Y109.93 E-.12343
G1 X91.82 Y108.971 E-.31323
G1 X91.82 Y108.436 E-.12343
G1 X91.838 Y108.454 E-.00582
;WIPE_END
G1 E-.04 F2100
G1 Z.6 F720
;AFTER_LAYER_CHANGE
;0.5
G1 X88.373 Y108.454 F10800
G1 Z.5 F720
G1 E.8 F2100
;TYPE:Skirt/Brim
;WIDTH:0.42
G1 F2700
G1 X88.373 Y99 E.41934
G1 X88.764 Y97.693 E.06052
G1 X89.81 Y96.817 E.06052
G1 X90.75 Y96.623 E.04256
G1 X159.25 Y96.623 E3.03831
G1 X160.557 Y97.015 E.06052
G1 X161.434 Y98.06 E.06052
G1 X161.627 Y99 E.04256
G1 X161.627 Y111 E.53226
G1 X161.236 Y112.307 E.06052
G1 X160.19 Y113.183 E.06052
G1 X159.25 Y113.377 E.04256
G1 X90.75 Y113.377 E3.03831
G1 X89.443 Y112.986 E.06052
G1 X88.566 Y111.94 E.06052
G1 X88.373 Y111 E.04256
G1 X88.373 Y108.514 E.11026
; printing object BoardSlot.stl id:0 copy 0
;WIPE_START
G1 F8640
G1 X88.373 Y105.223 E-.76
;WIPE_END
G1 E-.04 F2100
G1 Z.9 F720
G1 X91.536 Y99.786 F10800
G1 Z.5 F720
G1 E.8 F2100
M204 S800
;TYPE:Perimeter
;WIDTH:0.5
G1 F3000
G1 X158.464 Y99.786 E3.63644
G1 X158.464 Y110.214 E.56663
G1 X91.536 Y110.214 E3.63644
G1 X91.536 Y99.846 E.56337
M204 S1000
G1 X91.05 Y99.3 F10800
M204 S800
;TYPE:External perimeter
;WIDTH:0.6
M73 P5 R42
G1 F2100
G1 X158.95 Y99.3 E4.53609
G1 X158.95 Y110.7 E.76158
M73 Q5 S43
G1 X91.05 Y110.7 E4.53609
G1 X91.05 Y99.36 E.75758
M204 S1000
G1 X91.449 Y99.322 F10800
;WIPE_START
G1 F8640
G1 X94.341 Y99.357 E-.76
;WIPE_END
G1 E-.04 F2100
G1 Z.9 F720
G1 X158.334 Y109.197 F10800
M73 Q5 S42
G1 Z.5 F720
G1 E.8 F2100
;TYPE:Solid infill
;WIDTH:0.503027
G1 F4800
G1 X157.643 Y109.888 E.05346
G1 X157.022 Y109.888 E.03394
G1 X158.138 Y108.772 E.08629
G1 X158.138 Y108.152 E.03394
G1 X156.402 Y109.888 E.13429
G1 X155.782 Y109.888 E.03394
G1 X158.138 Y107.532 E.18229
G1 X158.138 Y106.911 E.03394
G1 X155.161 Y109.888 E.23028
G1 X154.541 Y109.888 E.03394
G1 X158.138 Y106.291 E.27828
G1 X158.138 Y105.671 E.03394
G1 X153.921 Y109.888 E.32628
G1 X153.3 Y109.888 E.03394
G1 X158.138 Y105.05 E.37427
G1 X158.138 Y104.43 E.03394
G1 X152.68 Y109.888 E.42227
G1 X152.06 Y109.888 E.03394
G1 X158.138 Y103.81 E.47027
G1 X158.138 Y103.189 E.03394
G1 X151.439 Y109.888 E.51827
G1 X150.819 Y109.888 E.03394
G1 X158.138 Y102.569 E.56626
G1 X158.138 Y101.949 E.03394
G1 X150.199 Y109.888 E.61426
G1 X149.578 Y109.888 E.03394
G1 X158.138 Y101.328 E.66226
G1 X158.138 Y100.708 E.03394
G1 X148.958 Y109.888 E.71025
G1 X148.338 Y109.888 E.03394
G1 X158.113 Y100.112 E.75634
G1 X157.493 Y100.112 E.03394
G1 X147.717 Y109.888 E.75634
G1 X147.097 Y109.888 E.03394
G1 X156.872 Y100.112 E.75634
G1 X156.252 Y100.112 E.03394
G1 X146.477 Y109.888 E.75634
G1 X145.856 Y109.888 E.03394
G1 X155.632 Y100.112 E.75634
G1 X155.011 Y100.112 E.03394
G1 X145.236 Y109.888 E.75634
G1 X144.616 Y109.888 E.03394
G1 X154.391 Y100.112 E.75634
G1 X153.771 Y100.112 E.03394
G1 X143.995 Y109.888 E.75634
G1 X143.375 Y109.888 E.03394
G1 X153.15 Y100.112 E.75634
G1 X152.53 Y100.112 E.03394
G1 X142.755 Y109.888 E.75634
G1 X142.134 Y109.888 E.03394
G1 X151.91 Y100.112 E.75634
G1 X151.289 Y100.112 E.03394
G1 X141.514 Y109.888 E.75634
G1 X140.894 Y109.888 E.03394
M73 P5 R41
G1 X150.669 Y100.112 E.75634
G1 X150.049 Y100.112 E.03394
G1 X140.273 Y109.888 E.75634
G1 X139.653 Y109.888 E.03394
G1 X149.428 Y100.112 E.75634
G1 X148.808 Y100.112 E.03394
G1 X139.033 Y109.888 E.75634
G1 X138.412 Y109.888 E.03394
G1 X148.188 Y100.112 E.75634
G1 X147.567 Y100.112 E.03394
G1 X137.792 Y109.888 E.75634
G1 X137.172 Y109.888 E.03394
G1 X146.947 Y100.112 E.75634
G1 X146.327 Y100.112 E.03394
G1 X136.551 Y109.888 E.75634
G1 X135.931 Y109.888 E.03394
G1 X145.706 Y100.112 E.75634
G1 X145.086 Y100.112 E.03394
G1 X135.311 Y109.888 E.75634
G1 X134.69 Y109.888 E.03394
G1 X144.466 Y100.112 E.75634
G1 X143.845 Y100.112 E.03394
G1 X134.07 Y109.888 E.75634
G1 X133.45 Y109.888 E.03394
G1 X143.225 Y100.112 E.75634
G1 X142.605 Y100.112 E.03394
G1 X132.829 Y109.888 E.75634
G1 X132.209 Y109.888 E.03394
G1 X141.984 Y100.112 E.75634
G1 X141.364 Y100.112 E.03394
G1 X131.589 Y109.888 E.75634
G1 X130.968 Y109.888 E.03394
G1 X140.744 Y100.112 E.75634
G1 X140.123 Y100.112 E.03394
G1 X130.348 Y109.888 E.75634
G1 X129.728 Y109.888 E.03394
G1 X139.503 Y100.112 E.75634
G1 X138.883 Y100.112 E.03394
G1 X129.107 Y109.888 E.75634
G1 X128.487 Y109.888 E.03394
G1 X138.262 Y100.112 E.75634
G1 X137.642 Y100.112 E.03394
G1 X127.867 Y109.888 E.75634
G1 X127.246 Y109.888 E.03394
G1 X137.022 Y100.112 E.75634
G1 X136.401 Y100.112 E.03394
G1 X126.626 Y109.888 E.75634
G1 X126.006 Y109.888 E.03394
G1 X135.781 Y100.112 E.75634
G1 X135.161 Y100.112 E.03394
G1 X125.385 Y109.888 E.75634
G1 X124.765 Y109.888 E.03394
G1 X134.54 Y100.112 E.75634
G1 X133.92 Y100.112 E.03394
G1 X124.144 Y109.888 E.75634
G1 X123.524 Y109.888 E.03394
G1 X133.3 Y100.112 E.75634
G1 X132.679 Y100.112 E.03394
G1 X122.904 Y109.888 E.75634
G1 X122.283 Y109.888 E.03394
G1 X132.059 Y100.112 E.75634
G1 X131.439 Y100.112 E.03394
G1 X121.663 Y109.888 E.75634
G1 X121.043 Y109.888 E.03394
G1 X130.818 Y100.112 E.75634
G1 X130.198 Y100.112 E.03394
