; generated by PrusaSlicer 2.5.0+MacOS-arm64 on 2022-12-12 at 13:16:18 UTC


;
;
; 

; external perimeters extrusion width = 0.60mm
; perimeters extrusion width = 0.50mm
; infill extrusion width = 0.50mm
; solid infill extrusion width = 0.50mm
; top infill extrusion width = 0.45mm
; first layer extrusion width = 0.42mm

M73 P0 R14
M73 Q0 S14
M201 X1000 Y1000 Z200 E5000 ; sets maximum accelerations, mm/sec^2
M203 X200 Y200 Z12 E120 ; sets maximum feedrates, mm / sec
M204 P1250 R1250 T1250 ; sets acceleration (P, T) and retract acceleration (R), mm/sec^2
M205 X8.00 Y8.00 Z0.40 E4.50 ; sets the jerk limits, mm/sec
M205 S0 T0 ; sets the minimum extruding and travel feed rate, mm/sec
M107
;TYPE:Custom
M862.3 P "MK3S" ; printer model check
M862.1 P0.4 ; nozzle diameter check
M115 U3.11.0 ; tell printer latest fw version
G90 ; use absolute coordinates
M83 ; extruder relative mode
M104 S215 ; set extruder temp
M140 S60 ; set bed temp
M190 S60 ; wait for bed temp
M109 S215 ; wait for extruder temp
G28 W ; home all without mesh bed level
G80 ; mesh bed leveling

G1 Z0.2 F720
G1 Y-3 F1000 ; go outside print area
G92 E0
G1 X60 E9 F1000 ; intro line
G1 X100 E12.5 F1000 ; intro line

G92 E0
M221 S95

; Don't change E values below. Excessive value can damage the printer.

M907 E538 ; set extruder motor current
G21 ; set units to millimeters
G90 ; use absolute coordinates
M83 ; use relative distances for extrusion
M900 K0.05 ; Filament gcode LA 1.5
M900 K30 ; Filament gcode LA 1.0
M107
;LAYER_CHANGE
;Z:0.2
;HEIGHT:0.2
;BEFORE_LAYER_CHANGE
G92 E0.0
;0.2


G1 E-.8 F2100
G1 Z.4 F720
;AFTER_LAYER_CHANGE
;0.2
G1 X117.61 Y97.235 F10800
G1 Z.2 F720
M73 P0 R13
G1 E.8 F2100
M204 S800
;TYPE:Skirt/Brim
;WIDTH:0.42
G1 F1200
G1 X118.211 Y96.66 E.02607
G1 X119.074 Y96.068 E.0328
G1 X122.222 Y94.611 E.10876
G1 X123.536 Y94.381 E.04184
G1 X126.464 Y94.381 E.0918
G1 X127.288 Y94.492 E.02607
G1 X128.288 Y94.797 E.0328
G1 X131.39 Y96.35 E.10875
G1 X132.39 Y97.235 E.04184
G1 X134.215 Y99.524 E.0918
G1 X134.642 Y100.237 E.02607
G1 X135.027 Y101.21 E.0328
M73 Q1 S14
G1 X135.678 Y104.064 E.0918
G1 X135.753 Y104.892 E.02607
G1 X135.678 Y105.936 E.0328
G1 X135.027 Y108.79 E.0918
G1 X134.51 Y110.02 E.04184
M73 P1 R13
G1 X132.39 Y112.765 E.10875
G1 X131.562 Y113.52 E.03511
G1 X130.926 Y113.932 E.02376
G1 X128.288 Y115.203 E.0918
G1 X127.498 Y115.46 E.02607
G1 X126.464 Y115.619 E.0328
M73 Q1 S13
G1 X122.996 Y115.565 E.10876
G1 X121.712 Y115.203 E.04184
G1 X118.61 Y113.649 E.10876
G1 X117.61 Y112.765 E.04184
G1 X115.785 Y110.476 E.0918
G1 X115.358 Y109.763 E.02607
G1 X114.973 Y108.79 E.0328
G1 X114.322 Y105.936 E.0918
G1 X114.247 Y105.108 E.02607
G1 X114.322 Y104.064 E.0328
G1 X114.973 Y101.21 E.0918
G1 X115.49 Y99.98 E.04184
G1 X117.574 Y97.282 E.10687
M204 S1000
G1 X117.872 Y97.513 F10800
M204 S800
G1 F1200
G1 X118.446 Y96.955 E.02513
G1 X119.237 Y96.408 E.03015
G1 X122.315 Y94.976 E.10643
G1 X123.536 Y94.758 E.03888
G1 X126.464 Y94.758 E.0918
G1 X127.216 Y94.863 E.02382
G1 X128.125 Y95.137 E.02976
G1 X131.163 Y96.652 E.10643
G1 X132.095 Y97.47 E.03888
G1 X133.92 Y99.759 E.0918
G1 X134.302 Y100.401 E.02342
G1 X134.659 Y101.294 E.03015
G1 X135.311 Y104.148 E.0918
G1 X135.376 Y104.892 E.02342
G1 X135.311 Y105.852 E.03015
G1 X134.659 Y108.706 E.0918
G1 X134.175 Y109.848 E.03888
G1 X132.095 Y112.53 E.10643
G1 X131.335 Y113.219 E.03215
G1 X130.763 Y113.592 E.02143
G1 X128.125 Y114.863 E.0918
G1 X127.414 Y115.092 E.02342
G1 X126.464 Y115.242 E.03016
G1 X123.07 Y115.196 E.10643
G1 X121.875 Y114.863 E.03888
G1 X118.837 Y113.348 E.10644
G1 X117.905 Y112.53 E.03888
G1 X116.08 Y110.241 E.0918
G1 X115.698 Y109.599 E.02342
G1 X115.341 Y108.706 E.03015
G1 X114.689 Y105.852 E.0918
G1 X114.624 Y105.108 E.02342
G1 X114.689 Y104.148 E.03015
G1 X115.341 Y101.294 E.0918
G1 X115.825 Y100.152 E.03888
G1 X117.835 Y97.561 E.10283
M204 S1000
; printing object MainGear.stl id:0 copy 0
;WIPE_START
G1 F8640
G1 X118.446 Y96.955 E-.19879
G1 X119.237 Y96.408 E-.22204
G1 X120.569 Y95.788 E-.33917
;WIPE_END
G1 E-.04 F2100
G1 Z.6 F720
G1 X129.953 Y102.464 F10800
G1 Z.2 F720
G1 E.8 F2100
M204 S800
;TYPE:Perimeter
;WIDTH:0.419999
G1 F1200
G1 X130.015 Y102.474 E.00198
;WIDTH:0.43013
G1 X130.425 Y102.386 E.01348
G1 X130.048 Y102.72 E.01619
;WIDTH:0.419999
G1 X129.826 Y103.202 E.01663
G1 X129.791 Y103.483 E.0089
G1 X129.875 Y104.05 E.01796
G1 X130.14 Y104.554 E.01786
G1 X130.555 Y104.867 E.0163
;WIDTH:0.436309
G1 X131.01 Y105 E.01552
G1 X130.75 Y105.054 E.00869
;WIDTH:0.425285
G1 X130.328 Y105.274 E.01514
;WIDTH:0.419999
G1 X130.042 Y105.591 E.01338
G1 X129.914 Y105.852 E.0091
G1 X129.782 Y106.553 E.02238
G1 X129.901 Y107.034 E.01552
G1 X130.095 Y107.33 E.01109
;WIDTH:0.43167
G1 X130.472 Y107.635 E.01569
G1 X130.262 Y107.565 E.00717
;WIDTH:0.42499
G1 X129.823 Y107.533 E.01397
;WIDTH:0.419999
G1 X129.415 Y107.652 E.01333
G1 X129.162 Y107.811 E.00935
G1 X128.767 Y108.244 E.01841
G1 X128.553 Y108.74 E.01693
G1 X128.567 Y109.26 E.0163
;WIDTH:0.43632
G1 X128.747 Y109.699 E.01552
G1 X128.543 Y109.529 E.00869
;WIDTH:0.425287
G1 X128.108 Y109.336 E.01513
;WIDTH:0.419999
G1 X127.682 Y109.311 E.01337
G1 X127.406 Y109.368 E.00884
G1 X126.784 Y109.693 E.022
G1 X126.529 Y109.994 E.01239
G1 X126.355 Y110.435 E.01486
;WIDTH:0.431694
G1 X126.351 Y110.921 E.01571
G1 X126.275 Y110.713 E.00717
;WIDTH:0.425002
G1 X125.999 Y110.328 E.01506
;WIDTH:0.419999
G1 X125.679 Y110.106 E.01222
G1 X125.412 Y110.008 E.0089
G1 X124.841 Y109.964 E.01796
G1 X124.295 Y110.108 E.01774
G1 X123.919 Y110.422 E.01535
;WIDTH:0.42529
G1 X123.773 Y110.618 E.00777
;WIDTH:0.436314
G1 X123.663 Y110.859 E.00869
G1 X123.668 Y110.594 E.00869
;WIDTH:0.42529
G1 X123.622 Y110.354 E.00776
;WIDTH:0.419999
G1 X123.486 Y110.026 E.01114
G1 X123.321 Y109.805 E.00865
G1 X122.89 Y109.493 E.01667
G1 X122.291 Y109.299 E.01973
G1 X121.822 Y109.36 E.01484
G1 X121.595 Y109.448 E.00762
;WIDTH:0.431676
G1 X121.213 Y109.749 E.01571
G1 X121.328 Y109.559 E.00717
;WIDTH:0.424993
G1 X121.458 Y109.103 E.01506
;WIDTH:0.419999
G1 X121.428 Y108.664 E.0138
G1 X121.276 Y108.317 E.01188
G1 X120.856 Y107.81 E.02065
G1 X120.519 Y107.619 E.01214
G1 X120.053 Y107.53 E.01488
;WIDTH:0.43221
G1 X119.585 Y107.61 E.01535
G1 X119.952 Y107.28 E.01595
;WIDTH:0.419999
G1 X120.174 Y106.798 E.01663
G1 X120.209 Y106.517 E.0089
G1 X120.132 Y105.971 E.01729
G1 X119.86 Y105.446 E.01853
G1 X119.474 Y105.152 E.01522
;WIDTH:0.420204
G1 X119.25 Y105.057 E.00762
;WIDTH:0.421124
G1 X118.934 Y105 E.01011
G1 X119.25 Y104.943 E.01009
;WIDTH:0.420206
G1 X119.672 Y104.726 E.01491
;WIDTH:0.419999
G1 X119.957 Y104.41 E.01332
G1 X120.094 Y104.116 E.01016
G1 X120.22 Y103.517 E.0192
G1 X120.142 Y103.081 E.01388
G1 X119.906 Y102.671 E.01486
;WIDTH:0.432102
G1 X119.615 Y102.407 E.0127
G1 X119.738 Y102.436 E.00408
;WIDTH:0.428113
G1 X120.212 Y102.46 E.01519
;WIDTH:0.419999
G1 X120.585 Y102.348 E.01222
G1 X120.827 Y102.2 E.0089
G1 X121.205 Y101.801 E.01722
G1 X121.446 Y101.263 E.01849
G1 X121.436 Y100.774 E.01532
;WIDTH:0.420209
G1 X121.37 Y100.539 E.00764
;WIDTH:0.420983
G1 X121.246 Y100.305 E.00835
G1 X121.459 Y100.469 E.00845
;WIDTH:0.420209
G1 X121.673 Y100.585 E.00764
;WIDTH:0.419999
G1 X122.015 Y100.682 E.01114
G1 X122.291 Y100.691 E.00865
G1 X122.803 Y100.549 E.01667
G1 X123.292 Y100.238 E.01818
G1 X123.573 Y99.797 E.0164
G1 X123.645 Y99.565 E.00762
;WIDTH:0.432132
G1 X123.67 Y99.173 E.01269
G1 X123.724 Y99.288 E.00408
;WIDTH:0.428134
G1 X124.001 Y99.673 E.01519
;WIDTH:0.419999
G1 X124.268 Y99.877 E.01057
G1 X124.766 Y100.023 E.01625
G1 X125.3 Y100.02 E.01676
G1 X125.543 Y99.953 E.0079
G1 X125.918 Y99.745 E.01346
;WIDTH:0.420206
G1 X126.224 Y99.382 E.01489
;WIDTH:0.421134
G1 X126.35 Y99.086 E.01011
G1 X126.345 Y99.141 E.00173
;WIDTH:0.420974
G1 X126.366 Y99.614 E.01489
;WIDTH:0.419999
G1 X126.514 Y99.974 E.01222
G1 X126.679 Y100.195 E.00865
G1 X127.11 Y100.507 E.01667
G1 X127.709 Y100.701 E.01974
G1 X128.178 Y100.64 E.01483
M73 Q2 S13
G1 X128.405 Y100.552 E.00762
;WIDTH:0.432108
G1 X128.726 Y100.327 E.01269
G1 X128.67 Y100.44 E.00408
;WIDTH:0.428117
G1 X128.542 Y100.897 E.01519
;WIDTH:0.419999
G1 X128.572 Y101.336 E.0138
G1 X128.724 Y101.683 E.01188
G1 X129.078 Y102.126 E.01776
G1 X129.504 Y102.392 E.01577
G1 X129.893 Y102.454 E.01235
M204 S1000
G1 X130.007 Y102.091 F10800
M204 S800
;TYPE:External perimeter
G1 F1200
G1 X130.334 Y102.014 E.01054
G1 X130.784 Y101.749 E.01636
G1 X131.347 Y101.633 E.01802
G1 X131.8 Y101.636 E.01422
M73 P2 R13
G1 X131.87 Y101.78 E.00501
G1 X131.622 Y102.102 E.01273
G1 X131.331 Y102.379 E.01259
G1 X131.104 Y102.533 E.00861
G1 X130.609 Y102.722 E.01661
G1 X130.354 Y102.944 E.0106
G1 X130.166 Y103.378 E.01484
G1 X130.224 Y103.894 E.01628
G1 X130.396 Y104.265 E.0128
G1 X130.745 Y104.541 E.01395
G1 X131.081 Y104.621 E.01083
G1 X131.622 Y104.581 E.017
G1 X132.179 Y104.72 E.01802
G1 X132.586 Y104.919 E.01421
G1 X132.586 Y105.08 E.00503
G1 X132.179 Y105.28 E.01422
G1 X131.622 Y105.419 E.01802
G1 X131.136 Y105.377 E.01527
G1 X130.82 Y105.427 E.01006
G1 X130.506 Y105.61 E.01138
G1 X130.283 Y105.926 E.01211
G1 X130.162 Y106.457 E.0171
G1 X130.212 Y106.797 E.01077
G1 X130.318 Y107.01 E.00746
G1 X130.609 Y107.278 E.0124
G1 X131.141 Y107.491 E.01796
G1 X131.59 Y107.863 E.01828
G1 X131.87 Y108.22 E.01423
G1 X131.8 Y108.364 E.00501
G1 X131.395 Y108.37 E.01273
G1 X130.997 Y108.316 E.01259
G1 X130.735 Y108.234 E.00861
G1 X130.278 Y107.965 E.01661
G1 X129.945 Y107.904 E.0106
G1 X129.488 Y108.028 E.01485
G1 X129.122 Y108.395 E.01626
G1 X128.939 Y108.76 E.0128
G1 X128.941 Y109.205 E.01395
G1 X129.087 Y109.518 E.01083
G1 X129.424 Y109.867 E.01522
G1 X129.679 Y110.382 E.018
G1 X129.792 Y110.882 E.01608
G1 X129.667 Y110.982 E.00499
G1 X129.258 Y110.789 E.01418
G1 X128.823 Y110.46 E.01709
G1 X128.533 Y110.035 E.01613
G1 X128.294 Y109.817 E.01016
G1 X127.982 Y109.692 E.01056
G1 X127.638 Y109.69 E.01078
G1 X127.155 Y109.908 E.01662
G1 X126.924 Y110.088 E.00916
G1 X126.749 Y110.4 E.01121
G1 X126.717 Y110.806 E.01276
G1 X126.881 Y111.354 E.01796
G1 X126.871 Y111.937 E.01828
G1 X126.766 Y112.378 E.01422
G1 X126.61 Y112.414 E.00501
G1 X126.352 Y112.101 E.01273
G1 X126.147 Y111.756 E.01259
G1 X126.047 Y111.5 E.00861
G1 X125.972 Y110.975 E.01661
G1 X125.813 Y110.677 E.0106
G1 X125.424 Y110.395 E.01508
G1 X124.915 Y110.339 E.01604
G1 X124.516 Y110.424 E.0128
G1 X124.169 Y110.703 E.01395
G1 X124.016 Y111.013 E.01083
G1 X123.945 Y111.528 E.01631
G1 X123.708 Y112.01 E.01684
G1 X123.39 Y112.414 E.01612
G1 X123.235 Y112.379 E.00499
G1 X123.12 Y111.88 E.01604
G1 X123.125 Y111.374 E.01589
G1 X123.267 Y110.899 E.01554
G1 X123.288 Y110.579 E.01005
G1 X123.137 Y110.171 E.01364
G1 X122.805 Y109.871 E.01402
G1 X122.325 Y109.687 E.01612
G1 X121.869 Y109.735 E.01439
G1 X121.531 Y109.962 E.01275
G1 X121.205 Y110.432 E.01795
G1 X120.743 Y110.788 E.01828
G1 X120.332 Y110.981 E.01423
G1 X120.208 Y110.881 E.00501
G1 X120.291 Y110.484 E.01273
G1 X120.433 Y110.109 E.01258
G1 X120.571 Y109.871 E.00861
G1 X120.935 Y109.486 E.01661
G1 X121.068 Y109.175 E.01061
G1 X121.079 Y108.839 E.01054
G1 X120.981 Y108.552 E.00951
G1 X120.648 Y108.135 E.01676
G1 X120.345 Y107.954 E.01106
G1 X120.012 Y107.905 E.01054
G1 X119.666 Y107.986 E.01116
G1 X119.216 Y108.251 E.01636
G1 X118.653 Y108.367 E.01802
G1 X118.2 Y108.364 E.01422
G1 X118.13 Y108.22 E.00501
G1 X118.378 Y107.898 E.01273
G1 X118.669 Y107.621 E.01259
G1 X118.896 Y107.467 E.00861
G1 X119.391 Y107.278 E.01661
G1 X119.646 Y107.056 E.0106
G1 X119.826 Y106.65 E.01391
G1 X119.78 Y106.137 E.01616
G1 X119.604 Y105.735 E.01376
G1 X119.255 Y105.459 E.01395
G1 X118.901 Y105.376 E.01141
G1 X118.378 Y105.419 E.01644
G1 X117.821 Y105.28 E.01802
G1 X117.414 Y105.081 E.01421
G1 X117.414 Y104.92 E.00503
G1 X117.821 Y104.72 E.01423
G1 X118.378 Y104.581 E.01802
G1 X118.864 Y104.623 E.01527
G1 X119.18 Y104.573 E.01006
G1 X119.473 Y104.406 E.01056
G1 X119.717 Y104.074 E.0129
G1 X119.838 Y103.543 E.01708
G1 X119.823 Y103.334 E.00658
G1 X119.688 Y103.001 E.01126
G1 X119.391 Y102.722 E.01277
G1 X118.859 Y102.509 E.01796
G1 X118.41 Y102.137 E.01828
G1 X118.13 Y101.78 E.01422
G1 X118.2 Y101.636 E.00501
G1 X118.605 Y101.63 E.01273
G1 X119.003 Y101.684 E.01259
G1 X119.265 Y101.766 E.00861
G1 X119.722 Y102.035 E.01661
G1 X120.055 Y102.096 E.0106
G1 X120.512 Y101.971 E.01486
G1 X120.878 Y101.605 E.01625
G1 X121.061 Y101.24 E.0128
G1 X121.059 Y100.795 E.01395
G1 X120.913 Y100.482 E.01083
G1 X120.576 Y100.133 E.01522
G1 X120.321 Y99.618 E.018
G1 X120.208 Y99.118 E.01608
G1 X120.333 Y99.018 E.00499
G1 X120.742 Y99.211 E.01418
G1 X121.177 Y99.54 E.01709
G1 X121.467 Y99.965 E.01613
G1 X121.706 Y100.183 E.01016
G1 X122.119 Y100.32 E.01364
G1 X122.549 Y100.249 E.01368
G1 X123.003 Y99.986 E.01644
G1 X123.251 Y99.6 E.01439
G1 X123.283 Y99.194 E.01275
G1 X123.119 Y98.646 E.01796
G1 X123.129 Y98.063 E.01828
G1 X123.234 Y97.622 E.01422
G1 X123.39 Y97.586 E.00501
G1 X123.648 Y97.899 E.01273
G1 X123.853 Y98.244 E.01259
G1 X123.953 Y98.5 E.00861
G1 X124.028 Y99.025 E.01661
G1 X124.187 Y99.323 E.0106
G1 X124.443 Y99.541 E.01054
G1 X124.854 Y99.657 E.01338
G1 X125.282 Y99.643 E.01343
G1 X125.593 Y99.519 E.01051
G1 X125.807 Y99.321 E.00914
G1 X125.99 Y98.97 E.01241
G1 X126.055 Y98.472 E.01575
G1 X126.292 Y97.99 E.01684
G1 X126.61 Y97.586 E.01612
G1 X126.765 Y97.621 E.00499
G1 X126.88 Y98.12 E.01604
G1 X126.875 Y98.626 E.01589
G1 X126.733 Y99.101 E.01554
G1 X126.712 Y99.421 E.01006
G1 X126.863 Y99.829 E.01364
G1 X127.186 Y100.122 E.01368
G1 X127.675 Y100.313 E.01644
G1 X128.131 Y100.265 E.01439
G1 X128.469 Y100.038 E.01275
G1 X128.795 Y99.568 E.01795
G1 X129.257 Y99.212 E.01828
G1 X129.668 Y99.019 E.01423
G1 X129.792 Y99.119 E.00501
G1 X129.709 Y99.516 E.01273
G1 X129.567 Y99.891 E.01259
G1 X129.429 Y100.129 E.00861
G1 X129.065 Y100.514 E.01661
G1 X128.932 Y100.825 E.0106
G1 X128.921 Y101.161 E.01054
G1 X129.019 Y101.448 E.00951
G1 X129.359 Y101.874 E.01708
G1 X129.655 Y102.046 E.01076
G1 X129.948 Y102.09 E.00928
M204 S1000
G1 X130.188 Y102.374 F10800
;WIPE_START
G1 F8640
G1 X130.334 Y102.014 E-.09092
G1 X130.784 Y101.749 E-.1205
G1 X131.347 Y101.633 E-.13269
G1 X131.8 Y101.636 E-.10475
G1 X131.87 Y101.78 E-.03689
G1 X131.622 Y102.102 E-.09374
G1 X131.331 Y102.379 E-.09269
G1 X131.104 Y102.533 E-.06341
G1 X131.005 Y102.571 E-.02443
;WIPE_END
G1 E-.04 F2100
G1 Z.6 F720
G1 X118.934 Y105 F10800
G1 Z.2 F720
G1 E.8 F2100
M204 S800
;TYPE:Perimeter
;WIDTH:0.465726
G1 F1200
G1 X118.682 Y105 E.00885
;WIDTH:0.510328
G1 X118.43 Y105 E.00979
M204 S1000
;WIPE_START
G1 F8640
G1 X118.682 Y105 E-.05815
G1 X118.934 Y105 E-.05815
;WIPE_END
G1 E-.6837 F2100
G1 Z.6 F720
G1 X119.088 Y102.153 F10800
G1 Z.2 F720
G1 E.8 F2100
M204 S800
;WIDTH:0.5124
G1 F1200
G1 X119.352 Y102.28 E.01142
;WIDTH:0.472251
G1 X119.615 Y102.407 E.01044
M204 S1000
;WIPE_START
G1 F8640
G1 X119.352 Y102.28 E-.06753
G1 X119.088 Y102.153 E-.06753
;WIPE_END
G1 E-.66493 F2100
G1 Z.6 F720
G1 X120.897 Y99.847 F10800
G1 Z.2 F720
G1 E.8 F2100
M204 S800
;WIDTH:0.495884
G1 F1200
G1 X121.058 Y100.052 E.00981
;WIDTH:0.458514
G1 X121.218 Y100.257 E.009
M204 S1000
;WIPE_START
G1 F8640
G1 X121.058 Y100.052 E-.06013
G1 X120.897 Y99.847 E-.06013
;WIPE_END
G1 E-.67973 F2100
G1 Z.6 F720
G1 X123.54 Y98.603 F10800
G1 Z.2 F720
G1 E.8 F2100
M204 S800
;WIDTH:0.512386
G1 F1200
G1 X123.605 Y98.888 E.01142
;WIDTH:0.472259
G1 X123.67 Y99.173 E.01044
M204 S1000
;WIPE_START
G1 F8640
G1 X123.605 Y98.888 E-.06754
G1 X123.54 Y98.603 E-.06754
;WIPE_END
G1 E-.66493 F2100
G1 Z.6 F720
G1 X126.46 Y98.577 F10800
G1 Z.2 F720
G1 E.8 F2100
M204 S800
;WIDTH:0.49582
G1 F1200
G1 X126.405 Y98.831 E.00981
;WIDTH:0.458477
G1 X126.35 Y99.086 E.009
M204 S1000
;WIPE_START
G1 F8640
G1 X126.405 Y98.831 E-.06014
G1 X126.46 Y98.577 E-.06015
;WIPE_END
G1 E-.67971 F2100
G1 Z.6 F720
G1 X129.091 Y99.87 F10800
G1 Z.2 F720
G1 E.8 F2100
M204 S800
;WIDTH:0.512404
G1 F1200
G1 X128.909 Y100.099 E.01142
;WIDTH:0.472256
G1 X128.726 Y100.327 E.01044
M204 S1000
;WIPE_START
G1 F8640
G1 X128.909 Y100.099 E-.06753
G1 X129.091 Y99.87 E-.06753
;WIPE_END
G1 E-.66494 F2100
G1 Z.6 F720
G1 X130.919 Y102.149 F10800
G1 Z.2 F720
