; generated by PrusaSlicer 2.5.0+MacOS-arm64 on 2022-12-07 at 18:14:29 UTC


;
;
; 

; external perimeters extrusion width = 0.60mm
; perimeters extrusion width = 0.50mm
; infill extrusion width = 0.50mm
; solid infill extrusion width = 0.50mm
; top infill extrusion width = 0.45mm
; first layer extrusion width = 0.42mm

M73 P0 R111
M73 Q0 S111
M201 X1000 Y1000 Z200 E5000 ; sets maximum accelerations, mm/sec^2
M203 X200 Y200 Z12 E120 ; sets maximum feedrates, mm / sec
M204 P1250 R1250 T1250 ; sets acceleration (P, T) and retract acceleration (R), mm/sec^2
M205 X8.00 Y8.00 Z0.40 E4.50 ; sets the jerk limits, mm/sec
M205 S0 T0 ; sets the minimum extruding and travel feed rate, mm/sec
M107
;TYPE:Custom
M862.3 P "MK3S" ; printer model check
M862.1 P0.4 ; nozzle diameter check
M115 U3.11.0 ; tell printer latest fw version
G90 ; use absolute coordinates
M83 ; extruder relative mode
M104 S215 ; set extruder temp
M140 S60 ; set bed temp
M190 S60 ; wait for bed temp
M109 S215 ; wait for extruder temp
G28 W ; home all without mesh bed level
G80 ; mesh bed leveling

G1 Z0.2 F720
G1 Y-3 F1000 ; go outside print area
G92 E0
G1 X60 E9 F1000 ; intro line
G1 X100 E12.5 F1000 ; intro line

G92 E0
M221 S95

; Don't change E values below. Excessive value can damage the printer.

M907 E538 ; set extruder motor current
G21 ; set units to millimeters
G90 ; use absolute coordinates
M83 ; use relative distances for extrusion
M900 K0.05 ; Filament gcode LA 1.5
M900 K30 ; Filament gcode LA 1.0
M107
;LAYER_CHANGE
;Z:0.2
;HEIGHT:0.2
;BEFORE_LAYER_CHANGE
G92 E0.0
;0.2


G1 E-.8 F2100
G1 Z.4 F720
;AFTER_LAYER_CHANGE
;0.2
G1 X73.015 Y53.693 F10800
G1 Z.2 F720
G1 E.8 F2100
M204 S800
;TYPE:Skirt/Brim
;WIDTH:0.42
G1 F1200
G1 X74.06 Y52.817 E.04278
G1 X75 Y52.623 E.03008
G1 X175 Y52.623 E3.13543
G1 X176.307 Y53.015 E.04278
G1 X177.183 Y54.06 E.04278
G1 X177.377 Y55 E.03008
G1 X177.377 Y155 E3.13543
G1 X176.985 Y156.307 E.04278
G1 X175.94 Y157.183 E.04278
G1 X175 Y157.377 E.03008
G1 X75 Y157.377 E3.13543
G1 X73.693 Y156.985 E.04278
G1 X72.817 Y155.94 E.04278
G1 X72.623 Y155 E.03008
G1 X72.623 Y55 E3.13543
G1 X72.997 Y53.75 E.0409
M204 S1000
; printing object P1.stl id:0 copy 0
;WIPE_START
G1 F8640
G1 X74.06 Y52.817 E-.32671
G1 X75 Y52.623 E-.22155
G1 X75.917 Y52.623 E-.21174
;WIPE_END
G1 E-.04 F2100
G1 Z.6 F720
G1 X75.787 Y55.787 F10800
G1 Z.2 F720
G1 E.8 F2100
M204 S800
;TYPE:Perimeter
;WIDTH:0.419999
G1 F1200
G1 X174.213 Y55.787 E3.08607
G1 X174.213 Y154.213 E3.08607
G1 X75.787 Y154.213 E3.08607
M73 P0 R110
G1 X75.787 Y55.847 E3.08419
M204 S1000
G1 X75.41 Y55.41 F10800
M204 S800
;TYPE:External perimeter
G1 F1200
G1 X174.59 Y55.41 E3.10971
G1 X174.59 Y154.59 E3.10971
M73 Q0 S110
G1 X75.41 Y154.59 E3.10971
G1 X75.41 Y55.47 E3.10783
M204 S1000
G1 X75.796 Y55.514 F10800
;WIPE_START
M73 P1 R110
M73 Q1 S110
G1 F8640
G1 X78.701 Y55.468 E-.76
;WIPE_END
G1 E-.04 F2100
G1 Z.6 F720
G1 X173.337 Y55.9 F10800
G1 Z.2 F720
G1 E.8 F2100
M204 S800
;TYPE:Solid infill
;WIDTH:0.420443
G1 F1200
G1 X173.93 Y56.494 E.02635
G1 X173.93 Y57.028 E.01676
G1 X172.972 Y56.07 E.04252
G1 X172.438 Y56.07 E.01676
G1 X173.93 Y57.562 E.06622
G1 X173.93 Y58.095 E.01676
G1 X171.905 Y56.07 E.08992
G1 X171.371 Y56.07 E.01676
G1 X173.93 Y58.629 E.11362
G1 X173.93 Y59.163 E.01676
G1 X170.837 Y56.07 E.13732
G1 X170.303 Y56.07 E.01676
G1 X173.93 Y59.697 E.16103
G1 X173.93 Y60.231 E.01676
G1 X169.769 Y56.07 E.18473
G1 X169.235 Y56.07 E.01676
G1 X173.93 Y60.765 E.20843
G1 X173.93 Y61.299 E.01676
G1 X168.701 Y56.07 E.23213
G1 X168.167 Y56.07 E.01676
G1 X173.93 Y61.833 E.25583
G1 X173.93 Y62.367 E.01676
G1 X167.633 Y56.07 E.27954
G1 X167.1 Y56.07 E.01676
G1 X173.93 Y62.9 E.30324
G1 X173.93 Y63.434 E.01676
G1 X166.566 Y56.07 E.32694
G1 X166.032 Y56.07 E.01676
G1 X173.93 Y63.968 E.35064
G1 X173.93 Y64.502 E.01676
G1 X165.498 Y56.07 E.37434
G1 X164.964 Y56.07 E.01676
G1 X173.93 Y65.036 E.39804
G1 X173.93 Y65.57 E.01676
G1 X164.43 Y56.07 E.42175
G1 X163.896 Y56.07 E.01676
G1 X173.93 Y66.104 E.44545
G1 X173.93 Y66.638 E.01676
G1 X163.362 Y56.07 E.46915
G1 X162.828 Y56.07 E.01676
G1 X173.93 Y67.172 E.49285
G1 X173.93 Y67.706 E.01676
G1 X162.294 Y56.07 E.51655
G1 X161.761 Y56.07 E.01676
G1 X173.93 Y68.239 E.54025
G1 X173.93 Y68.773 E.01676
G1 X161.227 Y56.07 E.56396
G1 X160.693 Y56.07 E.01676
G1 X173.93 Y69.307 E.58766
G1 X173.93 Y69.841 E.01676
G1 X160.159 Y56.07 E.61136
G1 X159.625 Y56.07 E.01676
G1 X173.93 Y70.375 E.63506
G1 X173.93 Y70.909 E.01676
G1 X159.091 Y56.07 E.65876
G1 X158.557 Y56.07 E.01676
G1 X173.93 Y71.443 E.68247
G1 X173.93 Y71.977 E.01676
G1 X158.023 Y56.07 E.70617
G1 X157.489 Y56.07 E.01676
G1 X173.93 Y72.511 E.72987
G1 X173.93 Y73.045 E.01676
G1 X156.955 Y56.07 E.75357
G1 X156.422 Y56.07 E.01676
G1 X173.93 Y73.578 E.77727
G1 X173.93 Y74.112 E.01676
G1 X155.888 Y56.07 E.80097
G1 X155.354 Y56.07 E.01676
G1 X173.93 Y74.646 E.82468
G1 X173.93 Y75.18 E.01676
M73 P1 R109
G1 X154.82 Y56.07 E.84838
G1 X154.286 Y56.07 E.01676
G1 X173.93 Y75.714 E.87208
G1 X173.93 Y76.248 E.01676
G1 X153.752 Y56.07 E.89578
G1 X153.218 Y56.07 E.01676
G1 X173.93 Y76.782 E.91948
G1 X173.93 Y77.316 E.01676
G1 X152.684 Y56.07 E.94319
G1 X152.15 Y56.07 E.01676
G1 X173.93 Y77.85 E.96689
G1 X173.93 Y78.384 E.01676
G1 X151.616 Y56.07 E.99059
G1 X151.083 Y56.07 E.01676
G1 X173.93 Y78.917 E1.01429
G1 X173.93 Y79.451 E.01676
G1 X150.549 Y56.07 E1.03799
G1 X150.015 Y56.07 E.01676
G1 X173.93 Y79.985 E1.06169
G1 X173.93 Y80.519 E.01676
G1 X149.481 Y56.07 E1.0854
G1 X148.947 Y56.07 E.01676
M73 Q1 S109
G1 X173.93 Y81.053 E1.1091
G1 X173.93 Y81.587 E.01676
G1 X148.413 Y56.07 E1.1328
G1 X147.879 Y56.07 E.01676
G1 X173.93 Y82.121 E1.1565
G1 X173.93 Y82.655 E.01676
G1 X147.345 Y56.07 E1.1802
G1 X146.811 Y56.07 E.01676
G1 X173.93 Y83.189 E1.2039
G1 X173.93 Y83.723 E.01676
G1 X146.277 Y56.07 E1.22761
G1 X145.744 Y56.07 E.01676
G1 X173.93 Y84.256 E1.25131
G1 X173.93 Y84.79 E.01676
G1 X145.21 Y56.07 E1.27501
G1 X144.676 Y56.07 E.01676
G1 X173.93 Y85.324 E1.29871
G1 X173.93 Y85.858 E.01676
G1 X144.142 Y56.07 E1.32241
G1 X143.608 Y56.07 E.01676
G1 X173.93 Y86.392 E1.34612
G1 X173.93 Y86.926 E.01676
G1 X143.074 Y56.07 E1.36982
G1 X142.54 Y56.07 E.01676
M73 P2 R109
M73 Q2 S109
G1 X173.93 Y87.46 E1.39352
G1 X173.93 Y87.994 E.01676
G1 X142.006 Y56.07 E1.41722
G1 X141.472 Y56.07 E.01676
G1 X173.93 Y88.528 E1.44092
G1 X173.93 Y89.062 E.01676
G1 X140.938 Y56.07 E1.46462
G1 X140.405 Y56.07 E.01676
G1 X173.93 Y89.595 E1.48833
G1 X173.93 Y90.129 E.01676
G1 X139.871 Y56.07 E1.51203
G1 X139.337 Y56.07 E.01676
G1 X173.93 Y90.663 E1.53573
G1 X173.93 Y91.197 E.01676
G1 X138.803 Y56.07 E1.55943
G1 X138.269 Y56.07 E.01676
M73 P2 R108
G1 X173.93 Y91.731 E1.58313
G1 X173.93 Y92.265 E.01676
G1 X137.735 Y56.07 E1.60683
G1 X137.201 Y56.07 E.01676
G1 X173.93 Y92.799 E1.63054
G1 X173.93 Y93.333 E.01676
G1 X136.667 Y56.07 E1.65424
G1 X136.133 Y56.07 E.01676
G1 X173.93 Y93.867 E1.67794
G1 X173.93 Y94.4 E.01676
G1 X135.6 Y56.07 E1.70164
G1 X135.066 Y56.07 E.01676
M73 Q2 S108
G1 X173.93 Y94.934 E1.72534
G1 X173.93 Y95.468 E.01676
G1 X134.532 Y56.07 E1.74905
G1 X133.998 Y56.07 E.01676
G1 X173.93 Y96.002 E1.77275
G1 X173.93 Y96.536 E.01676
G1 X133.464 Y56.07 E1.79645
G1 X132.93 Y56.07 E.01676
G1 X173.93 Y97.07 E1.82015
G1 X173.93 Y97.604 E.01676
G1 X132.396 Y56.07 E1.84385
G1 X131.862 Y56.07 E.01676
G1 X173.93 Y98.138 E1.86755
G1 X173.93 Y98.672 E.01676
G1 X131.328 Y56.07 E1.89126
G1 X130.794 Y56.07 E.01676
G1 X173.93 Y99.206 E1.91496
G1 X173.93 Y99.739 E.01676
G1 X130.261 Y56.07 E1.93866
G1 X129.727 Y56.07 E.01676
G1 X173.93 Y100.273 E1.96236
G1 X173.93 Y100.807 E.01676
M73 P3 R108
M73 Q3 S108
G1 X129.193 Y56.07 E1.98606
G1 X128.659 Y56.07 E.01676
G1 X173.93 Y101.341 E2.00976
G1 X173.93 Y101.875 E.01676
G1 X128.125 Y56.07 E2.03347
G1 X127.591 Y56.07 E.01676
G1 X173.93 Y102.409 E2.05717
G1 X173.93 Y102.943 E.01676
M73 P3 R107
G1 X127.057 Y56.07 E2.08087
G1 X126.523 Y56.07 E.01676
G1 X173.93 Y103.477 E2.10457
G1 X173.93 Y104.011 E.01676
G1 X125.989 Y56.07 E2.12827
G1 X125.455 Y56.07 E.01676
G1 X173.93 Y104.545 E2.15198
G1 X173.93 Y105.078 E.01676
M73 Q3 S107
G1 X124.922 Y56.07 E2.17568
G1 X124.388 Y56.07 E.01676
G1 X173.93 Y105.612 E2.19938
G1 X173.93 Y106.146 E.01676
G1 X123.854 Y56.07 E2.22308
G1 X123.32 Y56.07 E.01676
G1 X173.93 Y106.68 E2.24678
G1 X173.93 Y107.214 E.01676
G1 X122.786 Y56.07 E2.27048
G1 X122.252 Y56.07 E.01676
G1 X173.93 Y107.748 E2.29419
G1 X173.93 Y108.282 E.01676
G1 X121.718 Y56.07 E2.31789
G1 X121.184 Y56.07 E.01676
G1 X173.93 Y108.816 E2.34159
G1 X173.93 Y109.35 E.01676
G1 X120.65 Y56.07 E2.36529
G1 X120.116 Y56.07 E.01676
G1 X173.93 Y109.884 E2.38899
G1 X173.93 Y110.417 E.01676
G1 X119.583 Y56.07 E2.4127
G1 X119.049 Y56.07 E.01676
M73 P4 R107
M73 Q4 S107
G1 X173.93 Y110.951 E2.4364
G1 X173.93 Y111.485 E.01676
M73 P4 R106
G1 X118.515 Y56.07 E2.4601
G1 X117.981 Y56.07 E.01676
G1 X173.93 Y112.019 E2.4838
G1 X173.93 Y112.553 E.01676
G1 X117.447 Y56.07 E2.5075
G1 X116.913 Y56.07 E.01676
G1 X173.93 Y113.087 E2.5312
G1 X173.93 Y113.621 E.01676
M73 Q4 S106
G1 X116.379 Y56.07 E2.55491
G1 X115.845 Y56.07 E.01676
G1 X173.93 Y114.155 E2.57861
G1 X173.93 Y114.689 E.01676
G1 X115.311 Y56.07 E2.60231
G1 X114.777 Y56.07 E.01676
G1 X173.93 Y115.223 E2.62601
G1 X173.93 Y115.756 E.01676
G1 X114.244 Y56.07 E2.64971
G1 X113.71 Y56.07 E.01676
G1 X173.93 Y116.29 E2.67341
G1 X173.93 Y116.824 E.01676
G1 X113.176 Y56.07 E2.69712
G1 X112.642 Y56.07 E.01676
G1 X173.93 Y117.358 E2.72082
G1 X173.93 Y117.892 E.01676
G1 X112.108 Y56.07 E2.74452
G1 X111.574 Y56.07 E.01676
G1 X173.93 Y118.426 E2.76822
G1 X173.93 Y118.96 E.01676
G1 X111.04 Y56.07 E2.79192
G1 X110.506 Y56.07 E.01676
M73 P5 R105
M73 Q5 S106
G1 X173.93 Y119.494 E2.81563
G1 X173.93 Y120.028 E.01676
G1 X109.972 Y56.07 E2.83933
G1 X109.439 Y56.07 E.01676
G1 X173.93 Y120.561 E2.86303
G1 X173.93 Y121.095 E.01676
M73 Q5 S105
G1 X108.905 Y56.07 E2.88673
G1 X108.371 Y56.07 E.01676
G1 X173.93 Y121.629 E2.91043
G1 X173.93 Y122.163 E.01676
G1 X107.837 Y56.07 E2.93413
G1 X107.303 Y56.07 E.01676
G1 X173.93 Y122.697 E2.95784
G1 X173.93 Y123.231 E.01676
G1 X106.769 Y56.07 E2.98154
G1 X106.235 Y56.07 E.01676
G1 X173.93 Y123.765 E3.00524
G1 X173.93 Y124.299 E.01676
G1 X105.701 Y56.07 E3.02894
G1 X105.167 Y56.07 E.01676
G1 X173.93 Y124.833 E3.05264
G1 X173.93 Y125.367 E.01676
G1 X104.633 Y56.07 E3.07634
G1 X104.1 Y56.07 E.01676
M73 P5 R104
G1 X173.93 Y125.9 E3.10005
G1 X173.93 Y126.434 E.01676
G1 X103.566 Y56.07 E3.12375
G1 X103.032 Y56.07 E.01676
M73 P6 R104
M73 Q6 S105
G1 X173.93 Y126.968 E3.14745
G1 X173.93 Y127.502 E.01676
G1 X102.498 Y56.07 E3.17115
G1 X101.964 Y56.07 E.01676
M73 Q6 S104
G1 X173.93 Y128.036 E3.19485
G1 X173.93 Y128.57 E.01676
G1 X101.43 Y56.07 E3.21856
G1 X100.896 Y56.07 E.01676
G1 X173.93 Y129.104 E3.24226
G1 X173.93 Y129.638 E.01676
G1 X100.362 Y56.07 E3.26596
G1 X99.828 Y56.07 E.01676
G1 X173.93 Y130.172 E3.28966
G1 X173.93 Y130.706 E.01676
G1 X99.294 Y56.07 E3.31336
G1 X98.761 Y56.07 E.01676
G1 X173.93 Y131.239 E3.33706
G1 X173.93 Y131.773 E.01676
G1 X98.227 Y56.07 E3.36077
G1 X97.693 Y56.07 E.01676
M73 P6 R103
G1 X173.93 Y132.307 E3.38447
G1 X173.93 Y132.841 E.01676
G1 X97.159 Y56.07 E3.40817
G1 X96.625 Y56.07 E.01676
G1 X173.93 Y133.375 E3.43187
G1 X173.93 Y133.909 E.01676
M73 P7 R103
M73 Q7 S103
G1 X96.091 Y56.07 E3.45557
G1 X95.557 Y56.07 E.01676
G1 X173.93 Y134.443 E3.47927
G1 X173.93 Y134.977 E.01676
G1 X95.023 Y56.07 E3.50298
G1 X94.489 Y56.07 E.01676
G1 X173.93 Y135.511 E3.52668
G1 X173.93 Y136.045 E.01676
G1 X93.955 Y56.07 E3.55038
G1 X93.422 Y56.07 E.01676
G1 X173.93 Y136.578 E3.57408
G1 X173.93 Y137.112 E.01676
G1 X92.888 Y56.07 E3.59778
G1 X92.354 Y56.07 E.01676
G1 X173.93 Y137.646 E3.62149
G1 X173.93 Y138.18 E.01676
M73 P7 R102
G1 X91.82 Y56.07 E3.64519
G1 X91.286 Y56.07 E.01676
G1 X173.93 Y138.714 E3.66889
G1 X173.93 Y139.248 E.01676
M73 Q7 S102
G1 X90.752 Y56.07 E3.69259
G1 X90.218 Y56.07 E.01676
M73 P8 R102
G1 X173.93 Y139.782 E3.71629
G1 X173.93 Y140.316 E.01676
M73 Q8 S102
G1 X89.684 Y56.07 E3.73999
G1 X89.15 Y56.07 E.01676
G1 X173.93 Y140.85 E3.7637
G1 X173.93 Y141.384 E.01676
G1 X88.616 Y56.07 E3.7874
G1 X88.083 Y56.07 E.01676
G1 X173.93 Y141.917 E3.8111
G1 X173.93 Y142.451 E.01676
G1 X87.549 Y56.07 E3.8348
G1 X87.015 Y56.07 E.01676
G1 X173.93 Y142.985 E3.8585
G1 X173.93 Y143.519 E.01676
M73 P8 R101
G1 X86.481 Y56.07 E3.8822
G1 X85.947 Y56.07 E.01676
G1 X173.93 Y144.053 E3.90591
G1 X173.93 Y144.587 E.01676
M73 Q8 S101
G1 X85.413 Y56.07 E3.92961
G1 X84.879 Y56.07 E.01676
G1 X173.93 Y145.121 E3.95331
G1 X173.93 Y145.655 E.01676
M73 P9 R101
M73 Q9 S101
G1 X84.345 Y56.07 E3.97701
G1 X83.811 Y56.07 E.01676
G1 X173.93 Y146.189 E4.00071
G1 X173.93 Y146.723 E.01676
G1 X83.277 Y56.07 E4.02442
G1 X82.744 Y56.07 E.01676
G1 X173.93 Y147.256 E4.04812
G1 X173.93 Y147.79 E.01676
G1 X82.21 Y56.07 E4.07182
G1 X81.676 Y56.07 E.01676
M73 P9 R100
G1 X173.93 Y148.324 E4.09552
G1 X173.93 Y148.858 E.01676
G1 X81.142 Y56.07 E4.11922
G1 X80.608 Y56.07 E.01676
G1 X173.93 Y149.392 E4.14292
G1 X173.93 Y149.926 E.01676
M73 Q9 S100
G1 X80.074 Y56.07 E4.16663
G1 X79.54 Y56.07 E.01676
G1 X173.93 Y150.46 E4.19033
G1 X173.93 Y150.994 E.01676
G1 X79.006 Y56.07 E4.21403
G1 X78.472 Y56.07 E.01676
M73 P10 R100
M73 Q10 S100
G1 X173.93 Y151.528 E4.23773
G1 X173.93 Y152.061 E.01676
G1 X77.939 Y56.07 E4.26143
G1 X77.405 Y56.07 E.01676
G1 X173.93 Y152.595 E4.28514
G1 X173.93 Y153.129 E.01676
M73 P10 R99
G1 X76.871 Y56.07 E4.30884
G1 X76.337 Y56.07 E.01676
G1 X173.93 Y153.663 E4.33254
G1 X173.93 Y153.93 E.00838
M73 Q10 S99
G1 X173.663 Y153.93 E.00838
G1 X76.07 Y56.337 E4.33254
G1 X76.07 Y56.871 E.01676
G1 X173.129 Y153.93 E4.30884
G1 X172.595 Y153.93 E.01676
G1 X76.07 Y57.405 E4.28513
G1 X76.07 Y57.939 E.01676
G1 X172.061 Y153.93 E4.26143
G1 X171.528 Y153.93 E.01676
M73 P11 R99
M73 Q11 S99
G1 X76.07 Y58.472 E4.23773
G1 X76.07 Y59.006 E.01676
G1 X170.994 Y153.93 E4.21403
G1 X170.46 Y153.93 E.01676
G1 X76.07 Y59.54 E4.19033
G1 X76.07 Y60.074 E.01676
M73 P11 R98
G1 X169.926 Y153.93 E4.16663
G1 X169.392 Y153.93 E.01676
G1 X76.07 Y60.608 E4.14292
G1 X76.07 Y61.142 E.01676
M73 Q11 S98
G1 X168.858 Y153.93 E4.11922
G1 X168.324 Y153.93 E.01676
G1 X76.07 Y61.676 E4.09552
G1 X76.07 Y62.21 E.01676
G1 X167.79 Y153.93 E4.07182
G1 X167.256 Y153.93 E.01676
G1 X76.07 Y62.744 E4.04812
G1 X76.07 Y63.278 E.01676
G1 X166.722 Y153.93 E4.02442
G1 X166.189 Y153.93 E.01676
M73 P12 R98
G1 X76.07 Y63.811 E4.00071
G1 X76.07 Y64.345 E.01676
M73 Q12 S98
G1 X165.655 Y153.93 E3.97701
G1 X165.121 Y153.93 E.01676
M73 P12 R97
G1 X76.07 Y64.879 E3.95331
G1 X76.07 Y65.413 E.01676
G1 X164.587 Y153.93 E3.92961
G1 X164.053 Y153.93 E.01676
G1 X76.07 Y65.947 E3.90591
G1 X76.07 Y66.481 E.01676
M73 Q12 S97
G1 X163.519 Y153.93 E3.8822
G1 X162.985 Y153.93 E.01676
G1 X76.07 Y67.015 E3.8585
G1 X76.07 Y67.549 E.01676
G1 X162.451 Y153.93 E3.8348
G1 X161.917 Y153.93 E.01676
G1 X76.07 Y68.083 E3.8111
G1 X76.07 Y68.616 E.01676
G1 X161.384 Y153.93 E3.7874
G1 X160.85 Y153.93 E.01676
G1 X76.07 Y69.15 E3.7637
G1 X76.07 Y69.684 E.01676
M73 P13 R97
M73 Q13 S97
G1 X160.316 Y153.93 E3.73999
G1 X159.782 Y153.93 E.01676
M73 P13 R96
G1 X76.07 Y70.218 E3.71629
G1 X76.07 Y70.752 E.01676
G1 X159.248 Y153.93 E3.69259
G1 X158.714 Y153.93 E.01676
M73 Q13 S96
G1 X76.07 Y71.286 E3.66889
G1 X76.07 Y71.82 E.01676
G1 X158.18 Y153.93 E3.64519
G1 X157.646 Y153.93 E.01676
G1 X76.07 Y72.354 E3.62149
G1 X76.07 Y72.888 E.01676
G1 X157.112 Y153.93 E3.59778
G1 X156.578 Y153.93 E.01676
G1 X76.07 Y73.422 E3.57408
G1 X76.07 Y73.955 E.01676
G1 X156.045 Y153.93 E3.55038
G1 X155.511 Y153.93 E.01676
G1 X76.07 Y74.489 E3.52668
G1 X76.07 Y75.023 E.01676
G1 X154.977 Y153.93 E3.50298
G1 X154.443 Y153.93 E.01676
M73 P13 R95
G1 X76.07 Y75.557 E3.47927
G1 X76.07 Y76.091 E.01676
M73 P14 R95
M73 Q14 S96
G1 X153.909 Y153.93 E3.45557
G1 X153.375 Y153.93 E.01676
G1 X76.07 Y76.625 E3.43187
G1 X76.07 Y77.159 E.01676
M73 Q14 S95
G1 X152.841 Y153.93 E3.40817
G1 X152.307 Y153.93 E.01676
G1 X76.07 Y77.693 E3.38447
G1 X76.07 Y78.227 E.01676
G1 X151.773 Y153.93 E3.36077
G1 X151.239 Y153.93 E.01676
