; generated by PrusaSlicer 2.5.0+MacOS-arm64 on 2022-12-07 at 18:15:14 UTC


;
;
; 

; external perimeters extrusion width = 0.60mm
; perimeters extrusion width = 0.50mm
; infill extrusion width = 0.50mm
; solid infill extrusion width = 0.50mm
; top infill extrusion width = 0.45mm
; first layer extrusion width = 0.42mm

M73 P0 R298
M73 Q0 S300
M201 X1000 Y1000 Z200 E5000 ; sets maximum accelerations, mm/sec^2
M203 X200 Y200 Z12 E120 ; sets maximum feedrates, mm / sec
M204 P1250 R1250 T1250 ; sets acceleration (P, T) and retract acceleration (R), mm/sec^2
M205 X8.00 Y8.00 Z0.40 E4.50 ; sets the jerk limits, mm/sec
M205 S0 T0 ; sets the minimum extruding and travel feed rate, mm/sec
M107
;TYPE:Custom
M862.3 P "MK3S" ; printer model check
M862.1 P0.4 ; nozzle diameter check
M115 U3.11.0 ; tell printer latest fw version
G90 ; use absolute coordinates
M83 ; extruder relative mode
M104 S215 ; set extruder temp
M140 S60 ; set bed temp
M190 S60 ; wait for bed temp
M109 S215 ; wait for extruder temp
G28 W ; home all without mesh bed level
G80 ; mesh bed leveling

G1 Z0.2 F720
G1 Y-3 F1000 ; go outside print area
G92 E0
G1 X60 E9 F1000 ; intro line
G1 X100 E12.5 F1000 ; intro line

G92 E0
M221 S95

; Don't change E values below. Excessive value can damage the printer.

M907 E538 ; set extruder motor current
G21 ; set units to millimeters
G90 ; use absolute coordinates
M83 ; use relative distances for extrusion
M900 K0.05 ; Filament gcode LA 1.5
M900 K30 ; Filament gcode LA 1.0
M107
;LAYER_CHANGE
;Z:0.2
;HEIGHT:0.2
;BEFORE_LAYER_CHANGE
G92 E0.0
;0.2


G1 E-.8 F2100
G1 Z.4 F720
;AFTER_LAYER_CHANGE
;0.2
G1 X73.014 Y53.693 F10800
G1 Z.2 F720
G1 E.8 F2100
M204 S800
;TYPE:Skirt/Brim
;WIDTH:0.42
G1 F1200
G1 X74.06 Y52.817 E.04278
G1 X75 Y52.623 E.03008
G1 X175 Y52.623 E3.13543
G1 X176.307 Y53.015 E.04278
G1 X177.183 Y54.06 E.04278
G1 X177.377 Y55 E.03008
G1 X177.377 Y155 E3.13543
G1 X176.985 Y156.307 E.04278
G1 X175.94 Y157.183 E.04278
G1 X175 Y157.377 E.03008
G1 X75 Y157.377 E3.13543
G1 X73.693 Y156.985 E.04278
G1 X72.817 Y155.94 E.04278
G1 X72.623 Y155 E.03008
G1 X72.623 Y55 E3.13543
G1 X72.997 Y53.75 E.0409
M204 S1000
; printing object P2.stl id:0 copy 0
;WIPE_START
G1 F8640
G1 X74.06 Y52.817 E-.32671
G1 X75 Y52.623 E-.22155
G1 X75.917 Y52.623 E-.21174
;WIPE_END
G1 E-.04 F2100
G1 Z.6 F720
G1 X174.213 Y55.787 F10800
G1 Z.2 F720
G1 E.8 F2100
M204 S800
;TYPE:Perimeter
;WIDTH:0.419999
G1 F1200
G1 X174.213 Y154.213 E3.08607
G1 X75.787 Y154.213 E3.08607
G1 X75.787 Y55.787 E3.08607
G1 X174.153 Y55.787 E3.08419
M204 S1000
M73 P0 R297
G1 X174.59 Y55.41 F10800
M204 S800
;TYPE:External perimeter
G1 F1200
G1 X174.59 Y154.59 E3.10971
G1 X75.41 Y154.59 E3.10971
G1 X75.41 Y55.41 E3.10971
M73 Q0 S299
G1 X174.53 Y55.41 E3.10783
M204 S1000
G1 X174.486 Y55.796 F10800
;WIPE_START
G1 F8640
G1 X174.532 Y58.701 E-.76
;WIPE_END
G1 E-.04 F2100
G1 Z.6 F720
G1 X162.787 Y67.213 F10800
G1 Z.2 F720
G1 E.8 F2100
M204 S800
;TYPE:Perimeter
G1 F1200
G1 X172.221 Y67.213 E.29581
G1 X172.439 Y67.256 E.00696
G1 X172.674 Y67.439 E.00933
G1 X172.787 Y67.779 E.01122
G1 X172.787 Y152.221 E2.64764
G1 X172.779 Y152.319 E.00308
G1 X172.621 Y152.621 E.01068
G1 X172.319 Y152.779 E.01068
G1 X172.221 Y152.787 E.00308
G1 X87.779 Y152.787 E2.64764
G1 X87.439 Y152.674 E.01122
G1 X87.256 Y152.439 E.00933
G1 X87.213 Y152.05 E.01226
G1 X87.213 Y142.787 E.29044
G1 X77.779 Y142.787 E.29581
G1 X77.561 Y142.744 E.00696
G1 X77.326 Y142.561 E.00933
G1 X77.213 Y142.221 E.01122
G1 X77.213 Y57.779 E2.64764
G1 X77.379 Y57.379 E.01357
G1 X77.681 Y57.221 E.01068
G1 X77.779 Y57.213 E.00308
G1 X162.221 Y57.213 E2.64764
G1 X162.561 Y57.326 E.01122
G1 X162.744 Y57.561 E.00933
G1 X162.787 Y57.95 E.01226
G1 X162.787 Y67.153 E.28856
M204 S1000
G1 X162.41 Y67.59 F10800
M204 S800
;TYPE:External perimeter
G1 F1200
G1 X172.221 Y67.59 E.30763
G1 X172.372 Y67.665 E.00529
G1 X172.41 Y67.779 E.00374
G1 X172.41 Y152.221 E2.64764
G1 X172.355 Y152.355 E.00452
G1 X172.221 Y152.41 E.00452
G1 X87.779 Y152.41 E2.64764
G1 X87.665 Y152.372 E.00374
G1 X87.59 Y152.221 E.00529
G1 X87.59 Y142.41 E.30763
G1 X77.779 Y142.41 E.30763
G1 X77.628 Y142.335 E.00529
G1 X77.59 Y142.221 E.00374
G1 X77.59 Y57.779 E2.64764
G1 X77.645 Y57.645 E.00452
G1 X77.779 Y57.59 E.00452
G1 X162.221 Y57.59 E2.64764
G1 X162.335 Y57.628 E.00374
M73 P0 R296
G1 X162.41 Y57.779 E.00529
G1 X162.41 Y67.53 E.30575
M204 S1000
G1 X162.756 Y67.389 F10800
;WIPE_START
G1 F8640
G1 X165.701 Y67.55 E-.76
;WIPE_END
G1 E-.04 F2100
G1 Z.6 F720
G1 X163.781 Y63.634 F10800
G1 Z.2 F720
G1 E.8 F2100
M204 S800
;TYPE:Perimeter
G1 F1200
G1 X163.715 Y63.055 E.01826
G1 X163.767 Y62.413 E.0202
G1 X163.943 Y61.794 E.0202
G1 X164.237 Y61.221 E.0202
G1 X164.638 Y60.716 E.0202
G1 X165.129 Y60.299 E.0202
G1 X165.692 Y59.986 E.0202
G1 X166.347 Y59.783 E.02152
G1 X166.945 Y59.715 E.01885
G1 X167.587 Y59.767 E.0202
G1 X168.206 Y59.943 E.0202
G1 X168.779 Y60.237 E.0202
G1 X169.284 Y60.638 E.0202
G1 X169.701 Y61.129 E.0202
G1 X170.014 Y61.692 E.0202
G1 X170.211 Y62.305 E.0202
G1 X170.285 Y62.945 E.0202
G1 X170.233 Y63.587 E.0202
G1 X170.057 Y64.206 E.0202
G1 X169.763 Y64.779 E.0202
G1 X169.362 Y65.284 E.0202
G1 X168.871 Y65.701 E.0202
G1 X168.308 Y66.014 E.0202
G1 X167.695 Y66.211 E.0202
G1 X167.055 Y66.285 E.0202
G1 X166.413 Y66.233 E.0202
G1 X165.794 Y66.057 E.0202
G1 X165.221 Y65.763 E.0202
G1 X164.716 Y65.362 E.0202
G1 X164.299 Y64.871 E.0202
G1 X163.986 Y64.309 E.0202
G1 X163.788 Y63.693 E.02026
M204 S1000
G1 X164.153 Y63.598 F10800
M204 S800
;TYPE:External perimeter
G1 F1200
G1 X164.09 Y63.018 E.01829
G1 X164.142 Y62.45 E.01789
G1 X164.304 Y61.903 E.01789
G1 X164.57 Y61.399 E.01789
G1 X164.929 Y60.955 E.01789
G1 X165.368 Y60.591 E.01789
G1 X165.869 Y60.318 E.01789
G1 X166.452 Y60.145 E.01907
G1 X166.982 Y60.09 E.01668
G1 X167.55 Y60.142 E.01789
G1 X168.097 Y60.304 E.01789
G1 X168.601 Y60.57 E.01789
G1 X169.045 Y60.929 E.01789
G1 X169.409 Y61.368 E.01789
G1 X169.682 Y61.869 E.01789
G1 X169.851 Y62.414 E.01789
G1 X169.91 Y62.982 E.01789
G1 X169.858 Y63.55 E.01789
G1 X169.696 Y64.097 E.01789
G1 X169.43 Y64.601 E.01789
G1 X169.071 Y65.045 E.01789
G1 X168.632 Y65.409 E.01789
G1 X168.131 Y65.682 E.01789
G1 X167.586 Y65.851 E.01789
G1 X167.018 Y65.91 E.01789
G1 X166.45 Y65.858 E.01789
G1 X165.903 Y65.696 E.01789
G1 X165.399 Y65.43 E.01789
G1 X164.955 Y65.071 E.01789
G1 X164.591 Y64.632 E.01789
G1 X164.318 Y64.131 E.01789
G1 X164.171 Y63.656 E.0156
M204 S1000
G1 X163.773 Y63.473 F10800
;WIPE_START
G1 F8640
G1 X164.09 Y63.018 E-.14832
G1 X164.142 Y62.45 E-.13173
G1 X164.304 Y61.903 E-.13173
G1 X164.57 Y61.399 E-.13173
G1 X164.929 Y60.955 E-.13173
G1 X165.211 Y60.721 E-.08476
;WIPE_END
G1 E-.04 F2100
G1 Z.6 F720
G1 X86.28 Y147.006 F10800
G1 Z.2 F720
G1 E.8 F2100
M204 S800
;TYPE:Perimeter
G1 F1200
G1 X86.233 Y147.587 E.01826
G1 X86.057 Y148.206 E.0202
G1 X85.763 Y148.779 E.0202
G1 X85.362 Y149.284 E.0202
G1 X84.871 Y149.701 E.0202
G1 X84.309 Y150.014 E.0202
G1 X83.695 Y150.211 E.0202
G1 X83.055 Y150.285 E.0202
G1 X82.413 Y150.233 E.0202
G1 X81.794 Y150.057 E.0202
G1 X81.221 Y149.763 E.0202
G1 X80.716 Y149.362 E.0202
G1 X80.299 Y148.871 E.0202
G1 X79.986 Y148.309 E.0202
G1 X79.789 Y147.695 E.0202
G1 X79.715 Y147.055 E.0202
G1 X79.767 Y146.413 E.0202
G1 X79.943 Y145.794 E.0202
G1 X80.237 Y145.221 E.0202
G1 X80.638 Y144.716 E.0202
G1 X81.129 Y144.299 E.0202
G1 X81.692 Y143.986 E.0202
G1 X82.347 Y143.783 E.02152
G1 X82.945 Y143.715 E.01885
G1 X83.587 Y143.767 E.0202
G1 X84.206 Y143.943 E.0202
G1 X84.779 Y144.237 E.0202
G1 X85.284 Y144.638 E.0202
G1 X85.701 Y145.129 E.0202
G1 X86.014 Y145.691 E.0202
G1 X86.211 Y146.305 E.0202
G1 X86.285 Y146.946 E.02025
M204 S1000
G1 X85.909 Y146.969 F10800
M204 S800
;TYPE:External perimeter
G1 F1200
G1 X85.858 Y147.55 E.01829
G1 X85.696 Y148.097 E.01789
G1 X85.43 Y148.601 E.01789
G1 X85.071 Y149.045 E.01789
G1 X84.632 Y149.409 E.01789
G1 X84.131 Y149.682 E.01789
G1 X83.586 Y149.851 E.01789
G1 X83.018 Y149.91 E.01789
G1 X82.45 Y149.858 E.01789
G1 X81.903 Y149.696 E.01789
G1 X81.399 Y149.43 E.01789
G1 X80.955 Y149.071 E.01789
G1 X80.591 Y148.632 E.01789
G1 X80.318 Y148.131 E.01789
G1 X80.149 Y147.586 E.01789
G1 X80.09 Y147.018 E.01789
G1 X80.142 Y146.45 E.01789
G1 X80.304 Y145.903 E.01789
G1 X80.57 Y145.399 E.01789
G1 X80.929 Y144.955 E.01789
G1 X81.368 Y144.591 E.01789
G1 X81.869 Y144.318 E.01789
G1 X82.452 Y144.145 E.01907
G1 X82.982 Y144.09 E.01668
G1 X83.55 Y144.142 E.01789
G1 X84.097 Y144.304 E.01789
G1 X84.601 Y144.57 E.01789
G1 X85.045 Y144.929 E.01789
G1 X85.409 Y145.368 E.01789
G1 X85.682 Y145.869 E.01789
G1 X85.851 Y146.414 E.01789
G1 X85.903 Y146.909 E.0156
M204 S1000
G1 X86.257 Y147.165 F10800
;WIPE_START
G1 F8640
G1 X85.858 Y147.55 E-.14832
G1 X85.696 Y148.097 E-.13173
G1 X85.43 Y148.601 E-.13173
G1 X85.071 Y149.045 E-.13173
G1 X84.632 Y149.409 E-.13173
G1 X84.31 Y149.585 E-.08476
;WIPE_END
G1 E-.04 F2100
G1 Z.6 F720
G1 X173.337 Y55.9 F10800
G1 Z.2 F720
G1 E.8 F2100
M204 S800
;TYPE:Solid infill
;WIDTH:0.420443
G1 F1200
G1 X173.93 Y56.494 E.02635
G1 X173.93 Y57.028 E.01676
G1 X172.972 Y56.07 E.04252
G1 X172.438 Y56.07 E.01676
G1 X173.93 Y57.562 E.06622
G1 X173.93 Y58.095 E.01676
G1 X171.905 Y56.07 E.08992
G1 X171.371 Y56.07 E.01676
G1 X173.93 Y58.629 E.11362
G1 X173.93 Y59.163 E.01676
G1 X170.837 Y56.07 E.13732
G1 X170.303 Y56.07 E.01676
G1 X173.93 Y59.697 E.16103
G1 X173.93 Y60.231 E.01676
G1 X169.769 Y56.07 E.18473
G1 X169.235 Y56.07 E.01676
G1 X173.93 Y60.765 E.20843
G1 X173.93 Y61.299 E.01676
G1 X168.701 Y56.07 E.23213
G1 X168.167 Y56.07 E.01676
G1 X173.93 Y61.833 E.25583
G1 X173.93 Y62.367 E.01676
M73 Q0 S298
G1 X167.633 Y56.07 E.27954
G1 X167.099 Y56.07 E.01676
G1 X173.93 Y62.9 E.30324
G1 X173.93 Y63.434 E.01676
G1 X166.566 Y56.07 E.32694
G1 X166.032 Y56.07 E.01676
G1 X173.93 Y63.968 E.35064
G1 X173.93 Y64.502 E.01676
G1 X165.498 Y56.07 E.37434
G1 X164.964 Y56.07 E.01676
G1 X173.93 Y65.036 E.39804
G1 X173.93 Y65.57 E.01676
G1 X170.433 Y62.073 E.15524
G1 X170.484 Y62.23 E.00517
G1 X170.539 Y62.713 E.01526
G1 X173.93 Y66.104 E.15054
G1 X173.93 Y66.638 E.01676
G1 X170.547 Y63.255 E.15019
G1 X170.49 Y63.732 E.01509
G1 X173.93 Y67.172 E.1527
G1 X173.93 Y67.706 E.01676
G1 X170.368 Y64.143 E.15816
G1 X170.304 Y64.356 E.00699
G1 X170.215 Y64.525 E.00597
G1 X173.93 Y68.239 E.16491
G1 X173.93 Y68.773 E.01676
G1 X173.07 Y67.913 E.03819
G1 X173.07 Y67.763 E.00471
G1 X172.905 Y67.269 E.01635
G1 X172.552 Y66.994 E.01405
G1 X172.231 Y66.93 E.01028
G1 X172.087 Y66.93 E.00452
G1 X170.032 Y64.875 E.09124
G1 X169.922 Y65.048 E.00643
G1 X169.806 Y65.183 E.00559
G1 X171.553 Y66.93 E.07755
G1 X171.019 Y66.93 E.01676
G1 X169.56 Y65.471 E.06479
G1 X169.469 Y65.576 E.00437
G1 X169.28 Y65.725 E.00755
G1 X170.485 Y66.93 E.0535
G1 X169.951 Y66.93 E.01676
G1 X168.981 Y65.96 E.04307
G1 X168.638 Y66.151 E.01232
G1 X169.417 Y66.93 E.03458
G1 X168.883 Y66.93 E.01676
G1 X168.282 Y66.329 E.02669
G1 X167.87 Y66.45 E.0135
G1 X168.35 Y66.93 E.02131
G1 X167.816 Y66.93 E.01676
G1 X167.417 Y66.531 E.01771
G1 X166.999 Y66.571 E.01317
G1 X166.913 Y66.562 E.00271
G1 X167.282 Y66.93 E.01635
G1 X166.748 Y66.93 E.01676
G1 X166.072 Y66.255 E.02999
M204 S1000
;WIPE_START
G1 F8640
G1 X166.748 Y66.93 E-.22062
G1 X167.282 Y66.93 E-.12328
G1 X166.913 Y66.562 E-.12028
G1 X166.999 Y66.571 E-.01993
G1 X167.417 Y66.531 E-.09688
G1 X167.816 Y66.93 E-.13024
G1 X168.027 Y66.93 E-.04877
;WIPE_END
G1 E-.04 F2100
G1 Z.6 F720
G1 X172.9 Y68.277 F10800
G1 Z.2 F720
G1 E.8 F2100
M204 S800
G1 F1200
G1 X173.93 Y69.307 E.04572
G1 X173.93 Y69.841 E.01676
G1 X173.07 Y68.981 E.03819
G1 X173.07 Y69.515 E.01676
G1 X173.93 Y70.375 E.03819
G1 X173.93 Y70.909 E.01676
G1 X173.07 Y70.049 E.03819
G1 X173.07 Y70.583 E.01676
G1 X173.93 Y71.443 E.03819
G1 X173.93 Y71.977 E.01676
G1 X173.07 Y71.117 E.03819
G1 X173.07 Y71.65 E.01676
G1 X173.93 Y72.511 E.03819
G1 X173.93 Y73.045 E.01676
G1 X173.07 Y72.184 E.03819
G1 X173.07 Y72.718 E.01676
G1 X173.93 Y73.578 E.03819
G1 X173.93 Y74.112 E.01676
G1 X173.07 Y73.252 E.03819
G1 X173.07 Y73.786 E.01676
G1 X173.93 Y74.646 E.03819
G1 X173.93 Y75.18 E.01676
G1 X173.07 Y74.32 E.03819
G1 X173.07 Y74.854 E.01676
G1 X173.93 Y75.714 E.03819
G1 X173.93 Y76.248 E.01676
G1 X173.07 Y75.388 E.03819
G1 X173.07 Y75.922 E.01676
G1 X173.93 Y76.782 E.03819
G1 X173.93 Y77.316 E.01676
G1 X173.07 Y76.456 E.03819
G1 X173.07 Y76.989 E.01676
G1 X173.93 Y77.85 E.03819
G1 X173.93 Y78.384 E.01676
G1 X173.07 Y77.523 E.03819
G1 X173.07 Y78.057 E.01676
G1 X173.93 Y78.917 E.03819
G1 X173.93 Y79.451 E.01676
G1 X173.07 Y78.591 E.03819
G1 X173.07 Y79.125 E.01676
G1 X173.93 Y79.985 E.03819
G1 X173.93 Y80.519 E.01676
G1 X173.07 Y79.659 E.03819
G1 X173.07 Y80.193 E.01676
G1 X173.93 Y81.053 E.03819
G1 X173.93 Y81.587 E.01676
G1 X173.07 Y80.727 E.03819
G1 X173.07 Y81.261 E.01676
G1 X173.93 Y82.121 E.03819
G1 X173.93 Y82.655 E.01676
G1 X173.07 Y81.794 E.03819
G1 X173.07 Y82.328 E.01676
G1 X173.93 Y83.189 E.03819
G1 X173.93 Y83.723 E.01676
G1 X173.07 Y82.862 E.03819
G1 X173.07 Y83.396 E.01676
G1 X173.93 Y84.256 E.03819
G1 X173.93 Y84.79 E.01676
G1 X173.07 Y83.93 E.03819
G1 X173.07 Y84.464 E.01676
G1 X173.93 Y85.324 E.03819
G1 X173.93 Y85.858 E.01676
G1 X173.07 Y84.998 E.03819
G1 X173.07 Y85.532 E.01676
G1 X173.93 Y86.392 E.03819
G1 X173.93 Y86.926 E.01676
G1 X173.07 Y86.066 E.03819
G1 X173.07 Y86.6 E.01676
G1 X173.93 Y87.46 E.03819
G1 X173.93 Y87.994 E.01676
G1 X173.07 Y87.133 E.03819
G1 X173.07 Y87.667 E.01676
G1 X173.93 Y88.528 E.03819
G1 X173.93 Y89.062 E.01676
G1 X173.07 Y88.201 E.03819
G1 X173.07 Y88.735 E.01676
G1 X173.93 Y89.595 E.03819
G1 X173.93 Y90.129 E.01676
G1 X173.07 Y89.269 E.03819
G1 X173.07 Y89.803 E.01676
G1 X173.93 Y90.663 E.03819
G1 X173.93 Y91.197 E.01676
G1 X173.07 Y90.337 E.03819
G1 X173.07 Y90.871 E.01676
G1 X173.93 Y91.731 E.03819
G1 X173.93 Y92.265 E.01676
G1 X173.07 Y91.405 E.03819
G1 X173.07 Y91.939 E.01676
G1 X173.93 Y92.799 E.03819
G1 X173.93 Y93.333 E.01676
G1 X173.07 Y92.472 E.03819
G1 X173.07 Y93.006 E.01676
G1 X173.93 Y93.867 E.03819
G1 X173.93 Y94.4 E.01676
G1 X173.07 Y93.54 E.03819
G1 X173.07 Y94.074 E.01676
G1 X173.93 Y94.934 E.03819
G1 X173.93 Y95.468 E.01676
G1 X173.07 Y94.608 E.03819
G1 X173.07 Y95.142 E.01676
G1 X173.93 Y96.002 E.03819
G1 X173.93 Y96.536 E.01676
G1 X173.07 Y95.676 E.03819
G1 X173.07 Y96.21 E.01676
G1 X173.93 Y97.07 E.03819
G1 X173.93 Y97.604 E.01676
G1 X173.07 Y96.744 E.03819
G1 X173.07 Y97.278 E.01676
G1 X173.93 Y98.138 E.03819
G1 X173.93 Y98.672 E.01676
G1 X173.07 Y97.811 E.03819
G1 X173.07 Y98.345 E.01676
G1 X173.93 Y99.206 E.03819
G1 X173.93 Y99.739 E.01676
G1 X173.07 Y98.879 E.03819
G1 X173.07 Y99.413 E.01676
G1 X173.93 Y100.273 E.03819
G1 X173.93 Y100.807 E.01676
G1 X173.07 Y99.947 E.03819
G1 X173.07 Y100.481 E.01676
G1 X173.93 Y101.341 E.03819
G1 X173.93 Y101.875 E.01676
G1 X173.07 Y101.015 E.03819
G1 X173.07 Y101.549 E.01676
G1 X173.93 Y102.409 E.03819
G1 X173.93 Y102.943 E.01676
G1 X173.07 Y102.083 E.03819
G1 X173.07 Y102.617 E.01676
G1 X173.93 Y103.477 E.03819
G1 X173.93 Y104.011 E.01676
G1 X173.07 Y103.15 E.03819
G1 X173.07 Y103.684 E.01676
G1 X173.93 Y104.545 E.03819
G1 X173.93 Y105.078 E.01676
G1 X173.07 Y104.218 E.03819
G1 X173.07 Y104.752 E.01676
G1 X173.93 Y105.612 E.03819
G1 X173.93 Y106.146 E.01676
G1 X173.07 Y105.286 E.03819
G1 X173.07 Y105.82 E.01676
G1 X173.93 Y106.68 E.03819
G1 X173.93 Y107.214 E.01676
G1 X173.07 Y106.354 E.03819
G1 X173.07 Y106.888 E.01676
G1 X173.93 Y107.748 E.03819
G1 X173.93 Y108.282 E.01676
G1 X173.07 Y107.422 E.03819
G1 X173.07 Y107.955 E.01676
G1 X173.93 Y108.816 E.03819
G1 X173.93 Y109.35 E.01676
G1 X173.07 Y108.489 E.03819
G1 X173.07 Y109.023 E.01676
G1 X173.93 Y109.884 E.03819
G1 X173.93 Y110.417 E.01676
G1 X173.07 Y109.557 E.03819
G1 X173.07 Y110.091 E.01676
G1 X173.93 Y110.951 E.03819
G1 X173.93 Y111.485 E.01676
G1 X173.07 Y110.625 E.03819
G1 X173.07 Y111.159 E.01676
G1 X173.93 Y112.019 E.03819
G1 X173.93 Y112.553 E.01676
G1 X173.07 Y111.693 E.03819
G1 X173.07 Y112.227 E.01676
G1 X173.93 Y113.087 E.03819
G1 X173.93 Y113.621 E.01676
G1 X173.07 Y112.761 E.03819
G1 X173.07 Y113.294 E.01676
