; generated by PrusaSlicer 2.5.0+MacOS-arm64 on 2022-12-08 at 11:11:22 UTC


;
;
; 

; external perimeters extrusion width = 0.60mm
; perimeters extrusion width = 0.50mm
; infill extrusion width = 0.50mm
; solid infill extrusion width = 0.50mm
; top infill extrusion width = 0.45mm
; first layer extrusion width = 0.42mm

M73 P0 R115
M73 Q0 S115
M201 X1000 Y1000 Z200 E5000 ; sets maximum accelerations, mm/sec^2
M203 X200 Y200 Z12 E120 ; sets maximum feedrates, mm / sec
M204 P1250 R1250 T1250 ; sets acceleration (P, T) and retract acceleration (R), mm/sec^2
M205 X8.00 Y8.00 Z0.40 E4.50 ; sets the jerk limits, mm/sec
M205 S0 T0 ; sets the minimum extruding and travel feed rate, mm/sec
M107
;TYPE:Custom
M862.3 P "MK3SMMU2S" ; printer model check
M862.1 P0.4 ; nozzle diameter check
M115 U3.11.0 ; tell printer latest fw version
G90 ; use absolute coordinates
M83 ; extruder relative mode
M104 S215 ; set extruder temp
M140 S60 ; set bed temp
Tx
M190 S60 ; wait for bed temp
M109 S215 ; wait for extruder temp
G28 W ; home all without mesh bed level
G80 ; mesh bed leveling

;go outside print area
G1 Y-3 F1000
G1 Z0.4 F1000
; select extruder
Tc
; purge line
G1 X55 F2000
G1 Z0.3 F1000
G92 E0
G1 X240 E25 F2200
G1 Y-2 F1000
G1 X55 E25 F1400
G1 Z0.2 F1000
G1 X5 E4 F1000

M221 S95
G92 E0

; Don't change E values below. Excessive value can damage the printer.

M907 E538 ; set extruder motor current
G21 ; set units to millimeters
G90 ; use absolute coordinates
M83 ; use relative distances for extrusion
M900 K0.05 ; Filament gcode LA 1.5
M900 K30 ; Filament gcode LA 1.0
M107
;LAYER_CHANGE
;Z:0.2
;HEIGHT:0.2
;BEFORE_LAYER_CHANGE
G92 E0.0
;0.2


G1 E-.8 F2100
G1 Z.4 F720
;AFTER_LAYER_CHANGE
;0.2
G1 X68.419 Y51.407 F10800
G1 Z.2 F720
G1 E.8 F2100
M204 S800
;TYPE:Skirt/Brim
;WIDTH:0.42
G1 F1200
G1 X71.407 Y48.419 E.13247
G1 X73.088 Y47.723 E.05704
G1 X176.912 Y47.723 E3.25536
G1 X178.593 Y48.419 E.05704
M73 P0 R114
G1 X181.581 Y51.407 E.13247
G1 X182.277 Y53.088 E.05704
G1 X182.277 Y156.912 E3.25536
G1 X181.581 Y158.593 E.05704
G1 X178.593 Y161.581 E.13247
G1 X176.912 Y162.277 E.05704
G1 X73.088 Y162.277 E3.25536
G1 X71.407 Y161.581 E.05704
G1 X68.419 Y158.593 E.13247
G1 X67.723 Y156.912 E.05704
G1 X67.723 Y53.088 E3.25536
G1 X68.396 Y51.462 E.05516
M204 S1000
;WIPE_START
G1 F8640
G1 X70.711 Y49.122 E-.76
;WIPE_END
G1 E-.04 F2100
G1 Z.6 F720
G1 X70.909 Y53.075 F10800
G1 Z.2 F720
G1 E.8 F2100
M204 S800
G1 F1200
G1 X71.625 Y51.959 E.04159
G1 X72.201 Y51.426 E.02461
G1 X72.804 Y50.998 E.0232
G1 X74.754 Y50.387 E.06405
G1 X175.189 Y50.39 E3.14908
G1 X176.209 Y50.584 E.03256
M73 Q0 S114
G1 X177.188 Y51 E.03333
G1 X178.312 Y51.896 E.04508
G1 X179.205 Y53.234 E.05044
G1 X179.613 Y54.779 E.05011
G1 X179.613 Y155.22 E3.14926
G1 X179.233 Y156.705 E.04806
G1 X178.375 Y158.041 E.04979
G1 X177.799 Y158.574 E.02461
G1 X177.196 Y159.002 E.0232
G1 X175.246 Y159.613 E.06405
G1 X74.78 Y159.613 E3.15004
G1 X73.295 Y159.233 E.04806
G1 X71.959 Y158.375 E.04979
G1 X71.426 Y157.799 E.02461
G1 X70.998 Y157.196 E.0232
G1 X70.387 Y155.246 E.06405
G1 X70.387 Y54.78 E3.15004
G1 X70.767 Y53.295 E.04806
G1 X70.876 Y53.126 E.00633
M204 S1000
G1 X71.185 Y53.325 F10800
M204 S800
G1 F1200
G1 X71.899 Y52.22 E.04125
G1 X72.448 Y51.711 E.02347
G1 X72.998 Y51.323 E.02111
G1 X74.782 Y50.764 E.05864
G1 X175.171 Y50.767 E3.14761
G1 X176.117 Y50.95 E.03023
G1 X177.015 Y51.336 E.03062
G1 X178.053 Y52.171 E.0418
G1 X178.849 Y53.362 E.0449
G1 X179.236 Y54.804 E.04682
G1 X179.236 Y155.195 E3.1477
G1 X178.876 Y156.58 E.04486
M73 P1 R114
M73 Q1 S114
G1 X178.101 Y157.78 E.04479
G1 X177.552 Y158.289 E.02347
G1 X177.002 Y158.677 E.02111
G1 X175.218 Y159.236 E.05863
G1 X74.805 Y159.236 E3.14838
G1 X73.42 Y158.876 E.04486
G1 X72.22 Y158.101 E.04479
G1 X71.711 Y157.552 E.02347
G1 X71.323 Y157.002 E.02111
G1 X70.764 Y155.218 E.05863
G1 X70.764 Y54.805 E3.14838
G1 X71.124 Y53.42 E.04486
M73 P1 R113
G1 X71.153 Y53.376 E.00166
M204 S1000
G1 X71.47 Y53.579 F10800
M204 S800
G1 F1200
G1 X72.173 Y52.48 E.04089
G1 X72.695 Y51.996 E.0223
G1 X73.19 Y51.648 E.019
G1 X74.811 Y51.141 E.05325
G1 X175.152 Y51.144 E3.14613
G1 X176.024 Y51.316 E.02786
G1 X176.84 Y51.671 E.02791
G1 X177.793 Y52.445 E.03848
G1 X178.517 Y53.543 E.04126
G1 X178.859 Y54.828 E.0417
G1 X178.859 Y155.172 E3.1462
G1 X178.542 Y156.403 E.03986
G1 X177.827 Y157.52 E.0416
G1 X177.305 Y158.004 E.0223
G1 X176.81 Y158.352 E.019
G1 X175.189 Y158.859 E.05324
G1 X74.828 Y158.859 E3.14674
G1 X73.597 Y158.542 E.03986
G1 X72.48 Y157.827 E.0416
G1 X71.996 Y157.305 E.0223
G1 X71.648 Y156.81 E.019
G1 X71.141 Y155.189 E.05324
G1 X71.141 Y54.828 E3.14674
G1 X71.449 Y53.634 E.03868
M204 S1000
G1 X71.813 Y53.73 F10800
M204 S800
G1 F1200
G1 X72.446 Y52.74 E.03683
G1 X72.941 Y52.282 E.02115
G1 X73.382 Y51.974 E.01687
G1 X74.84 Y51.518 E.04788
G1 X175.133 Y51.521 E3.14463
M73 Q1 S113
G1 X175.929 Y51.681 E.02545
G1 X176.664 Y52.005 E.02518
G1 X177.53 Y52.717 E.03516
G1 X178.185 Y53.723 E.03763
G1 X178.482 Y54.852 E.03663
G1 X178.482 Y155.147 E3.14467
G1 X178.185 Y156.277 E.03665
G1 X177.554 Y157.26 E.03661
G1 X177.059 Y157.718 E.02115
G1 X176.618 Y158.026 E.01687
G1 X175.16 Y158.482 E.04788
G1 X74.853 Y158.482 E3.14507
G1 X73.723 Y158.185 E.03665
G1 X72.74 Y157.554 E.03661
G1 X72.282 Y157.059 E.02115
G1 X71.974 Y156.618 E.01687
G1 X71.518 Y155.16 E.04788
G1 X71.518 Y54.853 E3.14507
G1 X71.798 Y53.788 E.03454
M204 S1000
G1 X72.149 Y53.899 F10800
M204 S800
G1 F1200
G1 X72.721 Y53 E.03341
G1 X73.187 Y52.568 E.01994
G1 X73.573 Y52.3 E.01473
G1 X74.868 Y51.895 E.04254
G1 X175.114 Y51.898 E3.14315
G1 X175.796 Y52.035 E.02178
G1 X176.487 Y52.339 E.02369
G1 X177.267 Y52.988 E.03181
G1 X177.829 Y53.85 E.03225
G1 X178.105 Y54.878 E.03337
G1 X178.105 Y155.123 E3.14313
G1 X177.851 Y156.101 E.03167
G1 X177.279 Y157 E.03341
G1 X176.813 Y157.432 E.01994
G1 X176.427 Y157.7 E.01473
G1 X175.132 Y158.105 E.04254
G1 X74.877 Y158.105 E3.14342
G1 X73.899 Y157.851 E.03167
M73 P2 R113
M73 Q2 S113
G1 X73 Y157.279 E.03341
G1 X72.568 Y156.813 E.01994
G1 X72.3 Y156.427 E.01473
G1 X71.895 Y155.132 E.04254
G1 X71.895 Y54.877 E3.14342
G1 X72.134 Y53.957 E.02979
M204 S1000
M73 P2 R112
G1 X72.498 Y54.055 F10800
M204 S800
G1 F1200
G1 X72.995 Y53.26 E.02937
G1 X73.433 Y52.854 E.01876
G1 X73.763 Y52.627 E.01256
G1 X74.897 Y52.272 E.03724
G1 X175.095 Y52.276 E3.14163
G1 X175.699 Y52.4 E.01933
G1 X176.308 Y52.672 E.02093
G1 X177.001 Y53.257 E.02843
G1 X177.495 Y54.028 E.0287
G1 X177.728 Y54.902 E.02837
G1 X177.728 Y155.098 E3.14158
G1 X177.494 Y155.975 E.02845
G1 X177.005 Y156.74 E.02846
G1 X176.567 Y157.146 E.01876
G1 X176.237 Y157.373 E.01256
G1 X175.103 Y157.728 E.03724
G1 X74.902 Y157.728 E3.14173
G1 X74.025 Y157.494 E.02845
G1 X73.26 Y157.005 E.02846
G1 X72.854 Y156.567 E.01876
G1 X72.627 Y156.237 E.01256
G1 X72.272 Y155.103 E.03724
G1 X72.272 Y54.902 E3.14173
G1 X72.483 Y54.112 E.02562
M204 S1000
M73 Q2 S112
G1 X72.845 Y54.212 F10800
M204 S800
G1 F1200
G1 X72.861 Y54.154 E.0019
G1 X73.268 Y53.521 E.02358
G1 X73.679 Y53.14 E.01756
G1 X73.952 Y52.954 E.01037
G1 X74.926 Y52.649 E.03198
G1 X175.074 Y52.653 E3.14009
G1 X175.599 Y52.764 E.01682
G1 X176.127 Y53.004 E.01817
G1 X176.734 Y53.525 E.0251
G1 X177.139 Y54.156 E.02351
G1 X177.351 Y54.928 E.0251
G1 X177.351 Y155.072 E3.13995
G1 X177.139 Y155.846 E.02517
G1 X176.732 Y156.479 E.02358
G1 X176.321 Y156.86 E.01756
G1 X176.048 Y157.046 E.01037
G1 X175.074 Y157.351 E.03198
G1 X74.928 Y157.351 E3.14002
G1 X74.154 Y157.139 E.02517
G1 X73.521 Y156.732 E.02358
G1 X73.14 Y156.321 E.01756
G1 X72.954 Y156.048 E.01037
G1 X72.649 Y155.074 E.03198
G1 X72.649 Y54.928 E3.14002
G1 X72.83 Y54.27 E.0214
M204 S1000
G1 X73.191 Y54.372 F10800
M204 S800
G1 F1200
G1 X73.216 Y54.285 E.00286
G1 X73.541 Y53.782 E.01878
G1 X73.924 Y53.427 E.01636
G1 X74.14 Y53.282 E.00814
G1 X74.955 Y53.026 E.02679
G1 X175.053 Y53.03 E3.13852
G1 X175.497 Y53.127 E.01424
G1 X175.943 Y53.334 E.01541
G1 X176.466 Y53.791 E.02178
G1 X176.785 Y54.286 E.01847
G1 X176.974 Y54.955 E.02179
G1 X176.974 Y155.045 E3.13826
G1 X176.784 Y155.715 E.02184
G1 X176.459 Y156.218 E.01878
G1 X176.076 Y156.573 E.01636
G1 X175.86 Y156.718 E.00814
G1 X175.045 Y156.974 E.02678
G1 X74.955 Y156.974 E3.13827
G1 X74.285 Y156.784 E.02184
M73 P2 R111
G1 X73.782 Y156.459 E.01878
G1 X73.427 Y156.076 E.01636
G1 X73.282 Y155.86 E.00814
G1 X73.026 Y155.045 E.02678
G1 X73.026 Y54.955 E3.13827
G1 X73.175 Y54.43 E.0171
M204 S1000
M73 P3 R111
M73 Q3 S112
G1 X73.535 Y54.536 F10800
M204 S800
G1 F1200
G1 X73.569 Y54.419 E.00384
G1 X73.814 Y54.043 E.01407
G1 X74.168 Y53.715 E.01513
G1 X74.325 Y53.612 E.00588
G1 X74.984 Y53.403 E.02167
G1 X175.031 Y53.407 E3.13691
G1 X175.391 Y53.49 E.01157
G1 X175.756 Y53.662 E.01266
G1 X176.196 Y54.054 E.01848
G1 X176.431 Y54.42 E.01362
G1 X176.597 Y54.983 E.01841
G1 X176.597 Y155.017 E3.13651
G1 X176.431 Y155.581 E.01844
G1 X176.186 Y155.957 E.01407
G1 X175.832 Y156.285 E.01513
G1 X175.675 Y156.388 E.00588
G1 X175.016 Y156.597 E.02167
G1 X74.983 Y156.597 E3.13648
G1 X74.419 Y156.431 E.01844
G1 X74.043 Y156.186 E.01407
G1 X73.715 Y155.832 E.01513
G1 X73.612 Y155.675 E.00588
G1 X73.403 Y155.016 E.02167
G1 X73.403 Y54.983 E3.13648
G1 X73.518 Y54.594 E.01272
M204 S1000
M73 Q3 S111
G1 X73.875 Y54.704 F10800
M204 S800
G1 F1200
G1 X73.921 Y54.557 E.00483
G1 X74.087 Y54.304 E.00948
G1 X74.412 Y54.004 E.01387
G1 X74.507 Y53.943 E.00355
G1 X75.013 Y53.78 E.01667
G1 X175.009 Y53.784 E3.1353
G1 X175.247 Y53.839 E.00767
G1 X175.568 Y53.991 E.01111
G1 X175.923 Y54.315 E.01508
G1 X176.079 Y54.557 E.00902
G1 X176.22 Y55.012 E.01495
G1 X176.22 Y154.988 E3.13465
G1 X176.079 Y155.443 E.01495
G1 X175.913 Y155.696 E.00948
G1 X175.588 Y155.996 E.01387
G1 X175.493 Y156.057 E.00355
G1 X174.987 Y156.22 E.01667
G1 X75.012 Y156.22 E3.13462
G1 X74.557 Y156.079 E.01495
G1 X74.304 Y155.913 E.00948
G1 X74.004 Y155.588 E.01387
G1 X73.943 Y155.493 E.00355
G1 X73.78 Y154.987 E.01667
G1 X73.78 Y55.012 E3.13462
G1 X73.858 Y54.761 E.00824
M204 S1000
G1 X74.212 Y54.878 F10800
M204 S800
G1 F1200
G1 X74.27 Y54.701 E.00585
G1 X74.36 Y54.566 E.00506
G1 X74.652 Y54.295 E.01251
G1 X75.044 Y54.157 E.01303
G1 X174.987 Y54.161 E3.13364
G1 X175.104 Y54.188 E.00377
G1 X175.378 Y54.318 E.0095
G1 X175.647 Y54.573 E.0116
G1 X175.73 Y54.7 E.00476
G1 X175.843 Y55.044 E.01136
G1 X175.843 Y154.956 E3.13266
G1 X175.73 Y155.299 E.01134
G1 X175.64 Y155.434 E.00506
G1 X175.317 Y155.724 E.01361
G1 X174.956 Y155.843 E.01193
G1 X75.044 Y155.843 E3.13266
G1 X74.701 Y155.73 E.01134
M73 P3 R110
G1 X74.566 Y155.64 E.00506
G1 X74.276 Y155.317 E.01361
G1 X74.157 Y154.956 E.01193
G1 X74.157 Y55.044 E3.13266
G1 X74.193 Y54.935 E.00361
M204 S1000
G1 X74.541 Y55.059 F10800
M204 S800
G1 F1200
G1 X74.632 Y54.828 E.0078
G1 X74.866 Y54.611 E.01002
G1 X75.079 Y54.534 E.00709
G1 X174.935 Y54.534 E3.13091
G1 X175.185 Y54.644 E.00856
G1 X175.384 Y54.852 E.00902
G1 X175.466 Y55.079 E.00757
G1 X175.466 Y154.921 E3.13046
G1 X175.368 Y155.172 E.00845
M73 P4 R110
M73 Q4 S111
G1 X175.134 Y155.389 E.01002
G1 X174.921 Y155.466 E.00709
G1 X75.079 Y155.466 E3.13046
G1 X74.828 Y155.368 E.00845
M73 Q4 S110
G1 X74.611 Y155.134 E.01002
G1 X74.534 Y154.921 E.00709
G1 X74.534 Y55.118 E3.12924
M204 S1000
G1 X74.911 Y55.121 F10800
M204 S800
G1 F1200
G1 X74.94 Y55.052 E.00235
G1 X75.052 Y54.94 E.00495
G1 X75.121 Y54.911 E.00235
G1 X174.879 Y54.911 E3.12784
G1 X174.948 Y54.94 E.00235
G1 X175.06 Y55.052 E.00495
G1 X175.089 Y55.121 E.00235
G1 X175.089 Y154.879 E3.12784
G1 X175.06 Y154.948 E.00235
G1 X174.948 Y155.06 E.00495
G1 X174.879 Y155.089 E.00235
G1 X75.121 Y155.089 E3.12784
G1 X75.052 Y155.06 E.00235
G1 X74.94 Y154.948 E.00495
G1 X74.911 Y154.879 E.00235
G1 X74.911 Y55.181 E3.12596
M204 S1000
; printing object P3.stl id:0 copy 0
;WIPE_START
G1 F8640
G1 X74.94 Y55.052 E-.03058
G1 X75.052 Y54.94 E-.03645
G1 X75.121 Y54.911 E-.01732
G1 X78.047 Y54.911 E-.67565
;WIPE_END
G1 E-.04 F2100
G1 Z.6 F720
G1 X75.787 Y55.787 F10800
G1 Z.2 F720
G1 E.8 F2100
M204 S800
;TYPE:Perimeter
;WIDTH:0.419999
G1 F1200
G1 X174.213 Y55.787 E3.08607
G1 X174.213 Y154.213 E3.08607
G1 X75.787 Y154.213 E3.08607
G1 X75.787 Y55.847 E3.08419
M204 S1000
M73 P4 R109
G1 X75.41 Y55.41 F10800
M204 S800
;TYPE:External perimeter
G1 F1200
G1 X174.59 Y55.41 E3.10971
G1 X174.59 Y154.59 E3.10971
G1 X75.41 Y154.59 E3.10971
G1 X75.41 Y55.47 E3.10783
M204 S1000
M73 P5 R109
M73 Q4 S109
G1 X75.796 Y55.514 F10800
;WIPE_START
M73 Q5 S109
G1 F8640
G1 X78.701 Y55.468 E-.76
;WIPE_END
G1 E-.04 F2100
G1 Z.6 F720
G1 X173.337 Y55.9 F10800
G1 Z.2 F720
G1 E.8 F2100
M204 S800
;TYPE:Solid infill
;WIDTH:0.420443
G1 F1200
G1 X173.93 Y56.494 E.02635
G1 X173.93 Y57.028 E.01676
G1 X172.972 Y56.07 E.04252
G1 X172.438 Y56.07 E.01676
G1 X173.93 Y57.562 E.06622
G1 X173.93 Y58.095 E.01676
G1 X171.905 Y56.07 E.08992
G1 X171.371 Y56.07 E.01676
G1 X173.93 Y58.629 E.11362
G1 X173.93 Y59.163 E.01676
G1 X170.837 Y56.07 E.13732
G1 X170.303 Y56.07 E.01676
G1 X173.93 Y59.697 E.16103
G1 X173.93 Y60.231 E.01676
G1 X169.769 Y56.07 E.18473
G1 X169.235 Y56.07 E.01676
G1 X173.93 Y60.765 E.20843
G1 X173.93 Y61.299 E.01676
G1 X168.701 Y56.07 E.23213
G1 X168.167 Y56.07 E.01676
G1 X173.93 Y61.833 E.25583
G1 X173.93 Y62.367 E.01676
G1 X167.633 Y56.07 E.27954
G1 X167.1 Y56.07 E.01676
G1 X173.93 Y62.9 E.30324
G1 X173.93 Y63.434 E.01676
G1 X166.566 Y56.07 E.32694
G1 X166.032 Y56.07 E.01676
G1 X173.93 Y63.968 E.35064
G1 X173.93 Y64.502 E.01676
G1 X165.498 Y56.07 E.37434
G1 X164.964 Y56.07 E.01676
G1 X173.93 Y65.036 E.39804
G1 X173.93 Y65.57 E.01676
G1 X164.43 Y56.07 E.42175
G1 X163.896 Y56.07 E.01676
G1 X173.93 Y66.104 E.44545
G1 X173.93 Y66.638 E.01676
G1 X163.362 Y56.07 E.46915
G1 X162.828 Y56.07 E.01676
G1 X173.93 Y67.172 E.49285
G1 X173.93 Y67.706 E.01676
G1 X162.294 Y56.07 E.51655
G1 X161.761 Y56.07 E.01676
G1 X173.93 Y68.239 E.54025
G1 X173.93 Y68.773 E.01676
G1 X161.227 Y56.07 E.56396
G1 X160.693 Y56.07 E.01676
G1 X173.93 Y69.307 E.58766
G1 X173.93 Y69.841 E.01676
G1 X160.159 Y56.07 E.61136
G1 X159.625 Y56.07 E.01676
G1 X173.93 Y70.375 E.63506
G1 X173.93 Y70.909 E.01676
G1 X159.091 Y56.07 E.65876
G1 X158.557 Y56.07 E.01676
G1 X173.93 Y71.443 E.68247
G1 X173.93 Y71.977 E.01676
G1 X158.023 Y56.07 E.70617
G1 X157.489 Y56.07 E.01676
G1 X173.93 Y72.511 E.72987
G1 X173.93 Y73.045 E.01676
G1 X156.955 Y56.07 E.75357
G1 X156.422 Y56.07 E.01676
G1 X173.93 Y73.578 E.77727
G1 X173.93 Y74.112 E.01676
G1 X155.888 Y56.07 E.80097
G1 X155.354 Y56.07 E.01676
G1 X173.93 Y74.646 E.82468
G1 X173.93 Y75.18 E.01676
G1 X154.82 Y56.07 E.84838
G1 X154.286 Y56.07 E.01676
G1 X173.93 Y75.714 E.87208
G1 X173.93 Y76.248 E.01676
G1 X153.752 Y56.07 E.89578
G1 X153.218 Y56.07 E.01676
G1 X173.93 Y76.782 E.91948
G1 X173.93 Y77.316 E.01676
M73 P5 R108
G1 X152.684 Y56.07 E.94319
G1 X152.15 Y56.07 E.01676
G1 X173.93 Y77.85 E.96689
G1 X173.93 Y78.384 E.01676
G1 X151.616 Y56.07 E.99059
G1 X151.083 Y56.07 E.01676
G1 X173.93 Y78.917 E1.01429
G1 X173.93 Y79.451 E.01676
G1 X150.549 Y56.07 E1.03799
G1 X150.015 Y56.07 E.01676
G1 X173.93 Y79.985 E1.06169
G1 X173.93 Y80.519 E.01676
G1 X149.481 Y56.07 E1.0854
G1 X148.947 Y56.07 E.01676
G1 X173.93 Y81.053 E1.1091
G1 X173.93 Y81.587 E.01676
G1 X148.413 Y56.07 E1.1328
G1 X147.879 Y56.07 E.01676
G1 X173.93 Y82.121 E1.1565
G1 X173.93 Y82.655 E.01676
G1 X147.345 Y56.07 E1.1802
G1 X146.811 Y56.07 E.01676
G1 X173.93 Y83.189 E1.2039
G1 X173.93 Y83.723 E.01676
G1 X146.277 Y56.07 E1.22761
G1 X145.744 Y56.07 E.01676
M73 Q5 S108
G1 X173.93 Y84.256 E1.25131
G1 X173.93 Y84.79 E.01676
G1 X145.21 Y56.07 E1.27501
G1 X144.676 Y56.07 E.01676
G1 X173.93 Y85.324 E1.29871
G1 X173.93 Y85.858 E.01676
G1 X144.142 Y56.07 E1.32241
G1 X143.608 Y56.07 E.01676
G1 X173.93 Y86.392 E1.34612
G1 X173.93 Y86.926 E.01676
M73 P6 R108
M73 Q6 S108
G1 X143.074 Y56.07 E1.36982
G1 X142.54 Y56.07 E.01676
G1 X173.93 Y87.46 E1.39352
G1 X173.93 Y87.994 E.01676
G1 X142.006 Y56.07 E1.41722
G1 X141.472 Y56.07 E.01676
G1 X173.93 Y88.528 E1.44092
G1 X173.93 Y89.062 E.01676
G1 X140.938 Y56.07 E1.46462
G1 X140.405 Y56.07 E.01676
G1 X173.93 Y89.595 E1.48833
G1 X173.93 Y90.129 E.01676
