; generated by PrusaSlicer 2.5.0+MacOS-arm64 on 2022-12-07 at 18:18:31 UTC


;
;
; 

; external perimeters extrusion width = 0.60mm
; perimeters extrusion width = 0.50mm
; infill extrusion width = 0.50mm
; solid infill extrusion width = 0.50mm
; top infill extrusion width = 0.45mm
; first layer extrusion width = 0.42mm

M73 P0 R123
M73 Q0 S124
M201 X1000 Y1000 Z200 E5000 ; sets maximum accelerations, mm/sec^2
M203 X200 Y200 Z12 E120 ; sets maximum feedrates, mm / sec
M204 P1250 R1250 T1250 ; sets acceleration (P, T) and retract acceleration (R), mm/sec^2
M205 X8.00 Y8.00 Z0.40 E4.50 ; sets the jerk limits, mm/sec
M205 S0 T0 ; sets the minimum extruding and travel feed rate, mm/sec
M107
;TYPE:Custom
M862.3 P "MK3S" ; printer model check
M862.1 P0.4 ; nozzle diameter check
M115 U3.11.0 ; tell printer latest fw version
G90 ; use absolute coordinates
M83 ; extruder relative mode
M104 S215 ; set extruder temp
M140 S60 ; set bed temp
M190 S60 ; wait for bed temp
M109 S215 ; wait for extruder temp
G28 W ; home all without mesh bed level
G80 ; mesh bed leveling

G1 Z0.2 F720
G1 Y-3 F1000 ; go outside print area
G92 E0
G1 X60 E9 F1000 ; intro line
G1 X100 E12.5 F1000 ; intro line

G92 E0
M221 S95

; Don't change E values below. Excessive value can damage the printer.

M907 E538 ; set extruder motor current
G21 ; set units to millimeters
G90 ; use absolute coordinates
M83 ; use relative distances for extrusion
M900 K0.05 ; Filament gcode LA 1.5
M900 K30 ; Filament gcode LA 1.0
M107
;LAYER_CHANGE
;Z:0.2
;HEIGHT:0.2
;BEFORE_LAYER_CHANGE
G92 E0.0
;0.2


M73 Q0 S123
G1 E-.8 F2100
G1 Z.4 F720
;AFTER_LAYER_CHANGE
;0.2
G1 X100.691 Y83.856 F10800
G1 Z.2 F720
G1 E.8 F2100
M204 S800
;TYPE:Skirt/Brim
;WIDTH:0.42
G1 F1200
G1 X102.279 Y81.949 E.0778
G1 X107.212 Y77.96 E.19894
G1 X112.829 Y75.009 E.19894
G1 X118.914 Y73.211 E.19894
G1 X125.233 Y72.634 E.19894
G1 X131.533 Y73.301 E.19863
G1 X137.601 Y75.187 E.19925
G1 X143.166 Y78.214 E.19863
G1 X148.043 Y82.272 E.19894
G1 X152.04 Y87.212 E.19925
G1 X154.991 Y92.83 E.19894
G1 X156.789 Y98.914 E.19894
G1 X157.366 Y105.233 E.19894
G1 X156.698 Y111.543 E.19894
G1 X154.816 Y117.592 E.19863
G1 X151.782 Y123.175 E.19925
G1 X147.728 Y128.043 E.19863
G1 X142.788 Y132.04 E.19925
G1 X137.171 Y134.991 E.19894
G1 X131.086 Y136.789 E.19894
G1 X124.767 Y137.366 E.19894
G1 X118.467 Y136.699 E.19863
G1 X112.408 Y134.816 E.19894
G1 X106.834 Y131.786 E.19893
G1 X101.949 Y127.721 E.19925
G1 X97.966 Y122.795 E.19863
G1 X95.009 Y117.171 E.19925
G1 X93.211 Y111.086 E.19894
G1 X92.634 Y104.767 E.19894
G1 X93.301 Y98.467 E.19863
G1 X95.187 Y92.399 E.19925
G1 X98.218 Y86.825 E.19894
G1 X100.652 Y83.902 E.11926
M204 S1000
; printing object P4.stl id:0 copy 0
;WIPE_START
G1 F8640
G1 X102.279 Y81.949 E-.58682
G1 X102.862 Y81.478 E-.17318
;WIPE_END
G1 E-.04 F2100
G1 Z.6 F720
G1 X95.791 Y105 F10800
G1 Z.2 F720
G1 E.8 F2100
M204 S800
;TYPE:Perimeter
;WIDTH:0.419999
G1 F1200
G1 X96.352 Y99.302 E.17953
G1 X98.014 Y93.822 E.17953
G1 X100.714 Y88.772 E.17953
G1 X104.346 Y84.346 E.17953
G1 X108.772 Y80.714 E.17953
G1 X113.822 Y78.014 E.17953
G1 X119.302 Y76.352 E.17953
G1 X125 Y75.791 E.17953
G1 X130.698 Y76.352 E.17953
G1 X136.178 Y78.014 E.17953
G1 X141.228 Y80.714 E.17953
G1 X145.654 Y84.346 E.17953
G1 X149.286 Y88.772 E.17953
G1 X151.986 Y93.822 E.17953
G1 X153.648 Y99.302 E.17953
G1 X154.209 Y105 E.17953
G1 X153.648 Y110.698 E.17953
G1 X151.986 Y116.178 E.17953
G1 X149.286 Y121.228 E.17953
G1 X145.654 Y125.654 E.17953
G1 X141.228 Y129.286 E.17953
G1 X136.178 Y131.986 E.17953
G1 X130.698 Y133.648 E.17953
G1 X125 Y134.209 E.17953
G1 X119.302 Y133.648 E.17954
G1 X113.822 Y131.986 E.17953
G1 X108.772 Y129.286 E.17953
G1 X104.346 Y125.654 E.17953
G1 X100.714 Y121.228 E.17953
G1 X98.014 Y116.178 E.17953
G1 X96.352 Y110.698 E.17953
G1 X95.797 Y105.06 E.17765
M204 S1000
G1 X95.412 Y105 F10800
M204 S800
;TYPE:External perimeter
G1 F1200
G1 X95.981 Y99.228 E.18187
G1 X97.664 Y93.677 E.18186
G1 X100.398 Y88.562 E.18186
G1 X104.078 Y84.078 E.18186
G1 X108.562 Y80.398 E.18186
G1 X113.677 Y77.664 E.18186
G1 X119.228 Y75.981 E.18186
G1 X125 Y75.412 E.18186
G1 X130.772 Y75.981 E.18186
G1 X136.323 Y77.664 E.18186
G1 X141.438 Y80.398 E.18186
G1 X145.922 Y84.078 E.18186
G1 X149.602 Y88.562 E.18186
G1 X152.336 Y93.677 E.18186
G1 X154.019 Y99.228 E.18186
G1 X154.588 Y105 E.18186
G1 X154.019 Y110.772 E.18186
G1 X152.336 Y116.323 E.18186
G1 X149.602 Y121.438 E.18186
G1 X145.922 Y125.922 E.18186
G1 X141.438 Y129.602 E.18186
G1 X136.323 Y132.336 E.18186
G1 X130.772 Y134.019 E.18186
G1 X125 Y134.588 E.18186
G1 X119.228 Y134.019 E.18186
G1 X113.677 Y132.336 E.18186
G1 X108.562 Y129.602 E.18186
G1 X104.078 Y125.922 E.18186
G1 X100.398 Y121.438 E.18186
G1 X97.664 Y116.323 E.18186
G1 X95.981 Y110.772 E.18186
G1 X95.418 Y105.06 E.17998
M204 S1000
G1 X95.758 Y104.8 F10800
;WIPE_START
G1 F8640
G1 X95.734 Y101.784 E-.76
;WIPE_END
G1 E-.04 F2100
M73 P0 R122
G1 Z.6 F720
G1 X128.193 Y111.638 F10800
G1 Z.2 F720
G1 E.8 F2100
M204 S800
;TYPE:Perimeter
G1 F1200
G1 X128.192 Y112.182 E.01706
G1 X128.126 Y112.703 E.01647
G1 X127.912 Y113.453 E.02444
G1 X127.763 Y113.699 E.00902
G1 X127.534 Y113.833 E.00833
G1 X126.589 Y114.051 E.0304
G1 X126.309 Y114.043 E.00877
G1 X126.139 Y113.963 E.00589
G1 X125.581 Y113.369 E.02554
G1 X125.235 Y112.849 E.01959
G1 X124.999 Y112.354 E.01721
G1 X124.778 Y112.845 E.01689
G1 X124.469 Y113.304 E.01734
G1 X123.956 Y113.879 E.02416
G1 X123.715 Y114.036 E.00901
G1 X123.455 Y114.059 E.00821
G1 X122.505 Y113.844 E.03054
G1 X122.255 Y113.715 E.00879
G1 X122.137 Y113.569 E.00589
G1 X121.893 Y112.793 E.02553
G1 X121.79 Y112.046 E.02364
G1 X121.808 Y111.629 E.01308
G1 X121.493 Y111.902 E.01308
G1 X120.926 Y112.247 E.02078
G1 X120.207 Y112.547 E.02443
G1 X119.923 Y112.584 E.009
G1 X119.692 Y112.501 E.00769
G1 X118.915 Y111.885 E.03108
G1 X118.746 Y111.661 E.00879
G1 X118.703 Y111.479 E.00589
G1 X118.819 Y110.673 E.02553
G1 X119.01 Y110.078 E.0196
G1 X119.25 Y109.584 E.01721
G1 X118.728 Y109.717 E.01689
G1 X118.177 Y109.763 E.01734
G1 X117.407 Y109.72 E.02416
G1 X117.135 Y109.63 E.00899
G1 X116.944 Y109.422 E.00884
G1 X116.53 Y108.563 E.0299
G1 X116.475 Y108.288 E.00878
G1 X116.515 Y108.105 E.00589
G1 X116.97 Y107.429 E.02553
G1 X117.49 Y106.884 E.02362
G1 X117.834 Y106.638 E.01327
G1 X117.416 Y106.561 E.01333
G1 X116.794 Y106.334 E.02076
G1 X116.111 Y105.958 E.02443
G1 X115.905 Y105.758 E.00901
G1 X115.825 Y105.509 E.00821
G1 X115.823 Y104.535 E.03054
G1 X115.892 Y104.264 E.00878
G1 X116.008 Y104.116 E.00589
G1 X116.711 Y103.705 E.02554
G1 X117.302 Y103.471 E.01992
G1 X117.83 Y103.365 E.01689
G1 X117.4 Y103.024 E.01721
G1 X117.028 Y102.641 E.01674
G1 X116.576 Y102.006 E.02443
G1 X116.477 Y101.737 E.009
G1 X116.517 Y101.467 E.00856
G1 X116.933 Y100.599 E.03018
G1 X117.114 Y100.385 E.00879
G1 X117.283 Y100.302 E.00589
G1 X118.094 Y100.237 E.02553
G1 X118.845 Y100.303 E.02364
G1 X119.248 Y100.413 E.01308
G1 X119.053 Y100.029 E.01349
G1 X118.879 Y99.557 E.01577
G1 X118.712 Y98.661 E.02858
G1 X118.737 Y98.362 E.00941
G1 X118.881 Y98.144 E.00819
G1 X119.642 Y97.535 E.03057
G1 X119.898 Y97.42 E.00878
G1 X120.085 Y97.419 E.00589
G1 X120.845 Y97.712 E.02552
G1 X121.298 Y97.963 E.01623
G1 X121.807 Y98.362 E.02029
G1 X121.808 Y97.818 E.01706
G1 X121.874 Y97.297 E.01647
G1 X122.088 Y96.548 E.02442
G1 X122.237 Y96.302 E.009
G1 X122.466 Y96.167 E.00836
G1 X123.411 Y95.949 E.0304
G1 X123.691 Y95.957 E.00877
G1 X123.861 Y96.037 E.00589
G1 X124.418 Y96.631 E.02554
G1 X124.835 Y97.26 E.02364
G1 X124.996 Y97.633 E.01274
G1 X125.443 Y96.817 E.02915
G1 X126.04 Y96.126 E.02866
G1 X126.285 Y95.964 E.0092
G1 X126.546 Y95.941 E.00821
G1 X127.495 Y96.156 E.03052
G1 X127.745 Y96.285 E.00879
G1 X127.863 Y96.431 E.00589
G1 X128.107 Y97.207 E.02553
G1 X128.21 Y97.954 E.02364
G1 X128.192 Y98.371 E.01308
G1 X128.507 Y98.098 E.01308
G1 X129.074 Y97.753 E.02079
G1 X129.793 Y97.453 E.02443
G1 X130.077 Y97.416 E.009
G1 X130.308 Y97.499 E.00769
G1 X131.085 Y98.115 E.03108
G1 X131.254 Y98.339 E.00879
G1 X131.297 Y98.521 E.00589
G1 X131.181 Y99.327 E.02553
G1 X130.995 Y99.935 E.01992
G1 X130.748 Y100.414 E.01689
G1 X131.283 Y100.29 E.01721
G1 X131.815 Y100.238 E.01674
G1 X132.593 Y100.28 E.02444
G1 X132.865 Y100.37 E.00899
G1 X133.056 Y100.578 E.00884
G1 X133.47 Y101.437 E.0299
G1 X133.525 Y101.712 E.00878
G1 X133.485 Y101.895 E.00589
G1 X133.03 Y102.571 E.02553
G1 X132.51 Y103.116 E.02362
G1 X132.166 Y103.362 E.01327
G1 X132.584 Y103.439 E.01333
G1 X133.206 Y103.666 E.02077
G1 X133.889 Y104.042 E.02443
G1 X134.095 Y104.242 E.00901
G1 X134.175 Y104.491 E.00821
G1 X134.175 Y105.509 E.03192
G1 X134.095 Y105.758 E.00821
G1 X133.889 Y105.958 E.009
G1 X133.288 Y106.296 E.02159
G1 X132.698 Y106.529 E.01991
G1 X132.17 Y106.635 E.01689
G1 X132.6 Y106.976 E.01721
G1 X132.972 Y107.359 E.01674
G1 X133.424 Y107.993 E.02443
G1 X133.523 Y108.263 E.009
G1 X133.483 Y108.533 E.00856
G1 X133.067 Y109.401 E.03018
G1 X132.887 Y109.615 E.00878
G1 X132.721 Y109.697 E.0058
G1 X132.041 Y109.755 E.0214
G1 X131.424 Y109.723 E.01938
G1 X130.896 Y109.63 E.01679
G1 X130.761 Y109.59 E.00441
G1 X131.01 Y110.104 E.0179
G1 X131.191 Y110.719 E.0201
G1 X131.289 Y111.336 E.01959
G1 X131.263 Y111.638 E.00951
G1 X131.119 Y111.855 E.00816
G1 X130.358 Y112.465 E.03057
G1 X130.103 Y112.58 E.00877
G1 X129.918 Y112.581 E.00579
G1 X129.263 Y112.339 E.02192
G1 X128.709 Y112.041 E.0197
G1 X128.237 Y111.679 E.01867
M204 S1000
G1 X127.956 Y110.756 F10800
M204 S800
;TYPE:External perimeter
G1 F1200
G1 X127.665 Y110.887 E.00999
G1 X127.653 Y111.04 E.00484
G1 X127.808 Y111.527 E.016
G1 X127.818 Y112.135 E.01907
G1 X127.752 Y112.656 E.01647
G1 X127.55 Y113.346 E.02253
G1 X127.443 Y113.466 E.00506
G1 X126.505 Y113.683 E.03018
G1 X126.355 Y113.654 E.00479
G1 X125.861 Y113.116 E.0229
G1 X125.552 Y112.644 E.01769
G1 X125.306 Y112.109 E.01846
G1 X125.229 Y111.58 E.01676
G1 X125.167 Y111.48 E.00367
G1 X124.862 Y111.456 E.00958
G1 X124.784 Y111.536 E.00352
G1 X124.709 Y112.054 E.01642
G1 X124.481 Y112.604 E.01865
G1 X124.167 Y113.078 E.01784
G1 X123.677 Y113.626 E.02305
G1 X123.536 Y113.688 E.00481
G1 X122.588 Y113.476 E.03045
G1 X122.466 Y113.385 E.00479
G1 X122.254 Y112.686 E.0229
G1 X122.164 Y111.998 E.02174
G1 X122.202 Y111.48 E.01628
G1 X122.362 Y110.994 E.01606
G1 X122.315 Y110.87 E.00415
G1 X122.044 Y110.756 E.00923
G1 X121.928 Y110.845 E.00457
G1 X121.648 Y111.264 E.01582
G1 X121.296 Y111.58 E.01481
G1 X120.73 Y111.925 E.02078
G1 X120.065 Y112.197 E.02253
G1 X119.906 Y112.189 E.00502
G1 X119.15 Y111.59 E.03023
G1 X119.079 Y111.455 E.00479
G1 X119.192 Y110.733 E.0229
G1 X119.368 Y110.197 E.01769
G1 X119.633 Y109.672 E.01846
G1 X119.998 Y109.281 E.01675
G1 X120.038 Y109.171 E.00367
G1 X119.866 Y108.918 E.00958
G1 X119.755 Y108.906 E.00351
G1 X119.303 Y109.171 E.01643
G1 X118.732 Y109.335 E.01865
G1 X118.165 Y109.385 E.01784
G1 X117.431 Y109.343 E.02305
G1 X117.294 Y109.271 E.00486
G1 X116.87 Y108.399 E.03039
G1 X116.865 Y108.247 E.00479
G1 X117.279 Y107.645 E.02289
G1 X117.76 Y107.147 E.02172
G1 X118.206 Y106.843 E.0169
G1 X118.682 Y106.65 E.01613
G1 X118.731 Y106.58 E.00268
G1 X118.668 Y106.289 E.00935
G1 X118.521 Y106.243 E.00484
G1 X118.012 Y106.285 E.01599
G1 X117.546 Y106.207 E.01483
G1 X116.924 Y105.979 E.02076
G1 X116.296 Y105.629 E.02253
G1 X116.202 Y105.494 E.00516
G1 X116.2 Y104.535 E.03008
G1 X116.262 Y104.395 E.00479
G1 X116.896 Y104.033 E.0229
G1 X117.437 Y103.823 E.0182
G1 X118.009 Y103.716 E.01822
G1 X118.563 Y103.755 E.01744
G1 X118.655 Y103.719 E.00308
G1 X118.732 Y103.397 E.01038
G1 X118.556 Y103.283 E.00658
G1 X118.138 Y103.119 E.01408
G1 X117.671 Y102.761 E.01845
G1 X117.297 Y102.376 E.01684
G1 X116.885 Y101.79 E.02244
G1 X116.859 Y101.628 E.00517
G1 X117.273 Y100.763 E.03007
G1 X117.39 Y100.664 E.00479
G1 X118.118 Y100.613 E.0229
G1 X118.808 Y100.678 E.02174
G1 X119.292 Y100.822 E.01581
G1 X119.731 Y101.087 E.01609
G1 X119.874 Y101.076 E.00451
G1 X120.046 Y100.837 E.00922
G1 X119.941 Y100.682 E.00589
G1 X119.635 Y100.322 E.01481
G1 X119.404 Y99.892 E.0153
G1 X119.238 Y99.424 E.01556
G1 X119.082 Y98.592 E.02656
G1 X119.122 Y98.438 E.005
G1 X119.877 Y97.83 E.03039
G1 X120.025 Y97.791 E.00479
G1 X120.703 Y98.061 E.02289
G1 X121.243 Y98.388 E.01978
G1 X121.629 Y98.721 E.01599
G1 X121.963 Y99.176 E.01769
G1 X122.044 Y99.244 E.00333
G1 X122.336 Y99.094 E.01029
G1 X122.344 Y98.95 E.00451
G1 X122.192 Y98.473 E.01568
G1 X122.182 Y97.865 E.01906
G1 X122.248 Y97.344 E.01647
G1 X122.45 Y96.655 E.02252
G1 X122.557 Y96.534 E.00507
G1 X123.495 Y96.317 E.03018
G1 X123.645 Y96.346 E.00479
G1 X124.139 Y96.884 E.0229
G1 X124.518 Y97.465 E.02174
G1 X124.709 Y97.945 E.01622
G1 X124.776 Y98.455 E.01613
G1 X124.869 Y98.544 E.00402
G1 X125.178 Y98.521 E.00971
G1 X125.234 Y98.338 E.00598
G1 X125.307 Y97.886 E.01437
G1 X125.519 Y97.439 E.01551
G1 X125.769 Y97.006 E.01568
G1 X126.322 Y96.376 E.02629
G1 X126.464 Y96.312 E.00487
G1 X127.412 Y96.524 E.03043
G1 X127.534 Y96.615 E.00479
G1 X127.746 Y97.314 E.0229
G1 X127.836 Y98.002 E.02173
G1 X127.798 Y98.52 E.01629
G1 X127.638 Y99.006 E.01606
G1 X127.685 Y99.13 E.00415
G1 X127.956 Y99.244 E.00923
G1 X128.072 Y99.155 E.00457
G1 X128.352 Y98.736 E.01582
G1 X128.704 Y98.42 E.01481
G1 X129.27 Y98.075 E.02079
G1 X129.935 Y97.803 E.02253
G1 X130.094 Y97.811 E.00502
G1 X130.85 Y98.41 E.03023
G1 X130.921 Y98.545 E.00479
G1 X130.808 Y99.267 E.0229
G1 X130.635 Y99.821 E.0182
G1 X130.363 Y100.334 E.01821
G1 X129.988 Y100.742 E.01737
G1 X129.958 Y100.862 E.00386
G1 X130.174 Y101.097 E.01004
G1 X130.36 Y101.032 E.00617
G1 X130.749 Y100.807 E.01409
G1 X131.32 Y100.666 E.01845
G1 X131.855 Y100.613 E.01684
G1 X132.569 Y100.657 E.02244
G1 X132.706 Y100.729 E.00486
G1 X133.13 Y101.601 E.03039
G1 X133.135 Y101.753 E.00479
G1 X132.721 Y102.355 E.02289
G1 X132.24 Y102.853 E.02172
G1 X131.794 Y103.157 E.0169
G1 X131.318 Y103.35 E.01613
G1 X131.269 Y103.42 E.00268
G1 X131.332 Y103.711 E.00935
G1 X131.479 Y103.757 E.00484
G1 X131.988 Y103.715 E.01599
G1 X132.454 Y103.793 E.01483
G1 X133.076 Y104.021 E.02077
G1 X133.704 Y104.371 E.02253
G1 X133.798 Y104.506 E.00516
G1 X133.8 Y105.465 E.03008
G1 X133.738 Y105.605 E.00479
G1 X133.104 Y105.967 E.0229
G1 X132.563 Y106.177 E.0182
G1 X131.991 Y106.284 E.01822
G1 X131.437 Y106.245 E.01744
G1 X131.345 Y106.281 E.00308
G1 X131.268 Y106.603 E.01038
G1 X131.444 Y106.717 E.00658
G1 X131.862 Y106.881 E.01408
G1 X132.329 Y107.239 E.01845
G1 X132.703 Y107.624 E.01684
G1 X133.115 Y108.209 E.02244
G1 X133.141 Y108.372 E.00517
G1 X132.727 Y109.237 E.03007
G1 X132.612 Y109.336 E.00476
G1 X132.017 Y109.379 E.0187
G1 X131.46 Y109.348 E.01747
G1 X131.004 Y109.269 E.01452
G1 X130.65 Y109.143 E.01178
G1 X130.216 Y108.896 E.01567
G1 X130.098 Y108.957 E.00419
G1 X129.954 Y109.163 E.00787
G1 X130.059 Y109.318 E.00588
G1 X130.371 Y109.684 E.01507
G1 X130.61 Y110.134 E.01599
G1 X130.784 Y110.664 E.01748
G1 X130.916 Y111.392 E.0232
G1 X130.888 Y111.55 E.00501
G1 X130.123 Y112.17 E.03088
G1 X129.976 Y112.209 E.00476
G1 X129.4 Y111.988 E.01935
G1 X128.89 Y111.71 E.0182
G1 X128.371 Y111.279 E.02118
G1 X128.001 Y110.796 E.01908
M204 S1000
G1 X127.801 Y111.035 F10800
;WIPE_START
G1 F8640
G1 X127.665 Y110.887 E-.08034
G1 X127.653 Y111.04 E-.03561
G1 X127.808 Y111.527 E-.11783
G1 X127.818 Y112.135 E-.14043
G1 X127.752 Y112.656 E-.12126
G1 X127.55 Y113.346 E-.16595
G1 X127.443 Y113.466 E-.03725
G1 X127.184 Y113.526 E-.06133
;WIPE_END
G1 E-.04 F2100
G1 Z.6 F720
G1 X149.122 Y88.75 F10800
G1 Z.2 F720
G1 E.8 F2100
M204 S800
;TYPE:Solid infill
;WIDTH:0.421028
G1 F1200
G1 X142.474 Y82.102 E.29559
G1 X141.07 Y80.95 E.05711
G1 X140.462 Y80.625 E.02167
G1 X149.375 Y89.538 E.3963
G1 X149.989 Y90.687 E.04095
G1 X139.313 Y80.011 E.47467
G1 X138.165 Y79.397 E.04095
G1 X150.603 Y91.835 E.55305
G1 X151.217 Y92.984 E.04095
G1 X137.016 Y78.783 E.63143
G1 X136.069 Y78.277 E.03375
G1 X135.934 Y78.236 E.00444
G1 X151.764 Y94.066 E.70384
G1 X151.997 Y94.833 E.02522
G1 X135.167 Y78.003 E.74832
G1 X134.399 Y77.77 E.02522
G1 X152.23 Y95.601 E.7928
G1 X152.463 Y96.369 E.02522
