; generated by PrusaSlicer 2.5.0+MacOS-arm64 on 2022-12-07 at 18:18:57 UTC


;
;
; 

; external perimeters extrusion width = 0.60mm
; perimeters extrusion width = 0.50mm
; infill extrusion width = 0.50mm
; solid infill extrusion width = 0.50mm
; top infill extrusion width = 0.45mm
; first layer extrusion width = 0.42mm

M73 P0 R67
M73 Q0 S68
M201 X1000 Y1000 Z200 E5000 ; sets maximum accelerations, mm/sec^2
M203 X200 Y200 Z12 E120 ; sets maximum feedrates, mm / sec
M204 P1250 R1250 T1250 ; sets acceleration (P, T) and retract acceleration (R), mm/sec^2
M205 X8.00 Y8.00 Z0.40 E4.50 ; sets the jerk limits, mm/sec
M205 S0 T0 ; sets the minimum extruding and travel feed rate, mm/sec
M107
;TYPE:Custom
M862.3 P "MK3S" ; printer model check
M862.1 P0.4 ; nozzle diameter check
M115 U3.11.0 ; tell printer latest fw version
G90 ; use absolute coordinates
M83 ; extruder relative mode
M104 S215 ; set extruder temp
M140 S60 ; set bed temp
M190 S60 ; wait for bed temp
M109 S215 ; wait for extruder temp
G28 W ; home all without mesh bed level
G80 ; mesh bed leveling

G1 Z0.2 F720
G1 Y-3 F1000 ; go outside print area
G92 E0
G1 X60 E9 F1000 ; intro line
G1 X100 E12.5 F1000 ; intro line

G92 E0
M221 S95

; Don't change E values below. Excessive value can damage the printer.

M907 E538 ; set extruder motor current
G21 ; set units to millimeters
G90 ; use absolute coordinates
M83 ; use relative distances for extrusion
M900 K0.05 ; Filament gcode LA 1.5
M900 K30 ; Filament gcode LA 1.0
M107
;LAYER_CHANGE
;Z:0.2
;HEIGHT:0.2
;BEFORE_LAYER_CHANGE
G92 E0.0
;0.2


G1 E-.8 F2100
M73 Q0 S67
G1 Z.4 F720
;AFTER_LAYER_CHANGE
;0.2
G1 X105.625 Y62.222 F10800
G1 Z.2 F720
G1 E.8 F2100
M204 S800
;TYPE:Skirt/Brim
;WIDTH:0.42
G1 F1200
G1 X116.873 Y43.128 E.69484
G1 X117.724 Y42.118 E.04141
G1 X118.923 Y41.317 E.04519
G1 X120.279 Y40.906 E.04445
G1 X121.233 Y40.858 E.02994
G1 X122.178 Y40.997 E.02994
G1 X123.077 Y41.317 E.02994
G1 X123.897 Y41.807 E.02994
G1 X124.545 Y42.377 E.02705
G1 X175.501 Y99.73 E2.40548
G1 X176.216 Y100.716 E.03821
G1 X177.722 Y103.389 E.09619
G1 X178.83 Y106.588 E.10615
G1 X179.012 Y107.364 E.02499
G1 X179.376 Y110.849 E.10987
G1 X179.087 Y114.222 E.10614
G1 X178.83 Y115.429 E.0387
G1 X178.023 Y117.912 E.08186
G1 X177.521 Y119.04 E.0387
G1 X148.954 Y167.975 E1.77665
G1 X147.957 Y168.907 E.04278
G1 X146.902 Y169.154 E.03398
G1 X103.416 Y169.142 E1.36345
G1 X101.569 Y168.942 E.05826
G1 X100.257 Y168.644 E.04218
G1 X98.602 Y168.068 E.05494
G1 X96.942 Y167.234 E.05826
G1 X95.407 Y166.186 E.05826
G1 X94.391 Y165.305 E.04218
G1 X93.138 Y163.933 E.05826
G1 X92.133 Y162.498 E.05494
G1 X71.911 Y129.455 E1.21466
G1 X71.341 Y128.161 E.04433
G1 X70.689 Y125.307 E.0918
G1 X70.624 Y124.562 E.02342
G1 X70.689 Y123.603 E.03015
G1 X71.341 Y120.748 E.0918
G1 X71.89 Y119.489 E.04308
G1 X105.595 Y62.274 E2.08207
M204 S1000
; printing object p5.stl id:0 copy 0
;WIPE_START
G1 F8640
G1 X107.265 Y59.438 E-.76
;WIPE_END
G1 E-.04 F2100
G1 Z.6 F720
G1 X114.495 Y162.542 F10800
G1 Z.2 F720
G1 E.8 F2100
M204 S800
;TYPE:Perimeter
;WIDTH:0.419999
G1 F1200
G1 X114.58 Y162.564 E.00276
G1 X115.265 Y162.564 E.02146
G1 X115.265 Y165.99 E.10741
G1 X103.998 Y165.99 E.35325
G1 X103.027 Y165.946 E.03048
G1 X102.079 Y165.818 E.02999
G1 X101.146 Y165.606 E.02999
G1 X100.451 Y165.382 E.02291
G1 X99.797 Y165.138 E.02188
G1 X98.929 Y164.722 E.0302
G1 X98.301 Y164.349 E.0229
G1 X97.717 Y163.966 E.02188
G1 X97.14 Y163.508 E.02311
G1 X96.613 Y163.051 E.02188
G1 X95.944 Y162.357 E.0302
G1 X95.345 Y161.612 E.03
G1 X94.814 Y160.816 E.03
G1 X94.356 Y159.976 E.02999
G1 X93.976 Y159.098 E.02999
G1 X93.675 Y158.19 E.02999
G1 X93.507 Y157.479 E.02291
G1 X93.378 Y156.793 E.02187
G1 X93.285 Y155.835 E.0302
G1 X93.278 Y154.878 E.03
G1 X93.338 Y154.15 E.02291
G1 X93.426 Y153.458 E.02187
G1 X93.632 Y152.517 E.0302
G1 X93.92 Y151.605 E.02999
G1 X94.287 Y150.722 E.02999
G1 X94.732 Y149.875 E.02999
G1 X95.254 Y149.067 E.03016
G1 X96.157 Y147.874 E.04691
G1 X97.132 Y146.732 E.04707
G1 X98.174 Y145.651 E.04707
G1 X99.278 Y144.634 E.04707
G1 X100.441 Y143.684 E.04707
G1 X101.662 Y142.803 E.04721
G1 X102.282 Y142.396 E.02326
G1 X103.577 Y141.627 E.04721
G1 X104.911 Y140.938 E.04707
G1 X106.283 Y140.33 E.04707
G1 X107.69 Y139.805 E.04707
G1 X109.125 Y139.364 E.04708
G1 X110.584 Y139.01 E.04707
G1 X112.062 Y138.743 E.04707
G1 X114.124 Y138.487 E.06516
G1 X114.052 Y139.146 E.02077
G1 X114.015 Y140.151 E.03153
G1 X114.015 Y161.998 E.685
G1 X114.026 Y162.112 E.0036
G1 X114.16 Y162.377 E.00931
G1 X114.305 Y162.492 E.00581
G1 X114.437 Y162.527 E.00427
M204 S1000
;WIPE_START
G1 F8640
G1 X114.58 Y162.564 E-.03416
G1 X115.265 Y162.564 E-.15802
G1 X115.265 Y165.023 E-.56782
;WIPE_END
G1 E-.04 F2100
G1 Z.6 F720
G1 X126.839 Y165.99 F10800
G1 Z.2 F720
G1 E.8 F2100
M204 S800
G1 F1200
G1 X126.839 Y162.564 E.10741
G1 X127.523 Y162.564 E.02146
G1 X127.798 Y162.492 E.0089
G1 X127.943 Y162.377 E.00581
G1 X128.033 Y162.243 E.00508
G1 X128.089 Y161.998 E.00786
G1 X128.088 Y140.151 E.685
G1 X128.052 Y139.104 E.03283
G1 X127.991 Y138.551 E.01746
G1 X127.916 Y138.425 E.00458
G1 X129.13 Y138.464 E.03808
G1 X146.114 Y138.464 E.53254
G1 X146.114 Y165.99 E.86304
G1 X126.899 Y165.99 E.6025
M204 S1000
;WIPE_START
G1 F8640
G1 X126.841 Y162.699 E-.76
;WIPE_END
G1 E-.04 F2100
G1 Z.6 F720
G1 X114.58 Y162.187 F10800
G1 Z.2 F720
G1 E.8 F2100
M204 S800
;TYPE:External perimeter
G1 F1200
G1 X115.642 Y162.187 E.03328
G1 X115.642 Y166.367 E.13106
G1 X103.99 Y166.367 E.36534
G1 X102.993 Y166.322 E.03127
G1 X102.012 Y166.19 E.03105
G1 X101.046 Y165.97 E.03105
G1 X100.335 Y165.741 E.02343
M73 P0 R66
G1 X99.646 Y165.483 E.02306
G1 X98.751 Y165.054 E.03113
G1 X98.108 Y164.673 E.02343
G1 X97.493 Y164.269 E.02307
G1 X96.906 Y163.804 E.02351
G1 X96.35 Y163.322 E.02306
G1 X95.661 Y162.607 E.03112
G1 X95.04 Y161.835 E.03105
G1 X94.491 Y161.011 E.03105
G1 X94.017 Y160.141 E.03105
G1 X93.623 Y159.233 E.03105
G1 X93.311 Y158.293 E.03105
G1 X93.14 Y157.565 E.02344
G1 X93.004 Y156.843 E.02306
G1 X92.908 Y155.854 E.03112
G1 X92.901 Y154.864 E.03105
G1 X92.962 Y154.119 E.02343
G1 X93.055 Y153.39 E.02306
G1 X93.268 Y152.42 E.03112
G1 X93.565 Y151.475 E.03105
G1 X93.946 Y150.561 E.03105
G1 X94.407 Y149.684 E.03105
G1 X94.945 Y148.85 E.03112
G1 X95.863 Y147.637 E.04771
G1 X96.853 Y146.479 E.04778
G1 X97.91 Y145.381 E.04778
G1 X99.031 Y144.349 E.04778
G1 X100.211 Y143.385 E.04778
G1 X101.448 Y142.492 E.04783
G1 X102.082 Y142.076 E.02379
G1 X103.394 Y141.297 E.04783
G1 X104.748 Y140.598 E.04778
G1 X106.141 Y139.981 E.04778
G1 X107.569 Y139.448 E.04778
G1 X109.025 Y139.001 E.04778
G1 X110.506 Y138.641 E.04778
G1 X112.006 Y138.37 E.04778
G1 X114.058 Y138.116 E.06485
G1 X114.69 Y138.007 E.0201
;WIDTH:0.425023
G1 X116.298 Y137.991 E.05109
G1 X127.14 Y137.988 E.34449
;WIDTH:0.420117
G1 X127.464 Y138.007 E.01017
;WIDTH:0.419999
G1 X128.138 Y138.064 E.02119
G1 X129.13 Y138.087 E.03113
G1 X146.492 Y138.087 E.54436
G1 X146.492 Y166.367 E.88669
M73 P1 R66
M73 Q1 S67
G1 X126.462 Y166.367 E.62802
G1 X126.462 Y162.187 E.13106
G1 X127.523 Y162.187 E.03328
G1 X127.663 Y162.124 E.0048
G1 X127.712 Y161.998 E.00424
G1 X127.711 Y140.151 E.685
G1 X127.678 Y139.146 E.03153
G1 X127.61 Y138.533 E.01933
G1 X127.436 Y138.372 E.00743
;WIDTH:0.420117
G1 X127.141 Y138.366 E.00927
;WIDTH:0.425023
G1 X114.692 Y138.379 E.3955
;WIDTH:0.415479
G1 X114.66 Y138.383 E.001
;WIDTH:0.419999
G1 X114.506 Y138.542 E.00696
G1 X114.428 Y139.16 E.01953
G1 X114.392 Y140.151 E.0311
G1 X114.392 Y161.998 E.685
G1 X114.44 Y162.124 E.00424
G1 X114.525 Y162.162 E.00292
M204 S1000
G1 X114.684 Y162.573 F10800
;WIPE_START
G1 F8640
G1 X115.642 Y162.187 E-.25781
G1 X115.642 Y164.362 E-.50219
;WIPE_END
G1 E-.04 F2100
G1 Z.6 F720
G1 X113.934 Y139.317 F10800
G1 Z.2 F720
G1 E.8 F2100
M204 S800
;TYPE:Solid infill
;WIDTH:0.421171
G1 F1200
G1 X113.476 Y138.859 E.0204
G1 X112.998 Y138.916 E.01513
G1 X113.751 Y139.669 E.03349
G1 X113.732 Y140.185 E.01625
G1 X112.52 Y138.973 E.0539
G1 X112.046 Y139.033 E.01505
G1 X113.732 Y140.72 E.07501
G1 X113.732 Y141.255 E.01682
G1 X111.593 Y139.115 E.09516
G1 X111.14 Y139.197 E.01448
G1 X113.732 Y141.79 E.11532
G1 X113.732 Y142.325 E.01682
G1 X110.687 Y139.279 E.13547
G1 X110.254 Y139.381 E.01398
G1 X113.732 Y142.86 E.15471
G1 X113.732 Y143.394 E.01682
G1 X109.824 Y139.486 E.17385
G1 X109.393 Y139.59 E.01393
G1 X113.732 Y143.929 E.193
G1 X113.732 Y144.464 E.01682
G1 X108.974 Y139.707 E.21162
G1 X108.565 Y139.832 E.01347
G1 X113.732 Y144.999 E.22983
G1 X113.732 Y145.534 E.01682
G1 X108.156 Y139.958 E.24803
G1 X107.748 Y140.085 E.01343
G1 X113.732 Y146.069 E.26617
G1 X113.732 Y146.604 E.01682
G1 X107.359 Y140.23 E.28349
G1 X106.969 Y140.376 E.01308
G1 X113.732 Y147.139 E.30081
G1 X113.732 Y147.674 E.01682
G1 X106.58 Y140.521 E.31814
G1 X106.2 Y140.676 E.0129
G1 X113.732 Y148.209 E.33503
G1 X113.732 Y148.744 E.01682
G1 X105.829 Y140.841 E.35152
G1 X105.458 Y141.005 E.01275
G1 X113.732 Y149.279 E.36801
G1 X113.732 Y149.813 E.01682
G1 X105.088 Y141.169 E.3845
G1 X104.732 Y141.348 E.01252
G1 X113.732 Y150.348 E.40031
G1 X113.732 Y150.883 E.01682
G1 X104.379 Y141.531 E.41601
G1 X104.026 Y141.713 E.01249
G1 X113.732 Y151.418 E.4317
G1 X113.732 Y151.953 E.01682
G1 X103.676 Y141.897 E.44731
G1 X103.34 Y142.096 E.01228
G1 X113.732 Y152.488 E.46223
G1 X113.732 Y153.023 E.01682
G1 X103.004 Y142.295 E.47716
G1 X102.669 Y142.495 E.01228
G1 X113.732 Y153.558 E.49208
G1 X113.732 Y154.093 E.01682
G1 X102.337 Y142.698 E.50685
G1 X102.014 Y142.91 E.01215
G1 X113.732 Y154.628 E.52121
G1 X113.732 Y155.163 E.01682
G1 X101.7 Y143.131 E.53516
G1 X101.388 Y143.354 E.01206
G1 X113.732 Y155.698 E.54903
G1 X113.732 Y156.233 E.01682
G1 X101.077 Y143.577 E.56291
G1 X100.765 Y143.8 E.01206
M73 Q1 S66
G1 X113.732 Y156.767 E.57678
G1 X113.732 Y157.302 E.01682
G1 X100.462 Y144.032 E.59025
G1 X100.167 Y144.273 E.01196
G1 X113.732 Y157.837 E.60335
G1 X113.732 Y158.372 E.01682
G1 X99.873 Y144.513 E.61644
G1 X99.578 Y144.754 E.01196
G1 X113.732 Y158.907 E.62954
G1 X113.732 Y159.442 E.01682
G1 X99.294 Y145.004 E.6422
G1 X99.015 Y145.26 E.01191
G1 X113.732 Y159.977 E.65458
G1 X113.732 Y160.512 E.01682
G1 X98.737 Y145.517 E.66697
G1 X98.458 Y145.773 E.01191
G1 X113.732 Y161.047 E.67935
G1 X113.732 Y161.582 E.01682
G1 X98.191 Y146.041 E.69125
G1 X97.929 Y146.313 E.0119
G1 X114.982 Y163.367 E.75852
G1 X114.982 Y163.902 E.01682
G1 X97.666 Y146.586 E.7702
G1 X97.404 Y146.858 E.0119
G1 X114.982 Y164.436 E.78187
G1 X114.982 Y164.971 E.01682
G1 X97.153 Y147.143 E.793
G1 X96.907 Y147.431 E.01193
G1 X114.982 Y165.506 E.80397
G1 X114.982 Y165.707 E.0063
M73 P2 R66
M73 Q2 S66
G1 X114.647 Y165.707 E.01052
G1 X96.66 Y147.72 E.80005
G1 X96.414 Y148.008 E.01193
G1 X114.112 Y165.707 E.78722
G1 X113.577 Y165.707 E.01682
G1 X96.181 Y148.31 E.77378
G1 X95.951 Y148.615 E.01201
G1 X113.043 Y165.707 E.76024
G1 X112.508 Y165.707 E.01682
G1 X95.72 Y148.919 E.74669
G1 X95.49 Y149.224 E.01201
G1 X111.973 Y165.707 E.73315
G1 X111.438 Y165.707 E.01682
G1 X95.28 Y149.549 E.7187
G1 X95.07 Y149.874 E.01217
G1 X110.903 Y165.707 E.70424
G1 X110.368 Y165.707 E.01682
G1 X94.874 Y150.213 E.68915
G1 X94.69 Y150.564 E.01246
G1 X109.833 Y165.707 E.67355
G1 X109.298 Y165.707 E.01682
G1 X94.511 Y150.92 E.65771
G1 X94.354 Y151.298 E.01287
G1 X108.763 Y165.707 E.64091
G1 X108.228 Y165.707 E.01682
G1 X94.197 Y151.675 E.62411
G1 X94.066 Y152.08 E.01337
G1 X107.693 Y165.707 E.60611
G1 X107.158 Y165.707 E.01682
M73 P2 R65
G1 X93.938 Y152.487 E.58802
G1 X93.834 Y152.917 E.01393
G1 X106.623 Y165.707 E.56887
G1 X106.088 Y165.707 E.01682
G1 X93.738 Y153.356 E.54935
G1 X93.659 Y153.812 E.01455
G1 X105.554 Y165.707 E.52907
G1 X105.019 Y165.707 E.01682
G1 X93.609 Y154.298 E.50747
G1 X93.569 Y154.792 E.0156
G1 X104.484 Y165.707 E.48548
G1 X103.946 Y165.704 E.01691
G1 X93.564 Y155.322 E.46178
G1 X93.572 Y155.865 E.01708
G1 X103.386 Y165.679 E.43652
G1 X103.052 Y165.664 E.01051
G1 X102.803 Y165.631 E.00792
G1 X93.63 Y156.458 E.40801
G1 X93.711 Y157.074 E.01956
G1 X102.184 Y165.547 E.37688
G1 X101.499 Y165.397 E.02208
G1 X93.864 Y157.762 E.33958
G1 X93.947 Y158.113 E.01135
G1 X94.079 Y158.512 E.01319
G1 X100.748 Y165.181 E.29663
G1 X100.326 Y165.044 E.01396
G1 X99.911 Y164.879 E.01404
G1 X94.401 Y159.369 E.24508
G1 X94.611 Y159.852 E.01656
G1 X94.924 Y160.426 E.02057
G1 X98.834 Y164.336 E.17393
G1 X98.253 Y163.992 E.02125
G1 X97.886 Y163.738 E.01404
G1 X97.14 Y163.148 E.02991
G1 X96.818 Y162.855 E.0137
G1 X95.293 Y161.33 E.06782
M204 S1000
;WIPE_START
G1 F8640
G1 X96.818 Y162.855 E-.49791
G1 X97.14 Y163.148 E-.10058
G1 X97.689 Y163.582 E-.1615
;WIPE_END
G1 E-.04 F2100
G1 Z.6 F720
G1 X145.238 Y138.577 F10800
G1 Z.2 F720
G1 E.8 F2100
M204 S800
;WIDTH:0.42024
G1 F1200
G1 X145.832 Y139.17 E.02634
G1 X145.832 Y139.704 E.01674
G1 X144.874 Y138.746 E.0425
G1 X144.34 Y138.746 E.01675
G1 X145.832 Y140.238 E.06619
G1 X145.832 Y140.771 E.01674
G1 X143.806 Y138.745 E.08988
G1 X143.272 Y138.745 E.01675
G1 X145.832 Y141.305 E.11357
G1 X145.832 Y141.838 E.01674
G1 X142.738 Y138.745 E.13726
G1 X142.204 Y138.744 E.01675
G1 X145.832 Y142.372 E.16095
G1 X145.832 Y142.906 E.01674
G1 X141.67 Y138.744 E.18465
G1 X141.136 Y138.744 E.01675
G1 X145.832 Y143.439 E.20834
G1 X145.832 Y143.973 E.01674
G1 X140.602 Y138.743 E.23203
G1 X140.068 Y138.743 E.01675
G1 X145.832 Y144.506 E.25572
G1 X145.832 Y145.04 E.01674
G1 X139.534 Y138.743 E.27941
G1 X139 Y138.742 E.01675
G1 X145.832 Y145.574 E.3031
G1 X145.832 Y146.107 E.01674
G1 X138.466 Y138.742 E.3268
G1 X137.932 Y138.742 E.01675
G1 X145.832 Y146.641 E.35049
G1 X145.832 Y147.174 E.01674
G1 X137.399 Y138.741 E.37418
G1 X136.865 Y138.741 E.01675
G1 X145.832 Y147.708 E.39787
G1 X145.832 Y148.242 E.01674
G1 X136.331 Y138.741 E.42156
G1 X135.797 Y138.74 E.01675
G1 X145.832 Y148.775 E.44525
G1 X145.832 Y149.309 E.01674
G1 X135.263 Y138.74 E.46895
G1 X134.729 Y138.74 E.01675
G1 X145.832 Y149.843 E.49264
G1 X145.832 Y150.376 E.01674
G1 X134.195 Y138.739 E.51633
G1 X133.661 Y138.739 E.01675
G1 X145.832 Y150.91 E.54002
G1 X145.832 Y151.443 E.01674
G1 X133.127 Y138.739 E.56371
G1 X132.593 Y138.738 E.01675
G1 X145.832 Y151.977 E.5874
G1 X145.832 Y152.511 E.01674
M73 P3 R65
M73 Q3 S66
G1 X132.059 Y138.738 E.61109
G1 X131.525 Y138.737 E.01675
G1 X145.832 Y153.044 E.63479
G1 X145.832 Y153.578 E.01674
M73 Q3 S65
G1 X130.991 Y138.737 E.65848
G1 X130.457 Y138.737 E.01675
G1 X145.832 Y154.111 E.68217
G1 X145.832 Y154.645 E.01674
G1 X129.923 Y138.736 E.70586
G1 X129.389 Y138.736 E.01675
G1 X145.832 Y155.179 E.72955
G1 X145.832 Y155.712 E.01674
G1 X128.855 Y138.736 E.75324
G1 X128.314 Y138.728 E.01699
G1 X145.832 Y156.246 E.77726
G1 X145.832 Y156.779 E.01674
G1 X128.343 Y139.291 E.77596
G1 X128.361 Y139.842 E.01731
G1 X145.832 Y157.313 E.77517
G1 X145.832 Y157.847 E.01674
G1 X128.371 Y140.386 E.77473
G1 X128.371 Y140.92 E.01674
G1 X145.832 Y158.38 E.77472
G1 X145.832 Y158.914 E.01674
G1 X128.371 Y141.453 E.77472
G1 X128.371 Y141.987 E.01674
G1 X145.832 Y159.448 E.77472
G1 X145.832 Y159.981 E.01674
G1 X128.371 Y142.521 E.77472
G1 X128.371 Y143.054 E.01674
G1 X145.832 Y160.515 E.77472
G1 X145.832 Y161.048 E.01674
G1 X128.371 Y143.588 E.77472
G1 X128.371 Y144.121 E.01674
G1 X145.832 Y161.582 E.77472
G1 X145.832 Y162.116 E.01674
G1 X128.371 Y144.655 E.77472
G1 X128.371 Y145.189 E.01674
G1 X145.832 Y162.649 E.77472
G1 X145.832 Y163.183 E.01674
G1 X128.371 Y145.722 E.77472
G1 X128.371 Y146.256 E.01674
G1 X145.832 Y163.716 E.77472
G1 X145.832 Y164.25 E.01674
G1 X128.371 Y146.79 E.77472
G1 X128.371 Y147.323 E.01674
G1 X145.832 Y164.784 E.77472
G1 X145.832 Y165.317 E.01674
G1 X128.371 Y147.857 E.77472
G1 X128.371 Y148.39 E.01674
G1 X145.688 Y165.707 E.76832
G1 X145.154 Y165.707 E.01674
G1 X128.371 Y148.924 E.74465
G1 X128.371 Y149.458 E.01674
G1 X144.62 Y165.707 E.72097
G1 X144.087 Y165.707 E.01674
G1 X128.371 Y149.991 E.69729
G1 X128.371 Y150.525 E.01674
M73 P3 R64
G1 X143.553 Y165.707 E.67362
G1 X143.019 Y165.707 E.01674
G1 X128.371 Y151.058 E.64994
G1 X128.371 Y151.592 E.01674
G1 X142.486 Y165.707 E.62626
G1 X141.952 Y165.707 E.01674
G1 X128.371 Y152.126 E.60259
