; generated by PrusaSlicer 2.5.0+MacOS-arm64 on 2022-12-12 at 16:26:20 UTC


;
;
; 

; external perimeters extrusion width = 0.45mm
; perimeters extrusion width = 0.45mm
; infill extrusion width = 0.45mm
; solid infill extrusion width = 0.45mm
; top infill extrusion width = 0.40mm
; first layer extrusion width = 0.42mm

M73 P0 R14
M73 Q0 S14
M201 X1000 Y1000 Z200 E5000 ; sets maximum accelerations, mm/sec^2
M203 X200 Y200 Z12 E120 ; sets maximum feedrates, mm / sec
M204 P1250 R1250 T1250 ; sets acceleration (P, T) and retract acceleration (R), mm/sec^2
M205 X8.00 Y8.00 Z0.40 E4.50 ; sets the jerk limits, mm/sec
M205 S0 T0 ; sets the minimum extruding and travel feed rate, mm/sec
M107
;TYPE:Custom
M862.3 P "MK3S" ; printer model check
M862.1 P0.4 ; nozzle diameter check
M115 U3.11.0 ; tell printer latest fw version
G90 ; use absolute coordinates
M83 ; extruder relative mode
M104 S215 ; set extruder temp
M140 S60 ; set bed temp
M190 S60 ; wait for bed temp
M109 S215 ; wait for extruder temp
G28 W ; home all without mesh bed level
G80 ; mesh bed leveling

G1 Z0.2 F720
G1 Y-3 F1000 ; go outside print area
G92 E0
G1 X60 E9 F1000 ; intro line
G1 X100 E12.5 F1000 ; intro line

G92 E0
M221 S95

; Don't change E values below. Excessive value can damage the printer.
M907 E430 ; set extruder motor current
G21 ; set units to millimeters
G90 ; use absolute coordinates
M83 ; use relative distances for extrusion
M900 K0.05 ; Filament gcode LA 1.5
M900 K30 ; Filament gcode LA 1.0
M107
;LAYER_CHANGE
;Z:0.2
;HEIGHT:0.2
;BEFORE_LAYER_CHANGE
G92 E0.0
;0.2


G1 E-.8 F2100
G1 Z.4 F720
;AFTER_LAYER_CHANGE
;0.2
G1 X108.775 Y92.711 F10800
G1 Z.2 F720
G1 E.8 F2100
M204 S800
;TYPE:Skirt/Brim
;WIDTH:0.42
G1 F1200
G1 X110.878 Y90.353 E.09907
G1 X111.685 Y89.606 E.03446
G1 X114.474 Y87.58 E.1081
G1 X115.433 Y87.043 E.03446
G1 X118.326 Y85.772 E.09907
G1 X119.376 Y85.447 E.03446
G1 X122.47 Y84.805 E.09907
G1 X123.564 Y84.705 E.03446
G1 X126.724 Y84.72 E.09907
G1 X127.815 Y84.85 E.03446
G1 X130.903 Y85.521 E.09907
M73 Q1 S14
G1 X131.943 Y85.875 E.03446
G1 X134.823 Y87.174 E.09907
G1 X135.768 Y87.737 E.03446
M73 P1 R14
G1 X138.315 Y89.606 E.09907
G1 X139.122 Y90.353 E.03446
G1 X141.043 Y92.487 E.09004
G1 X141.858 Y93.609 E.04348
G1 X143.425 Y96.353 E.09907
G1 X143.858 Y97.363 E.03446
M73 P1 R13
G1 X144.746 Y100.094 E.09004
G1 X145.034 Y101.451 E.04348
G1 X145.334 Y104.307 E.09004
G1 X145.334 Y105.693 E.04348
G1 X145.034 Y108.549 E.09004
G1 X144.82 Y109.628 E.03446
G1 X143.858 Y112.637 E.09907
G1 X143.425 Y113.647 E.03446
G1 X141.858 Y116.391 E.09907
G1 X141.225 Y117.289 E.03446
G1 X139.122 Y119.647 E.09907
M73 Q1 S13
G1 X138.315 Y120.394 E.03446
G1 X135.768 Y122.263 E.09907
G1 X134.823 Y122.826 E.03446
G1 X131.648 Y124.236 E.10894
G1 X130.624 Y124.553 E.03361
G1 X127.53 Y125.195 E.09907
G1 X126.436 Y125.295 E.03446
G1 X123.276 Y125.28 E.09907
G1 X122.185 Y125.15 E.03446
G1 X119.097 Y124.479 E.09907
G1 X118.057 Y124.125 E.03446
G1 X115.177 Y122.826 E.09907
G1 X114.232 Y122.263 E.03446
G1 X111.685 Y120.394 E.09907
G1 X110.878 Y119.647 E.03446
G1 X108.957 Y117.513 E.09004
G1 X108.142 Y116.391 E.04348
G1 X106.575 Y113.647 E.09907
G1 X106.142 Y112.637 E.03446
G1 X105.254 Y109.906 E.09004
G1 X104.966 Y108.549 E.04348
G1 X104.666 Y105.693 E.09004
G1 X104.666 Y104.307 E.04348
G1 X104.966 Y101.451 E.09004
G1 X105.18 Y100.372 E.03446
G1 X106.142 Y97.363 E.09907
G1 X106.575 Y96.353 E.03446
G1 X108.142 Y93.609 E.09907
G1 X108.741 Y92.76 E.03258
M204 S1000
G1 X109.049 Y92.978 F10800
M204 S800
G1 F1200
G1 X111.159 Y90.605 E.09956
G1 X111.937 Y89.886 E.03322
G1 X114.663 Y87.906 E.10562
G1 X115.587 Y87.388 E.03322
G1 X118.443 Y86.131 E.09783
G1 X119.454 Y85.816 E.03322
G1 X122.509 Y85.18 E.09784
G1 X123.564 Y85.082 E.03322
G1 X126.684 Y85.095 E.09783
G1 X127.737 Y85.219 E.03323
G1 X130.786 Y85.88 E.09783
G1 X131.79 Y86.22 E.03322
G1 X134.635 Y87.501 E.09783
G1 X135.546 Y88.042 E.03322
G1 X138.063 Y89.886 E.09783
G1 X138.841 Y90.605 E.03322
G1 X140.763 Y92.739 E.09004
G1 X141.532 Y93.797 E.04101
G1 X143.081 Y96.506 E.09783
G1 X143.5 Y97.479 E.03322
G1 X144.387 Y100.211 E.09004
G1 X144.659 Y101.49 E.04101
G1 X144.959 Y104.346 E.09004
G1 X144.959 Y105.654 E.04101
G1 X144.659 Y108.51 E.09004
G1 X144.451 Y109.549 E.03322
G1 X143.5 Y112.521 E.09783
G1 X143.081 Y113.494 E.03322
G1 X141.532 Y116.203 E.09783
G1 X140.919 Y117.067 E.03322
G1 X138.841 Y119.395 E.09783
M73 Q2 S13
G1 X138.063 Y120.114 E.03322
G1 X135.337 Y122.094 E.10562
G1 X134.413 Y122.612 E.03322
M73 P2 R13
G1 X131.557 Y123.869 E.09783
G1 X130.546 Y124.184 E.03322
G1 X127.491 Y124.82 E.09783
G1 X126.436 Y124.918 E.03322
G1 X123.316 Y124.905 E.09783
G1 X122.263 Y124.781 E.03322
G1 X119.214 Y124.12 E.09783
G1 X118.21 Y123.78 E.03322
G1 X115.365 Y122.499 E.09783
G1 X114.454 Y121.958 E.03322
G1 X111.937 Y120.114 E.09783
G1 X111.159 Y119.395 E.03322
G1 X109.237 Y117.261 E.09004
G1 X108.468 Y116.203 E.04101
G1 X106.919 Y113.494 E.09783
G1 X106.5 Y112.521 E.03322
G1 X105.613 Y109.789 E.09004
G1 X105.341 Y108.51 E.04101
G1 X105.041 Y105.654 E.09004
G1 X105.041 Y104.346 E.04101
G1 X105.341 Y101.49 E.09004
G1 X105.549 Y100.451 E.03322
G1 X106.5 Y97.479 E.09783
G1 X106.919 Y96.506 E.03322
G1 X108.468 Y93.797 E.09783
G1 X109.014 Y93.027 E.02961
M204 S1000
; printing object ServoGear_V2.stl id:0 copy 0
;WIPE_START
G1 F8640
G1 X111.159 Y90.605 E-.74695
G1 X111.2 Y90.567 E-.01305
;WIPE_END
G1 E-.04 F2100
G1 Z.6 F720
G1 X134.346 Y93.669 F10800
G1 Z.2 F720
G1 E.8 F2100
M204 S800
;TYPE:Perimeter
;WIDTH:0.419999
G1 F1200
G1 X134.74 Y93.589 E.01259
G1 X135.099 Y93.356 E.01343
G1 X135.515 Y93.033 E.0165
G1 X136.064 Y92.704 E.02006
G1 X135.781 Y93.325 E.0214
G1 X135.418 Y93.898 E.02126
G1 X135.291 Y94.321 E.01385
G1 X135.299 Y94.702 E.01197
G1 X135.489 Y95.181 E.01615
G1 X135.796 Y95.547 E.01498
G1 X136.094 Y95.746 E.01123
G1 X136.43 Y95.858 E.01109
G1 X136.871 Y95.871 E.01385
G1 X137.302 Y95.728 E.01423
G1 X137.773 Y95.481 E.01669
G1 X138.372 Y95.284 E.01977
G1 X137.982 Y95.814 E.02065
G1 X137.478 Y96.333 E.02268
G1 X137.3 Y96.662 E.01173
G1 X137.213 Y97.109 E.01428
G1 X137.301 Y97.577 E.01492
G1 X137.526 Y97.998 E.01498
G1 X137.775 Y98.255 E.01123
G1 X138.173 Y98.472 E.0142
G1 X138.574 Y98.538 E.01274
G1 X138.955 Y98.492 E.01204
G1 X139.473 Y98.345 E.0169
G1 X140.12 Y98.276 E.02038
G1 X139.614 Y98.71 E.0209
G1 X139.176 Y98.985 E.01623
G1 X138.908 Y99.214 E.01103
G1 X138.654 Y99.62 E.01502
G1 X138.563 Y99.987 E.01186
G1 X138.567 Y100.2 E.00667
G1 X138.706 Y100.757 E.01799
G1 X139.014 Y101.168 E.01613
G1 X139.231 Y101.337 E.00861
G1 X139.713 Y101.521 E.01617
G1 X140.529 Y101.499 E.02562
G1 X141.187 Y101.566 E.02072
G1 X140.586 Y101.892 E.02143
G1 X139.965 Y102.13 E.02083
G1 X139.533 Y102.487 E.01759
G1 X139.361 Y102.783 E.01072
G1 X139.259 Y103.148 E.01187
G1 X139.27 Y103.592 E.01393
G1 X139.363 Y103.927 E.01092
G1 X139.633 Y104.338 E.01539
G1 X140.018 Y104.615 E.01487
G1 X140.411 Y104.713 E.01271
G1 X140.929 Y104.807 E.0165
G1 X141.528 Y105 E.01972
G1 X140.917 Y105.197 E.02013
G1 X140.401 Y105.268 E.01632
G1 X139.92 Y105.439 E.01601
G1 X139.603 Y105.693 E.01274
G1 X139.334 Y106.15 E.01663
G1 X139.251 Y106.589 E.01402
G1 X139.272 Y106.937 E.01091
G1 X139.419 Y107.344 E.01357
G1 X139.727 Y107.713 E.01508
G1 X140.122 Y107.938 E.01424
G1 X140.619 Y108.122 E.01663
G1 X141.185 Y108.447 E.02044
G1 X140.506 Y108.5 E.02134
G1 X139.79 Y108.474 E.02246
G1 X139.394 Y108.573 E.0128
G1 X139.029 Y108.802 E.01352
G1 X138.748 Y109.174 E.01462
G1 X138.585 Y109.623 E.01498
G1 X138.561 Y109.981 E.01123
G1 X138.632 Y110.327 E.0111
G1 X138.842 Y110.716 E.01385
G1 X139.179 Y111.019 E.01421
G1 X139.63 Y111.303 E.01672
G1 X140.113 Y111.723 E.02005
G1 X139.448 Y111.65 E.02097
G1 X138.688 Y111.464 E.02453
G1 X138.371 Y111.483 E.00994
G1 X137.94 Y111.631 E.0143
G1 X137.579 Y111.941 E.01492
G1 X137.327 Y112.347 E.01498
G1 X137.229 Y112.691 E.01123
G1 X137.226 Y113.045 E.0111
G1 X137.34 Y113.446 E.01307
G1 X137.617 Y113.836 E.01499
G1 X138 Y114.207 E.01672
G1 X138.373 Y114.717 E.01981
G1 X137.75 Y114.508 E.0206
G1 X137.044 Y114.169 E.02454
G1 X136.603 Y114.122 E.01391
G1 X136.147 Y114.231 E.01471
G1 X135.82 Y114.432 E.01203
G1 X135.53 Y114.749 E.01348
G1 X135.405 Y114.972 E.008
G1 X135.312 Y115.285 E.01025
G1 X135.327 Y115.875 E.01849
G1 X135.507 Y116.265 E.01349
G1 X135.802 Y116.708 E.01669
G1 X136.06 Y117.285 E.01981
G1 X135.493 Y116.95 E.02065
G1 X135.071 Y116.597 E.01725
G1 X134.606 Y116.364 E.0163
G1 X134.246 Y116.315 E.01139
G1 X133.792 Y116.422 E.01461
G1 X133.506 Y116.544 E.00975
G1 X133.116 Y116.897 E.0165
G1 X132.906 Y117.284 E.0138
G1 X132.838 Y117.76 E.01509
G1 X132.933 Y118.204 E.01422
G1 X133.132 Y118.698 E.01672
G1 X133.265 Y119.315 E.01977
G1 X132.78 Y118.872 E.02059
G1 X132.274 Y118.276 E.02453
G1 X131.976 Y118.087 E.01105
G1 X131.561 Y117.97 E.01352
G1 X131.097 Y118.01 E.01462
G1 X130.654 Y118.189 E.01498
G1 X130.373 Y118.41 E.01123
G1 X130.13 Y118.752 E.01313
G1 X130.008 Y119.175 E.01381
G1 X130.016 Y119.559 E.01205
G1 X130.106 Y120.09 E.01687
G1 X130.116 Y120.733 E.02016
G1 X129.732 Y120.198 E.02065
G1 X129.502 Y119.725 E.0165
G1 X129.292 Y119.426 E.01144
G1 X129.005 Y119.185 E.01175
G1 X128.682 Y119.041 E.01108
G1 X128.227 Y118.987 E.01438
G1 X127.724 Y119.105 E.01619
G1 X127.372 Y119.305 E.0127
G1 X127.135 Y119.554 E.01078
G1 X126.963 Y119.874 E.01138
G1 X126.896 Y120.297 E.01343
G1 X126.857 Y120.822 E.0165
G1 X126.727 Y121.438 E.01975
G1 X126.468 Y120.85 E.02015
G1 X126.343 Y120.345 E.01632
G1 X126.136 Y119.906 E.01522
G1 X125.824 Y119.585 E.01404
G1 X125.337 Y119.37 E.01668
G1 X124.909 Y119.339 E.01346
G1 X124.566 Y119.397 E.01091
G1 X124.176 Y119.585 E.01357
G1 X123.841 Y119.93 E.01508
G1 X123.659 Y120.346 E.01423
G1 X123.527 Y120.862 E.01669
G1 X123.276 Y121.45 E.02003
G1 X123.14 Y120.794 E.02099
G1 X123.093 Y120.083 E.02234
G1 X122.951 Y119.688 E.01315
G1 X122.685 Y119.35 E.01352
G1 X122.286 Y119.109 E.01462
G1 X121.822 Y118.993 E.01498
G1 X121.464 Y119.007 E.01123
G1 X121.067 Y119.141 E.01313
G1 X120.719 Y119.411 E.01381
G1 X120.498 Y119.725 E.01203
G1 X120.261 Y120.209 E.0169
G1 X119.892 Y120.735 E.02016
G1 X119.895 Y120.075 E.02069
G1 X119.984 Y119.559 E.01643
G1 X119.994 Y119.207 E.01103
G1 X119.902 Y118.83 E.01216
G1 X119.726 Y118.524 E.01108
G1 X119.389 Y118.212 E.01438
G1 X118.913 Y118.013 E.01619
G1 X118.511 Y117.967 E.0127
G1 X118.163 Y118.032 E.01109
G1 X117.845 Y118.187 E.01108
G1 X117.59 Y118.433 E.01114
G1 X117.211 Y118.883 E.01845
G1 X116.721 Y119.325 E.02066
G1 X116.874 Y118.678 E.02083
G1 X117.091 Y118.135 E.01832
G1 X117.153 Y117.633 E.01587
G1 X117.075 Y117.241 E.01254
G1 X116.85 Y116.857 E.01395
G1 X116.498 Y116.547 E.01471
G1 X116.186 Y116.392 E.01092
G1 X115.718 Y116.318 E.01487
G1 X115.26 Y116.411 E.01465
G1 X114.901 Y116.644 E.01343
G1 X114.485 Y116.967 E.0165
G1 X113.94 Y117.284 E.01977
G1 X114.219 Y116.675 E.02102
G1 X114.582 Y116.102 E.02126
M73 Q3 S13
G1 X114.709 Y115.679 E.01385
G1 X114.701 Y115.298 E.01197
G1 X114.511 Y114.819 E.01615
G1 X114.204 Y114.453 E.01498
G1 X113.906 Y114.254 E.01123
G1 X113.57 Y114.142 E.01109
G1 X113.129 Y114.129 E.01386
G1 X112.698 Y114.269 E.0142
G1 X112.227 Y114.519 E.01673
G1 X111.627 Y114.718 E.01981
G1 X112.02 Y114.185 E.02075
G1 X112.558 Y113.622 E.02441
G1 X112.7 Y113.338 E.00995
M73 P3 R13
G1 X112.787 Y112.891 E.01429
G1 X112.699 Y112.423 E.01492
G1 X112.474 Y112.002 E.01498
G1 X112.225 Y111.745 E.01123
G1 X111.827 Y111.528 E.0142
G1 X111.426 Y111.462 E.01274
G1 X111.045 Y111.508 E.01204
G1 X110.527 Y111.655 E.0169
G1 X109.883 Y111.723 E.02029
G1 X110.386 Y111.29 E.02081
G1 X110.824 Y111.015 E.01622
G1 X111.092 Y110.786 E.01103
G1 X111.346 Y110.38 E.01502
G1 X111.437 Y110.013 E.01186
G1 X111.433 Y109.8 E.00667
G1 X111.294 Y109.243 E.01799
G1 X110.986 Y108.832 E.01613
G1 X110.769 Y108.663 E.00861
G1 X110.288 Y108.479 E.01617
G1 X109.462 Y108.501 E.02591
G1 X108.819 Y108.443 E.02022
G1 X109.414 Y108.108 E.02142
G1 X110.035 Y107.87 E.02083
G1 X110.467 Y107.513 E.01759
G1 X110.639 Y107.217 E.01072
G1 X110.741 Y106.852 E.01187
G1 X110.73 Y106.408 E.01393
G1 X110.637 Y106.073 E.01092
G1 X110.378 Y105.675 E.01486
G1 X110.003 Y105.397 E.01464
G1 X109.589 Y105.287 E.01344
G1 X109.071 Y105.193 E.0165
G1 X108.472 Y105 E.01972
G1 X109.11 Y104.8 E.02095
G1 X109.779 Y104.686 E.02127
G1 X110.178 Y104.498 E.01386
G1 X110.456 Y104.236 E.01196
G1 X110.685 Y103.775 E.01613
G1 X110.751 Y103.302 E.01497
G1 X110.7 Y102.948 E.01124
G1 X110.559 Y102.624 E.01107
G1 X110.273 Y102.287 E.01386
G1 X109.878 Y102.062 E.01423
G1 X109.379 Y101.877 E.01669
G1 X108.818 Y101.565 E.02013
G1 X109.487 Y101.5 E.02107
G1 X110.21 Y101.526 E.0227
G1 X110.574 Y101.438 E.01172
G1 X110.964 Y101.204 E.01428
G1 X111.252 Y100.826 E.01491
G1 X111.415 Y100.377 E.01498
G1 X111.439 Y100.019 E.01123
G1 X111.334 Y99.579 E.0142
G1 X111.115 Y99.237 E.01274
G1 X110.826 Y98.984 E.01204
G1 X110.37 Y98.698 E.0169
G1 X109.896 Y98.275 E.0199
G1 X110.541 Y98.347 E.02035
G1 X111.045 Y98.49 E.01643
G1 X111.394 Y98.536 E.01103
G1 X111.865 Y98.453 E.01502
G1 X112.199 Y98.275 E.01186
G1 X112.355 Y98.129 E.00668
G1 X112.676 Y97.652 E.01804
G1 X112.775 Y97.149 E.01607
G1 X112.756 Y96.876 E.00861
G1 X112.57 Y96.394 E.01617
G1 X112.007 Y95.802 E.02562
G1 X111.619 Y95.269 E.02066
G1 X112.246 Y95.489 E.02083
G1 X112.764 Y95.761 E.01833
G1 X113.241 Y95.873 E.01536
G1 X113.655 Y95.839 E.01303
G1 X114.067 Y95.652 E.0142
G1 X114.451 Y95.283 E.01669
G1 X114.654 Y94.879 E.01416
G1 X114.715 Y94.414 E.01471
G1 X114.622 Y93.98 E.01392
G1 X114.202 Y93.3 E.02507
G1 X113.935 Y92.7 E.0206
G1 X114.519 Y93.059 E.02151
G1 X114.957 Y93.421 E.01781
G1 X115.334 Y93.607 E.01318
G1 X115.836 Y93.681 E.01591
G1 X116.331 Y93.542 E.01613
G1 X116.505 Y93.447 E.00622
G1 X116.878 Y93.109 E.01578
G1 X117.089 Y92.73 E.01361
G1 X117.16 Y92.216 E.01627
G1 X117.067 Y91.796 E.01348
G1 X116.868 Y91.302 E.01672
G1 X116.726 Y90.679 E.02003
G1 X117.212 Y91.118 E.02054
G1 X117.534 Y91.531 E.01644
G1 X117.997 Y91.903 E.01862
G1 X118.33 Y92.014 E.01099
G1 X118.84 Y92.01 E.01601
G1 X119.251 Y91.864 E.01368
G1 X119.541 Y91.671 E.01091
G1 X119.82 Y91.341 E.01357
G1 X119.986 Y90.889 E.01508
G1 X119.983 Y90.435 E.01424
G1 X119.894 Y89.91 E.01669
G1 X119.883 Y89.267 E.02016
G1 X120.275 Y89.815 E.02111
G1 X120.613 Y90.455 E.02268
G1 X120.897 Y90.748 E.01281
G1 X121.278 Y90.949 E.01352
G1 X121.741 Y91.007 E.01462
G1 X122.212 Y90.924 E.01498
G1 X122.533 Y90.766 E.01123
G1 X122.841 Y90.482 E.01314
G1 X123.049 Y90.093 E.01382
G1 X123.124 Y89.712 E.0122
G1 X123.143 Y89.18 E.01668
G1 X123.273 Y88.56 E.01986
G1 X123.532 Y89.151 E.02023
G1 X123.659 Y89.654 E.01625
G1 X123.794 Y89.983 E.01116
G1 X124.032 Y90.292 E.01221
G1 X124.317 Y90.5 E.01108
G1 X124.752 Y90.648 E.01439
G1 X125.268 Y90.637 E.01618
G1 X125.654 Y90.515 E.0127
G1 X125.945 Y90.314 E.01108
G1 X126.173 Y90.043 E.01108
G1 X126.308 Y89.707 E.01135
G1 X126.472 Y89.14 E.01853
G1 X126.727 Y88.561 E.01982
G1 X126.859 Y89.193 E.02023
G1 X126.882 Y89.777 E.01833
G1 X126.952 Y90.097 E.01027
G1 X127.167 Y90.485 E.01392
G1 X127.44 Y90.747 E.01186
G1 X127.829 Y90.94 E.01361
G1 X128.325 Y91.013 E.01572
G1 X128.833 Y90.907 E.01627
G1 X129.303 Y90.569 E.01814
G1 X129.738 Y89.792 E.02791
G1 X130.108 Y89.265 E.02021
G1 X130.105 Y89.924 E.02069
G1 X130.006 Y90.495 E.01814
G1 X130.008 Y90.825 E.01038
G1 X130.138 Y91.253 E.01401
G1 X130.337 Y91.55 E.01121
G1 X130.511 Y91.706 E.00733
G1 X131.018 Y91.975 E.01799
G1 X131.53 Y92.021 E.01613
G1 X131.8 Y91.974 E.00861
G1 X132.259 Y91.738 E.01617
G1 X132.796 Y91.11 E.02591
G1 X133.266 Y90.685 E.01988
G1 X133.119 Y91.338 E.02099
G1 X132.881 Y91.958 E.02083
G1 X132.857 Y92.519 E.01759
G1 X132.962 Y92.844 E.01072
G1 X133.165 Y93.164 E.01187
G1 X133.502 Y93.453 E.01393
G1 X133.814 Y93.608 E.01092
G1 X134.288 Y93.681 E.01503
M204 S1000
G1 X134.235 Y93.297 F10800
M204 S800
;TYPE:External perimeter
G1 F1200
G1 X134.292 Y93.305 E.00178
G1 X134.689 Y93.197 E.01292
G1 X135.277 Y92.738 E.02339
G1 X135.708 Y92.464 E.016
G1 X136.392 Y92.133 E.02384
G1 X136.598 Y92.318 E.00868
